; generated by Slic3r 1.3.0-dev on 2018-07-06 at 15:45:14

; external perimeters extrusion width = 0.40mm (2.57mm^3/s)
; perimeters extrusion width = 0.67mm (7.54mm^3/s)
; infill extrusion width = 0.67mm (7.54mm^3/s)
; solid infill extrusion width = 0.24mm (1.97mm^3/s)
; top infill extrusion width = 0.67mm (3.77mm^3/s)

M190 S70 ; set bed temperature and wait for it to be reached
M104 S245 ; set temperature
G28 ; home all axes

; Filament gcode

M109 S245 ; set temperature and wait for it to be reached
G21 ; set units to millimeters
G90 ; use absolute coordinates
M82 ; use absolute distances for extrusion
G92 E0
M106 S255
G1 Z0.200 F7800.000
G1 E-6.00000 F3600.00000
G92 E0
G1 X54.172 Y71.532 F7800.000
G1 E6.00000 F3600.00000
G1 F1800
G1 X56.323 Y70.740 E6.03948
G1 X57.500 Y70.635 E6.05982
G1 X97.500 Y70.635 E6.74857
G1 X100.716 Y71.468 E6.80577
G1 X145.716 Y96.468 E7.69216
G1 X147.497 Y97.912 E7.73164
G1 X148.679 Y99.877 E7.77111
G1 X149.121 Y102.256 E7.81279
G1 X149.121 Y105.256 E7.86445
G1 X148.724 Y107.514 E7.90393
G1 X147.455 Y109.648 E7.94667
G1 X134.701 Y124.040 E8.27779
G1 X134.245 Y124.506 E8.28903
G1 X133.315 Y125.367 E8.31083
G1 X132.665 Y125.896 E8.32527
G1 X131.635 Y126.633 E8.34708
G1 X130.923 Y127.076 E8.36152
G1 X129.808 Y127.676 E8.38332
G1 X129.046 Y128.026 E8.39776
G1 X127.863 Y128.480 E8.41957
G1 X127.063 Y128.731 E8.43401
G1 X125.833 Y129.032 E8.45582
G1 X125.007 Y129.179 E8.47026
G1 X123.749 Y129.322 E8.49206
G1 X123.000 Y129.365 E8.50498
G1 X77.000 Y129.365 E9.29704
G1 X76.252 Y129.323 E9.30994
G1 X74.993 Y129.179 E9.33177
G1 X74.167 Y129.032 E9.34621
G1 X72.937 Y128.731 E9.36802
G1 X72.137 Y128.480 E9.38245
G1 X70.954 Y128.026 E9.40426
G1 X70.192 Y127.676 E9.41870
G1 X69.077 Y127.076 E9.44051
G1 X68.365 Y126.633 E9.45495
G1 X67.335 Y125.896 E9.47675
G1 X66.686 Y125.368 E9.49117
G1 X65.755 Y124.506 E9.51300
G1 X65.299 Y124.040 E9.52424
G1 X52.545 Y109.648 E9.85536
G1 X51.344 Y107.694 E9.89484
G1 X50.879 Y105.256 E9.93758
G1 X50.879 Y77.256 E10.41970
G1 X51.276 Y74.998 E10.45918
G1 X52.419 Y73.011 E10.49866
G1 X54.126 Y71.571 E10.53711
G1 X54.369 Y71.658 F7800.000
G1 F1800
G1 X57.500 Y70.842 E10.59282
G1 X97.500 Y70.842 E11.28157
G1 X100.615 Y71.649 E11.33698
G1 X145.615 Y96.649 E12.22336
G1 X147.364 Y98.075 E12.26222
G1 X148.511 Y100.018 E12.30107
G1 X148.914 Y102.256 E12.34023
G1 X148.914 Y105.256 E12.39188
G1 X148.517 Y107.477 E12.43074
G1 X147.300 Y109.510 E12.47153
G1 X134.546 Y123.902 E12.80265
G1 X134.104 Y124.354 E12.81354
G1 X133.175 Y125.215 E12.83535
G1 X132.545 Y125.728 E12.84934
G1 X131.514 Y126.464 E12.87114
G1 X130.825 Y126.894 E12.88513
G1 X129.710 Y127.494 E12.90694
G1 X128.971 Y127.832 E12.92092
G1 X127.789 Y128.287 E12.94273
G1 X127.014 Y128.529 E12.95672
G1 X125.784 Y128.831 E12.97852
G1 X124.984 Y128.973 E12.99251
G1 X123.726 Y129.117 E13.01432
G1 X123.000 Y129.158 E13.02683
G1 X77.000 Y129.158 E13.81890
G1 X76.276 Y129.117 E13.83139
G1 X75.016 Y128.973 E13.85322
G1 X74.216 Y128.831 E13.86721
G1 X72.986 Y128.529 E13.88901
G1 X72.211 Y128.287 E13.90300
G1 X71.029 Y127.832 E13.92481
G1 X70.290 Y127.494 E13.93880
G1 X69.175 Y126.894 E13.96060
G1 X68.486 Y126.464 E13.97459
G1 X67.455 Y125.728 E13.99640
G1 X66.826 Y125.216 E14.01036
G1 X65.896 Y124.354 E14.03219
G1 X65.454 Y123.902 E14.04308
G1 X52.700 Y109.510 E14.37420
G1 X51.523 Y107.585 E14.41305
G1 X51.086 Y105.256 E14.45385
G1 X51.086 Y77.256 E14.93597
G1 X51.483 Y75.035 E14.97482
G1 X52.624 Y73.089 E15.01368
G1 X54.323 Y71.696 E15.05150
G1 X54.566 Y71.786 F7800.000
G1 F1800
G1 X57.500 Y71.049 E15.10359
G1 X97.500 Y71.049 E15.79234
G1 X100.514 Y71.830 E15.84595
G1 X145.514 Y96.830 E16.73234
G1 X147.231 Y98.238 E16.77056
G1 X148.342 Y100.159 E16.80877
G1 X148.707 Y102.256 E16.84543
G1 X148.707 Y105.256 E16.89709
G1 X148.310 Y107.440 E16.93530
G1 X147.145 Y109.373 E16.97417
G1 X134.391 Y123.765 E17.30529
G1 X133.963 Y124.202 E17.31582
G1 X133.034 Y125.063 E17.33763
G1 X132.425 Y125.559 E17.35117
G1 X131.394 Y126.296 E17.37297
G1 X130.727 Y126.711 E17.38651
G1 X129.611 Y127.311 E17.40832
G1 X128.897 Y127.639 E17.42185
G1 X127.715 Y128.093 E17.44366
G1 X126.965 Y128.328 E17.45719
G1 X125.734 Y128.629 E17.47900
G1 X124.961 Y128.768 E17.49254
G1 X123.702 Y128.911 E17.51434
G1 X123.000 Y128.951 E17.52646
G1 X77.000 Y128.951 E18.31852
G1 X76.299 Y128.911 E18.33061
G1 X75.039 Y128.768 E18.35244
G1 X74.266 Y128.629 E18.36597
G1 X73.035 Y128.328 E18.38778
G1 X72.285 Y128.093 E18.40131
G1 X71.103 Y127.639 E18.42312
G1 X70.389 Y127.311 E18.43666
G1 X69.273 Y126.711 E18.45847
G1 X68.606 Y126.296 E18.47200
G1 X67.575 Y125.559 E18.49381
G1 X66.967 Y125.064 E18.50732
G1 X66.037 Y124.202 E18.52915
G1 X65.609 Y123.765 E18.53969
G1 X52.855 Y109.373 E18.87081
G1 X51.703 Y107.476 E18.90902
G1 X51.293 Y105.256 E18.94788
G1 X51.293 Y77.256 E19.43001
G1 X51.690 Y75.073 E19.46822
G1 X52.829 Y73.168 E19.50644
G1 X54.519 Y71.824 E19.54362
G1 E13.54362 F3600.00000
G92 E0
G1 X78.125 Y122.604 F7800.000
G1 E6.00000 F3600.00000
G1 F1080
G1 X78.125 Y120.348 E6.03885
G1 X79.197 Y120.190 E6.05750
G1 X80.343 Y119.832 E6.07818
G1 X81.419 Y119.298 E6.09887
G1 X82.398 Y118.601 E6.11955
G1 X83.255 Y117.759 E6.14023
G1 X83.969 Y116.794 E6.16091
G1 X84.523 Y115.728 E6.18160
G1 X84.903 Y114.583 E6.20236
G1 X85.098 Y113.403 E6.22296
G1 X85.105 Y112.202 E6.24364
G1 X84.924 Y111.014 E6.26433
G1 X84.558 Y109.870 E6.28501
G1 X84.017 Y108.798 E6.30569
G1 X83.315 Y107.823 E6.32637
G1 X82.468 Y106.971 E6.34706
G1 X81.498 Y106.263 E6.36774
G1 X80.429 Y105.716 E6.38842
G1 X79.287 Y105.343 E6.40910
G1 X78.101 Y105.155 E6.42979
G1 X76.899 Y105.155 E6.45047
G1 X75.713 Y105.343 E6.47115
G1 X74.571 Y105.716 E6.49184
G1 X73.502 Y106.263 E6.51252
G1 X72.532 Y106.971 E6.53320
G1 X71.685 Y107.823 E6.55388
G1 X70.983 Y108.798 E6.57457
G1 X70.442 Y109.870 E6.59525
G1 X70.076 Y111.014 E6.61593
G1 X69.895 Y112.202 E6.63661
G1 X69.902 Y113.403 E6.65730
G1 X70.098 Y114.588 E6.67798
G1 X70.477 Y115.728 E6.69866
G1 X71.031 Y116.794 E6.71934
G1 X71.745 Y117.759 E6.74003
G1 X72.602 Y118.601 E6.76071
G1 X73.581 Y119.298 E6.78139
G1 X74.657 Y119.832 E6.80208
G1 X75.803 Y120.190 E6.82276
G1 X76.875 Y120.348 E6.84141
G1 X76.875 Y122.604 E6.88026
G1 X75.764 Y122.477 E6.89952
G1 X74.549 Y122.180 E6.92105
G1 X73.382 Y121.731 E6.94258
G1 X72.280 Y121.139 E6.96412
G1 X71.263 Y120.412 E6.98565
G1 X70.345 Y119.562 E7.00719
G1 X69.542 Y118.603 E7.02872
G1 X68.867 Y117.550 E7.05025
G1 X68.330 Y116.421 E7.07179
G1 X67.941 Y115.232 E7.09332
G1 X67.704 Y114.004 E7.11486
G1 X67.625 Y112.752 E7.13646
G1 X67.625 Y106.751 E7.23980
G1 X67.601 Y106.474 E7.24458
G1 X67.527 Y106.200 E7.24946
G1 X67.408 Y105.944 E7.25434
G1 X67.245 Y105.711 E7.25922
G1 X67.045 Y105.511 E7.26410
G1 X66.813 Y105.349 E7.26897
G1 X66.556 Y105.229 E7.27385
G1 X66.282 Y105.155 E7.27873
G1 X66.006 Y105.131 E7.28351
G1 X57.625 Y105.131 E7.42782
G1 X57.625 Y102.381 E7.47517
G1 X97.375 Y102.381 E8.15961
G1 X97.375 Y105.131 E8.20697
G1 X88.994 Y105.131 E8.35127
G1 X88.718 Y105.155 E8.35605
G1 X88.444 Y105.229 E8.36093
G1 X88.187 Y105.349 E8.36581
G1 X87.955 Y105.511 E8.37069
G1 X87.755 Y105.711 E8.37557
G1 X87.592 Y105.944 E8.38044
G1 X87.473 Y106.200 E8.38532
G1 X87.399 Y106.474 E8.39020
G1 X87.375 Y106.751 E8.39499
G1 X87.375 Y112.752 E8.49833
G1 X87.296 Y114.004 E8.51993
G1 X87.059 Y115.232 E8.54146
G1 X86.670 Y116.421 E8.56299
G1 X86.133 Y117.550 E8.58453
G1 X85.458 Y118.603 E8.60606
G1 X84.655 Y119.562 E8.62760
G1 X83.737 Y120.412 E8.64913
G1 X82.720 Y121.139 E8.67066
G1 X81.618 Y121.731 E8.69220
G1 X80.451 Y122.180 E8.71373
G1 X79.236 Y122.477 E8.73527
G1 X78.185 Y122.597 E8.75349
G1 X78.304 Y122.246 F7800.000
G1 X78.332 Y122.372 F7800.000
G1 F1800
G1 X78.332 Y120.527 E8.78526
G1 X79.243 Y120.393 E8.80112
G1 X80.421 Y120.025 E8.82236
G1 X81.526 Y119.476 E8.84361
G1 X82.531 Y118.760 E8.86485
G1 X83.411 Y117.896 E8.88610
G1 X84.145 Y116.904 E8.90735
G1 X84.714 Y115.809 E8.92859
G1 X85.105 Y114.633 E8.94992
G1 X85.305 Y113.421 E8.97108
G1 X85.312 Y112.187 E8.99233
G1 X85.126 Y110.967 E9.01358
G1 X84.750 Y109.792 E9.03482
G1 X84.195 Y108.690 E9.05607
G1 X83.473 Y107.689 E9.07731
G1 X82.603 Y106.814 E9.09856
G1 X81.607 Y106.086 E9.11981
G1 X80.509 Y105.524 E9.14105
G1 X79.336 Y105.141 E9.16230
G1 X78.117 Y104.947 E9.18354
G1 X76.883 Y104.947 E9.20479
G1 X75.664 Y105.141 E9.22604
G1 X74.491 Y105.524 E9.24728
G1 X73.393 Y106.086 E9.26853
G1 X72.397 Y106.814 E9.28978
G1 X71.527 Y107.689 E9.31102
G1 X70.805 Y108.690 E9.33227
G1 X70.250 Y109.792 E9.35351
G1 X69.874 Y110.967 E9.37476
G1 X69.688 Y112.187 E9.39601
G1 X69.695 Y113.421 E9.41725
G1 X69.896 Y114.638 E9.43850
G1 X70.286 Y115.809 E9.45974
G1 X70.855 Y116.904 E9.48099
G1 X71.589 Y117.896 E9.50224
G1 X72.469 Y118.760 E9.52348
G1 X73.474 Y119.476 E9.54473
G1 X74.579 Y120.025 E9.56597
G1 X75.757 Y120.393 E9.58722
G1 X76.668 Y120.527 E9.60307
G1 X76.668 Y122.372 E9.63485
G1 X75.800 Y122.273 E9.64988
G1 X74.611 Y121.982 E9.67097
G1 X73.468 Y121.543 E9.69205
G1 X72.390 Y120.963 E9.71313
G1 X71.394 Y120.251 E9.73421
G1 X70.495 Y119.419 E9.75529
G1 X69.709 Y118.480 E9.77637
G1 X69.048 Y117.450 E9.79745
G1 X68.523 Y116.344 E9.81853
G1 X68.142 Y115.180 E9.83962
G1 X67.910 Y113.978 E9.86070
G1 X67.832 Y112.746 E9.88196
G1 X67.832 Y106.741 E9.98535
G1 X67.806 Y106.438 E9.99059
G1 X67.723 Y106.129 E9.99610
G1 X67.588 Y105.840 E10.00160
G1 X67.404 Y105.578 E10.00710
G1 X67.178 Y105.352 E10.01260
G1 X66.917 Y105.169 E10.01811
G1 X66.627 Y105.033 E10.02361
G1 X66.318 Y104.951 E10.02911
G1 X66.015 Y104.924 E10.03436
G1 X57.832 Y104.924 E10.17525
G1 X57.832 Y102.588 E10.21548
G1 X97.168 Y102.588 E10.89279
G1 X97.168 Y104.924 E10.93301
G1 X88.985 Y104.924 E11.07390
G1 X88.682 Y104.951 E11.07915
G1 X88.373 Y105.033 E11.08465
G1 X88.083 Y105.168 E11.09016
G1 X87.822 Y105.352 E11.09566
G1 X87.596 Y105.578 E11.10116
G1 X87.412 Y105.840 E11.10667
G1 X87.277 Y106.129 E11.11217
G1 X87.195 Y106.438 E11.11767
G1 X87.168 Y106.742 E11.12292
G1 X87.168 Y112.746 E11.22630
G1 X87.090 Y113.978 E11.24757
G1 X86.858 Y115.180 E11.26865
G1 X86.477 Y116.344 E11.28973
G1 X85.952 Y117.450 E11.31081
G1 X85.291 Y118.480 E11.33189
G1 X84.505 Y119.419 E11.35297
G1 X83.606 Y120.251 E11.37406
G1 X82.610 Y120.963 E11.39514
G1 X81.532 Y121.543 E11.41622
G1 X80.389 Y121.982 E11.43730
G1 X79.200 Y122.273 E11.45838
G1 X78.392 Y122.365 E11.47239
G1 E5.47239 F3600.00000
G92 E0
G1 X79.600 Y121.978 F7800.000
G1 E6.00000 F3600.00000
G1 F1500
G1 X82.667 Y118.911 E6.07476
G1 X81.652 Y119.633 E6.09623
G1 X79.212 Y122.073 E6.15571
G1 X78.871 Y122.121 E6.16165
G1 X81.070 Y119.922 E6.21525
G1 X80.496 Y120.203 E6.22625
G1 X78.540 Y122.159 E6.27393
G1 X78.517 Y122.162 E6.27433
G1 X78.517 Y121.889 E6.27903
G1 X80.070 Y120.336 E6.31687
G1 X79.643 Y120.470 E6.32457
G1 X78.517 Y121.595 E6.35201
G1 X78.517 Y121.302 E6.35706
G1 X79.235 Y120.585 E6.37455
G1 X78.891 Y120.635 E6.38053
G1 X78.517 Y121.009 E6.38965
G1 X78.517 Y120.727 E6.39451
G1 X78.847 Y120.679 E6.40026
G1 E0.40026 F3600.00000
G92 E0
G1 X76.217 Y122.136 F7800.000
G1 E6.00000 F3600.00000
G1 F1500
G1 X76.483 Y121.871 E6.00647
G1 X76.483 Y121.578 E6.01152
G1 X75.954 Y122.107 E6.02440
G1 X75.704 Y122.064 E6.02878
G1 X76.483 Y121.285 E6.04775
G1 X76.483 Y120.992 E6.05281
G1 X75.469 Y122.006 E6.07752
G1 X75.233 Y121.948 E6.08170
G1 X76.483 Y120.683 E6.11234
G1 X76.240 Y120.648 E6.11657
G1 X74.998 Y121.891 E6.14685
G1 X74.762 Y121.833 E6.15103
G1 X75.985 Y120.610 E6.18083
G1 X75.730 Y120.573 E6.18527
G1 X74.539 Y121.763 E6.21428
G1 X74.328 Y121.681 E6.21819
G1 X75.506 Y120.503 E6.24692
G1 X75.283 Y120.433 E6.25095
G1 X74.116 Y121.600 E6.27940
G1 X73.904 Y121.519 E6.28331
G1 X75.060 Y120.363 E6.31148
G1 X74.837 Y120.293 E6.31551
G1 X73.692 Y121.437 E6.34340
G1 X73.486 Y121.351 E6.34726
G1 X74.613 Y120.223 E6.37474
G1 X74.406 Y120.137 E6.37860
G1 X73.295 Y121.248 E6.40569
G1 X73.105 Y121.146 E6.40942
G1 X74.211 Y120.040 E6.43637
G1 X74.015 Y119.942 E6.44014
G1 X72.914 Y121.043 E6.46697
G1 X72.723 Y120.941 E6.47070
G1 X73.819 Y119.845 E6.49740
G1 X73.623 Y119.748 E6.50117
G1 X72.533 Y120.838 E6.52774
G1 X72.478 Y120.808 E6.52882
G1 X72.356 Y120.722 E6.53139
G1 X73.427 Y119.651 E6.55749
G1 X73.251 Y119.533 E6.56114
G1 X72.185 Y120.599 E6.58712
G1 X72.014 Y120.477 E6.59074
G1 X73.080 Y119.412 E6.61672
G1 X72.909 Y119.290 E6.62034
G1 X71.843 Y120.355 E6.64631
G1 X71.672 Y120.233 E6.64993
G1 X72.738 Y119.168 E6.67589
G1 X72.566 Y119.046 E6.67951
G1 X71.501 Y120.111 E6.70547
G1 X71.349 Y119.970 E6.70904
G1 X72.395 Y118.924 E6.73453
G1 X72.242 Y118.784 E6.73810
G1 X71.197 Y119.829 E6.76357
G1 X71.045 Y119.688 E6.76715
G1 X72.094 Y118.639 E6.79272
G1 X71.946 Y118.493 E6.79629
G1 X70.893 Y119.547 E6.82197
G1 X70.741 Y119.406 E6.82554
G1 X71.798 Y118.348 E6.85133
G1 X71.650 Y118.203 E6.85490
G1 X70.593 Y119.261 E6.88068
G1 X70.459 Y119.101 E6.88426
G1 X71.503 Y118.058 E6.90970
G1 X71.370 Y117.897 E6.91329
G1 X70.326 Y118.942 E6.93875
G1 X70.192 Y118.782 E6.94233
G1 X71.246 Y117.728 E6.96802
G1 X71.121 Y117.560 E6.97163
G1 X70.058 Y118.623 E6.99753
G1 X69.925 Y118.463 E7.00111
G1 X70.996 Y117.391 E7.02723
G1 X70.872 Y117.223 E7.03084
G1 X69.800 Y118.294 E7.05696
G1 X69.686 Y118.116 E7.06062
G1 X70.747 Y117.054 E7.08649
G1 X70.638 Y116.871 E7.09017
G1 X69.571 Y117.937 E7.11617
G1 X69.457 Y117.759 E7.11982
G1 X70.538 Y116.678 E7.14617
G1 X70.437 Y116.485 E7.14992
G1 X69.342 Y117.580 E7.17661
G1 X69.228 Y117.402 E7.18027
G1 X70.337 Y116.292 E7.20731
G1 X70.237 Y116.099 E7.21106
G1 X69.130 Y117.206 E7.23805
G1 X69.035 Y117.008 E7.24184
G1 X70.137 Y115.906 E7.26868
G1 X70.058 Y115.692 E7.27262
G1 X68.941 Y116.809 E7.29985
G1 X68.847 Y116.610 E7.30364
G1 X69.985 Y115.472 E7.33139
G1 X69.912 Y115.252 E7.33538
G1 X68.752 Y116.412 E7.36365
G1 X68.694 Y116.289 E7.36599
G1 X68.666 Y116.204 E7.36752
G1 X69.839 Y115.032 E7.39610
G1 X69.765 Y114.812 E7.40009
G1 X68.594 Y115.984 E7.42864
G1 X68.521 Y115.763 E7.43265
G1 X69.703 Y114.582 E7.46144
G1 X69.661 Y114.330 E7.46583
G1 X68.449 Y115.542 E7.49538
G1 X68.377 Y115.321 E7.49938
G1 X69.620 Y114.078 E7.52968
G1 X69.578 Y113.827 E7.53407
G1 X68.310 Y115.095 E7.56498
G1 X68.263 Y114.849 E7.56929
G1 X69.536 Y113.575 E7.60034
G1 X69.509 Y113.309 E7.60495
G1 X68.215 Y114.603 E7.63649
G1 X68.168 Y114.358 E7.64081
G1 X69.508 Y113.018 E7.67346
G1 X69.506 Y112.726 E7.67848
G1 X68.121 Y114.112 E7.71225
G1 X68.086 Y113.853 E7.71675
G1 X69.504 Y112.435 E7.75130
G1 X69.503 Y112.143 E7.75634
G1 X68.069 Y113.577 E7.79130
G1 X68.051 Y113.302 E7.79606
G1 X69.556 Y111.797 E7.83274
G1 X69.609 Y111.451 E7.83877
G1 X68.034 Y113.026 E7.87717
G1 X68.017 Y112.750 E7.88194
G1 X69.662 Y111.105 E7.92203
G1 X69.694 Y110.898 E7.92564
G1 X69.749 Y110.725 E7.92877
G1 X68.017 Y112.457 E7.97098
G1 X68.017 Y112.163 E7.97603
G1 X69.887 Y110.294 E8.02159
G1 X70.024 Y109.863 E8.02939
G1 X68.017 Y111.870 E8.07830
G1 X68.017 Y111.577 E8.08336
G1 X70.258 Y109.336 E8.13798
G1 X70.556 Y108.745 E8.14939
G1 X68.017 Y111.284 E8.21127
G1 X68.017 Y110.991 E8.21632
G1 X71.170 Y107.838 E8.29317
G1 X71.126 Y107.882 F7800.000
G1 F1500
G1 X71.346 Y107.577 E8.29966
G1 X72.239 Y106.678 E8.32149
G1 X72.575 Y106.433 E8.32866
G1 X76.235 Y102.773 E8.41785
G1 X76.528 Y102.773 E8.42290
G1 X73.483 Y105.818 E8.49711
G1 X74.084 Y105.511 E8.50873
G1 X76.821 Y102.773 E8.57545
G1 X77.114 Y102.773 E8.58050
G1 X74.603 Y105.285 E8.64171
G1 X75.038 Y105.143 E8.64960
G1 X77.407 Y102.773 E8.70734
G1 X77.700 Y102.773 E8.71239
G1 X75.473 Y105.001 E8.76668
G1 X75.594 Y104.961 E8.76887
G1 X75.846 Y104.921 E8.77326
G1 X77.993 Y102.773 E8.82561
G1 X78.287 Y102.773 E8.83066
G1 X76.194 Y104.866 E8.88166
G1 X76.543 Y104.810 E8.88774
G1 X78.580 Y102.773 E8.93739
G1 X78.873 Y102.773 E8.94244
G1 X76.884 Y104.762 E8.99091
G1 X77.177 Y104.762 E8.99597
G1 X79.166 Y102.773 E9.04444
G1 X79.459 Y102.773 E9.04949
G1 X77.470 Y104.762 E9.09797
G1 X77.763 Y104.762 E9.10302
G1 X79.752 Y102.773 E9.15150
G1 X80.045 Y102.773 E9.15655
G1 X78.056 Y104.762 E9.20503
G1 X78.317 Y104.795 E9.20955
G1 X80.338 Y102.773 E9.25882
G1 X80.631 Y102.773 E9.26388
