; generated by Slic3r 1.3.0-dev on 2018-07-06 at 15:43:56

; external perimeters extrusion width = 0.40mm (2.57mm^3/s)
; perimeters extrusion width = 0.67mm (7.54mm^3/s)
; infill extrusion width = 0.67mm (7.54mm^3/s)
; solid infill extrusion width = 0.24mm (1.97mm^3/s)
; top infill extrusion width = 0.67mm (3.77mm^3/s)

M190 S70 ; set bed temperature and wait for it to be reached
M104 S245 ; set temperature
G28 ; home all axes

; Filament gcode

M109 S245 ; set temperature and wait for it to be reached
G21 ; set units to millimeters
G90 ; use absolute coordinates
M82 ; use absolute distances for extrusion
G92 E0
M106 S255
G1 Z0.200 F7800.000
G1 E-6.00000 F3600.00000
G92 E0
G1 X66.762 Y57.923 F7800.000
G1 E6.00000 F3600.00000
G1 F1800
G1 X67.093 Y57.550 E6.00860
G1 X67.655 Y56.968 E6.02253
G1 X68.346 Y56.334 E6.03868
G1 X68.835 Y55.933 E6.04956
G1 X69.845 Y55.203 E6.07102
G1 X70.852 Y54.597 E6.09125
G1 X71.473 Y54.273 E6.10332
G1 X72.125 Y53.975 E6.11567
G1 X73.269 Y53.536 E6.13676
G1 X74.417 Y53.205 E6.15734
G1 X75.084 Y53.055 E6.16910
G1 X76.008 Y52.903 E6.18523
G1 X76.839 Y52.817 E6.19962
G1 X98.756 Y50.998 E6.57829
G1 X99.477 Y50.980 E6.59071
G1 X122.097 Y50.980 E6.98020
G1 X123.293 Y51.034 E7.00082
G1 X123.867 Y51.093 E7.01075
G1 X124.700 Y51.222 E7.02527
G1 X125.709 Y51.443 E7.04305
G1 X126.171 Y51.570 E7.05130
G1 X127.000 Y51.837 E7.06629
G1 X127.988 Y52.231 E7.08461
G1 X128.722 Y52.577 E7.09859
G1 X129.258 Y52.864 E7.10906
G1 X130.339 Y53.532 E7.13093
G1 X131.262 Y54.216 E7.15071
G1 X131.819 Y54.683 E7.16324
G1 X132.325 Y55.155 E7.17515
G1 X133.141 Y56.014 E7.19554
G1 X133.913 Y56.979 E7.21682
G1 X134.321 Y57.559 E7.22903
G1 X134.698 Y58.161 E7.24127
G1 X135.226 Y59.125 E7.26019
G1 X135.643 Y60.036 E7.27745
G1 X136.082 Y61.235 E7.29943
G1 X136.254 Y61.812 E7.30980
G1 X136.446 Y62.606 E7.32387
G1 X136.633 Y63.648 E7.34209
G1 X136.726 Y64.504 E7.35692
G1 X136.759 Y64.992 E7.36534
G1 X136.773 Y65.999 E7.38268
G1 X136.731 Y66.868 E7.39766
G1 X136.672 Y67.448 E7.40770
G1 X136.463 Y68.725 E7.42998
G1 X136.190 Y69.814 E7.44931
G1 X135.963 Y70.532 E7.46228
G1 X135.728 Y71.156 E7.47376
G1 X135.236 Y72.260 E7.49457
G1 X134.756 Y73.147 E7.51193
G1 X90.447 Y142.480 E8.92873
G1 X89.705 Y143.491 E8.95033
G1 X89.262 Y144.021 E8.96222
G1 X88.620 Y144.706 E8.97838
G1 X87.937 Y145.347 E8.99452
G1 X87.343 Y145.841 E9.00782
G1 X86.946 Y146.145 E9.01643
G1 X86.156 Y146.689 E9.03294
G1 X85.657 Y146.995 E9.04302
G1 X84.832 Y147.444 E9.05919
G1 X83.985 Y147.838 E9.07527
G1 X83.103 Y148.180 E9.09156
G1 X82.654 Y148.330 E9.09973
G1 X81.817 Y148.570 E9.11471
G1 X80.900 Y148.771 E9.13088
G1 X80.309 Y148.867 E9.14118
G1 X79.357 Y148.973 E9.15767
G1 X78.856 Y149.003 E9.16632
G1 X78.100 Y149.019 E9.17934
G1 X77.163 Y148.982 E9.19548
G1 X75.985 Y148.849 E9.21590
G1 X75.238 Y148.716 E9.22896
G1 X74.390 Y148.515 E9.24397
G1 X73.199 Y148.139 E9.26547
G1 X72.551 Y147.889 E9.27743
G1 X71.698 Y147.501 E9.29357
G1 X70.604 Y146.901 E9.31505
G1 X70.072 Y146.565 E9.32589
G1 X69.305 Y146.021 E9.34208
G1 X68.677 Y145.514 E9.35598
G1 X68.300 Y145.182 E9.36463
G1 X67.888 Y144.793 E9.37438
G1 X67.240 Y144.114 E9.39054
G1 X66.928 Y143.751 E9.39879
G1 X66.387 Y143.068 E9.41378
G1 X65.852 Y142.297 E9.42994
G1 X65.551 Y141.811 E9.43979
G1 X65.304 Y141.377 E9.44839
G1 X64.935 Y140.662 E9.46225
G1 X64.557 Y139.804 E9.47838
G1 X64.333 Y139.208 E9.48935
G1 X64.173 Y138.730 E9.49803
G1 X63.950 Y137.954 E9.51193
G1 X63.759 Y137.109 E9.52685
G1 X63.643 Y136.418 E9.53891
G1 X63.519 Y135.248 E9.55917
G1 X63.489 Y134.335 E9.57489
G1 X63.223 Y67.532 E10.72517
G1 X63.244 Y66.739 E10.73883
G1 X63.277 Y66.242 E10.74741
G1 X63.376 Y65.392 E10.76214
G1 X63.565 Y64.344 E10.78048
G1 X63.713 Y63.729 E10.79137
G1 X63.935 Y62.977 E10.80488
G1 X64.309 Y61.947 E10.82374
G1 X64.690 Y61.090 E10.83988
G1 X65.093 Y60.318 E10.85488
G1 X65.331 Y59.907 E10.86307
G1 X65.881 Y59.061 E10.88044
G1 X66.400 Y58.362 E10.89543
G1 X66.723 Y57.970 E10.90419
G1 X66.921 Y58.055 F7800.000
G1 F1800
G1 X67.798 Y57.117 E10.92629
G1 X68.479 Y56.492 E10.94222
G1 X68.966 Y56.093 E10.95304
G1 X69.957 Y55.376 E10.97412
G1 X70.949 Y54.780 E10.99403
G1 X71.563 Y54.459 E11.00597
G1 X72.210 Y54.164 E11.01821
G1 X73.336 Y53.733 E11.03897
G1 X74.464 Y53.407 E11.05919
G1 X75.126 Y53.258 E11.07087
G1 X76.037 Y53.108 E11.08678
G1 X76.856 Y53.024 E11.10096
G1 X98.762 Y51.205 E11.47944
G1 X99.477 Y51.188 E11.49175
G1 X122.097 Y51.188 E11.88124
G1 X123.272 Y51.240 E11.90150
G1 X123.844 Y51.299 E11.91140
G1 X124.666 Y51.427 E11.92572
G1 X125.661 Y51.644 E11.94327
G1 X126.111 Y51.768 E11.95129
G1 X126.927 Y52.030 E11.96606
G1 X127.902 Y52.419 E11.98412
G1 X128.627 Y52.760 E11.99792
G1 X129.160 Y53.047 E12.00834
G1 X130.221 Y53.702 E12.02981
G1 X131.130 Y54.376 E12.04929
G1 X131.681 Y54.838 E12.06167
G1 X132.183 Y55.306 E12.07350
G1 X132.984 Y56.150 E12.09354
G1 X133.744 Y57.099 E12.11447
G1 X134.149 Y57.674 E12.12658
G1 X134.522 Y58.270 E12.13868
G1 X135.041 Y59.218 E12.15730
G1 X135.453 Y60.118 E12.17433
G1 X135.884 Y61.294 E12.19591
G1 X136.055 Y61.870 E12.20624
G1 X136.244 Y62.652 E12.22012
G1 X136.428 Y63.680 E12.23809
G1 X136.521 Y64.534 E12.25288
G1 X136.552 Y64.999 E12.26090
G1 X136.566 Y65.993 E12.27801
G1 X136.524 Y66.849 E12.29277
G1 X136.466 Y67.427 E12.30278
G1 X136.261 Y68.680 E12.32465
G1 X135.992 Y69.753 E12.34370
G1 X135.767 Y70.462 E12.35650
G1 X135.535 Y71.082 E12.36791
G1 X135.051 Y72.167 E12.38835
G1 X134.577 Y73.042 E12.40549
G1 X90.275 Y142.365 E13.82207
G1 X89.545 Y143.359 E13.84331
G1 X89.106 Y143.885 E13.85511
G1 X88.473 Y144.560 E13.87105
G1 X87.798 Y145.193 E13.88697
G1 X87.212 Y145.681 E13.90011
G1 X86.826 Y145.976 E13.90848
G1 X86.047 Y146.512 E13.92476
G1 X85.550 Y146.818 E13.93480
G1 X84.737 Y147.261 E13.95075
G1 X83.901 Y147.648 E13.96662
G1 X83.031 Y147.986 E13.98268
G1 X82.593 Y148.132 E13.99063
G1 X81.769 Y148.368 E14.00539
G1 X80.864 Y148.567 E14.02134
G1 X80.276 Y148.663 E14.03160
G1 X79.338 Y148.767 E14.04786
G1 X78.850 Y148.796 E14.05627
G1 X78.103 Y148.812 E14.06913
G1 X77.179 Y148.776 E14.08505
G1 X76.019 Y148.644 E14.10515
G1 X75.280 Y148.513 E14.11808
G1 X74.444 Y148.315 E14.13287
G1 X73.273 Y147.945 E14.15402
G1 X72.630 Y147.697 E14.16589
G1 X71.788 Y147.314 E14.18181
G1 X70.714 Y146.726 E14.20290
G1 X70.184 Y146.391 E14.21368
G1 X69.429 Y145.854 E14.22965
G1 X68.442 Y145.032 E14.25177
G1 X68.031 Y144.644 E14.26150
G1 X67.392 Y143.974 E14.27744
G1 X66.556 Y142.948 E14.30024
G1 X66.028 Y142.187 E14.31618
G1 X65.727 Y141.702 E14.32600
G1 X65.123 Y140.574 E14.34803
G1 X64.750 Y139.729 E14.36395
G1 X64.527 Y139.136 E14.37486
G1 X64.372 Y138.671 E14.38330
G1 X64.151 Y137.903 E14.39705
G1 X63.963 Y137.070 E14.41175
G1 X63.848 Y136.385 E14.42372
G1 X63.726 Y135.235 E14.44362
G1 X63.696 Y134.335 E14.45914
G1 X63.430 Y67.532 E15.60941
G1 X63.451 Y66.746 E15.62294
G1 X63.483 Y66.263 E15.63128
G1 X63.580 Y65.425 E15.64580
G1 X63.767 Y64.392 E15.66388
G1 X63.913 Y63.780 E15.67472
G1 X64.133 Y63.037 E15.68805
G1 X64.502 Y62.022 E15.70665
G1 X64.878 Y61.178 E15.72257
G1 X65.275 Y60.417 E15.73734
G1 X65.507 Y60.017 E15.74531
G1 X66.049 Y59.181 E15.76246
G1 X66.560 Y58.493 E15.77722
G1 X66.883 Y58.101 E15.78596
G1 X67.081 Y58.187 F7800.000
G1 F1800
G1 X67.941 Y57.267 E15.80764
G1 X68.613 Y56.650 E15.82335
G1 X69.096 Y56.254 E15.83411
G1 X70.070 Y55.550 E15.85480
G1 X71.046 Y54.963 E15.87441
G1 X71.654 Y54.646 E15.88621
G1 X72.295 Y54.353 E15.89835
G1 X73.402 Y53.929 E15.91877
G1 X74.510 Y53.608 E15.93863
G1 X75.167 Y53.461 E15.95022
G1 X76.066 Y53.313 E15.96591
G1 X76.874 Y53.230 E15.97989
G1 X98.768 Y51.412 E16.35818
G1 X99.477 Y51.395 E16.37038
G1 X122.097 Y51.395 E16.75988
G1 X123.251 Y51.446 E16.77978
G1 X123.822 Y51.505 E16.78965
G1 X124.631 Y51.631 E16.80375
G1 X125.614 Y51.846 E16.82107
G1 X126.855 Y52.224 E16.84342
G1 X127.816 Y52.607 E16.86122
G1 X128.531 Y52.944 E16.87483
G1 X129.062 Y53.229 E16.88521
G1 X130.102 Y53.872 E16.90627
G1 X130.998 Y54.535 E16.92546
G1 X131.542 Y54.992 E16.93770
G1 X132.041 Y55.457 E16.94944
G1 X132.828 Y56.286 E16.96912
G1 X133.576 Y57.219 E16.98971
G1 X133.977 Y57.790 E17.00172
G1 X134.345 Y58.379 E17.01368
G1 X134.856 Y59.311 E17.03199
G1 X135.263 Y60.199 E17.04881
G1 X135.685 Y61.354 E17.06998
G1 X135.856 Y61.927 E17.08027
G1 X136.043 Y62.699 E17.09395
G1 X136.223 Y63.712 E17.11167
G1 X136.345 Y65.005 E17.13404
G1 X136.359 Y65.986 E17.15093
G1 X136.318 Y66.829 E17.16546
G1 X136.260 Y67.406 E17.17545
G1 X136.059 Y68.635 E17.19690
G1 X135.794 Y69.693 E17.21566
G1 X135.572 Y70.393 E17.22831
G1 X135.341 Y71.009 E17.23964
G1 X134.866 Y72.074 E17.25971
G1 X134.398 Y72.938 E17.27663
G1 X90.103 Y142.249 E18.69299
G1 X89.386 Y143.227 E18.71387
G1 X88.950 Y143.749 E18.72559
G1 X88.325 Y144.415 E18.74130
G1 X87.660 Y145.039 E18.75701
G1 X87.081 Y145.520 E18.76997
G1 X86.706 Y145.807 E18.77811
G1 X85.938 Y146.336 E18.79415
G1 X85.443 Y146.641 E18.80417
G1 X84.641 Y147.077 E18.81989
G1 X83.816 Y147.459 E18.83554
G1 X82.959 Y147.792 E18.85138
G1 X81.721 Y148.167 E18.87364
G1 X80.829 Y148.363 E18.88937
G1 X80.243 Y148.458 E18.89959
G1 X79.318 Y148.561 E18.91562
G1 X78.844 Y148.589 E18.92380
G1 X78.107 Y148.605 E18.93649
G1 X77.195 Y148.569 E18.95219
G1 X76.054 Y148.440 E18.97198
G1 X75.321 Y148.311 E18.98478
G1 X74.498 Y148.115 E18.99935
G1 X73.346 Y147.752 E19.02015
G1 X72.708 Y147.505 E19.03193
G1 X71.878 Y147.128 E19.04763
G1 X70.824 Y146.550 E19.06833
G1 X70.297 Y146.218 E19.07905
G1 X69.552 Y145.688 E19.09480
G1 X68.584 Y144.881 E19.11650
G1 X68.174 Y144.494 E19.12621
G1 X67.544 Y143.833 E19.14192
G1 X66.724 Y142.827 E19.16428
G1 X66.203 Y142.077 E19.17999
G1 X65.904 Y141.593 E19.18980
G1 X65.311 Y140.487 E19.21141
G1 X64.943 Y139.653 E19.22710
G1 X64.721 Y139.063 E19.23795
G1 X64.352 Y137.852 E19.25975
G1 X64.166 Y137.032 E19.27424
G1 X64.052 Y136.352 E19.28611
G1 X63.933 Y135.222 E19.30566
G1 X63.903 Y134.334 E19.32097
G1 X63.637 Y67.531 E20.47125
G1 X63.657 Y66.754 E20.48463
G1 X63.689 Y66.284 E20.49274
G1 X63.785 Y65.459 E20.50704
G1 X63.968 Y64.440 E20.52487
G1 X64.114 Y63.831 E20.53565
G1 X64.331 Y63.098 E20.54881
G1 X64.694 Y62.098 E20.56713
G1 X65.066 Y61.265 E20.58283
G1 X65.682 Y60.127 E20.60513
G1 X66.218 Y59.302 E20.62205
G1 X66.721 Y58.624 E20.63660
G1 X67.043 Y58.233 E20.64531
G1 E14.64531 F3600.00000
G92 E0
G1 X85.774 Y131.774 F7800.000
G1 E6.00000 F3600.00000
G1 F1080
G1 X85.922 Y132.270 E6.00892
G1 X86.023 Y132.710 E6.01669
G1 X86.120 Y133.287 E6.02677
G1 X86.171 Y133.870 E6.03685
G1 X86.184 Y134.321 E6.04462
G1 X86.166 Y134.839 E6.05354
G1 X86.103 Y135.422 E6.06363
G1 X86.029 Y135.867 E6.07140
G1 X85.910 Y136.371 E6.08032
G1 X85.737 Y136.930 E6.09040
G1 X85.576 Y137.352 E6.09817
G1 X85.362 Y137.824 E6.10710
G1 X85.118 Y138.282 E6.11603
G1 X84.845 Y138.722 E6.12495
G1 X84.502 Y139.197 E6.13503
G1 X84.171 Y139.595 E6.14395
G1 X83.861 Y139.924 E6.15172
G1 X83.434 Y140.324 E6.16180
G1 X83.031 Y140.650 E6.17073
G1 X82.664 Y140.912 E6.17850
G1 X82.167 Y141.222 E6.18858
G1 X81.709 Y141.464 E6.19750
G1 X81.297 Y141.649 E6.20527
G1 X80.750 Y141.858 E6.21535
G1 X80.189 Y142.022 E6.22543
G1 X79.749 Y142.123 E6.23320
G1 X79.237 Y142.207 E6.24212
G1 X78.654 Y142.260 E6.25221
G1 X78.203 Y142.273 E6.25998
G1 X77.685 Y142.256 E6.26891
G1 X77.169 Y142.205 E6.27783
G1 X76.658 Y142.121 E6.28675
G1 X76.088 Y141.986 E6.29683
G1 X75.593 Y141.832 E6.30576
G1 X75.172 Y141.672 E6.31352
G1 X74.639 Y141.429 E6.32361
G1 X74.183 Y141.182 E6.33253
G1 X73.801 Y140.943 E6.34030
G1 X73.324 Y140.602 E6.35039
G1 X72.925 Y140.271 E6.35931
G1 X72.597 Y139.962 E6.36708
G1 X72.195 Y139.536 E6.37716
G1 X71.828 Y139.079 E6.38724
G1 X71.567 Y138.712 E6.39501
G1 X71.294 Y138.271 E6.40393
G1 X71.022 Y137.752 E6.41402
G1 X70.838 Y137.341 E6.42178
G1 X70.656 Y136.856 E6.43071
G1 X70.489 Y136.294 E6.44079
G1 X70.388 Y135.854 E6.44856
G1 X70.303 Y135.343 E6.45749
G1 X70.248 Y134.760 E6.46757
G1 X70.235 Y134.242 E6.47649
G1 X70.256 Y133.724 E6.48542
G1 X70.301 Y133.275 E6.49319
G1 X70.384 Y132.763 E6.50211
G1 X70.517 Y132.193 E6.51219
G1 X70.670 Y131.698 E6.52112
G1 X70.831 Y131.276 E6.52889
G1 X71.071 Y130.742 E6.53897
G1 X71.317 Y130.286 E6.54789
G1 X71.557 Y129.904 E6.55566
G1 X71.896 Y129.427 E6.56574
G1 X72.271 Y128.977 E6.57582
G1 X72.581 Y128.649 E6.58359
G1 X72.959 Y128.296 E6.59251
G1 X73.415 Y127.927 E6.60260
G1 X73.782 Y127.666 E6.61037
G1 X74.222 Y127.392 E6.61929
G1 X74.740 Y127.118 E6.62938
G1 X75.152 Y126.934 E6.63714
G1 X75.637 Y126.750 E6.64607
G1 X76.197 Y126.582 E6.65615
G1 X76.703 Y126.467 E6.66507
G1 X77.215 Y126.386 E6.67400
G1 X77.731 Y126.338 E6.68292
G1 X78.249 Y126.324 E6.69185
G1 X78.700 Y126.340 E6.69962
G1 X79.283 Y126.396 E6.70971
G1 X79.794 Y126.483 E6.71863
G1 X80.298 Y126.602 E6.72754
G1 X80.857 Y126.777 E6.73763
G1 X81.278 Y126.938 E6.74540
G1 X81.750 Y127.153 E6.75432
G1 X82.264 Y127.433 E6.76441
G1 X82.647 Y127.672 E6.77217
G1 X83.068 Y127.975 E6.78110
G1 X83.518 Y128.349 E6.79118
G1 X83.847 Y128.658 E6.79895
G1 X84.201 Y129.036 E6.80788
G1 X84.571 Y129.490 E6.81796
G1 X84.870 Y129.913 E6.82688
G1 X85.141 Y130.355 E6.83580
G1 X85.383 Y130.814 E6.84473
G1 X85.567 Y131.225 E6.85250
G1 X85.753 Y131.718 E6.86156
G1 X85.774 Y131.774 F7800.000
G1 X85.578 Y131.840 F7800.000
G1 F1800
G1 X85.722 Y132.323 E6.87024
G1 X85.820 Y132.750 E6.87778
G1 X85.914 Y133.313 E6.88762
G1 X85.964 Y133.882 E6.89745
G1 X85.977 Y134.321 E6.90501
G1 X85.959 Y134.824 E6.91368
G1 X85.898 Y135.393 E6.92353
G1 X85.825 Y135.826 E6.93108
G1 X85.710 Y136.317 E6.93976
G1 X85.541 Y136.863 E6.94961
G1 X85.385 Y137.272 E6.95716
G1 X85.176 Y137.733 E6.96586
G1 X84.938 Y138.178 E6.97456
G1 X84.672 Y138.607 E6.98324
G1 X84.338 Y139.070 E6.99307
G1 X84.016 Y139.458 E7.00176
G1 X83.715 Y139.777 E7.00931
G1 X83.298 Y140.168 E7.01915
G1 X82.906 Y140.485 E7.02784
G1 X82.549 Y140.740 E7.03539
G1 X82.064 Y141.043 E7.04524
G1 X81.618 Y141.278 E7.05392
G1 X81.218 Y141.458 E7.06147
G1 X80.684 Y141.661 E7.07130
G1 X80.136 Y141.822 E7.08114
G1 X79.709 Y141.920 E7.08868
G1 X79.211 Y142.001 E7.09737
G1 X78.642 Y142.053 E7.10722
G1 X78.204 Y142.066 E7.11476
G1 X77.699 Y142.049 E7.12346
G1 X77.196 Y142.000 E7.13216
G1 X76.699 Y141.918 E7.14084
G1 X76.143 Y141.786 E7.15067
G1 X75.661 Y141.636 E7.15937
G1 X75.251 Y141.480 E7.16691
G1 X74.731 Y141.244 E7.17676
G1 X74.287 Y141.003 E7.18544
G1 X73.916 Y140.771 E7.19299
G1 X73.450 Y140.438 E7.20284
G1 X73.062 Y140.116 E7.21152
G1 X72.743 Y139.815 E7.21907
G1 X72.352 Y139.400 E7.22890
G1 X71.994 Y138.955 E7.23874
G1 X71.740 Y138.597 E7.24629
G1 X71.474 Y138.169 E7.25497
G1 X71.209 Y137.662 E7.26482
G1 X71.029 Y137.262 E7.27237
G1 X70.852 Y136.790 E7.28105
G1 X70.689 Y136.241 E7.29090
G1 X70.591 Y135.814 E7.29845
G1 X70.509 Y135.316 E7.30714
G1 X70.455 Y134.748 E7.31697
G1 X70.442 Y134.244 E7.32565
G1 X70.462 Y133.739 E7.33435
G1 X70.507 Y133.302 E7.34191
G1 X70.588 Y132.804 E7.35061
G1 X70.717 Y132.247 E7.36044
G1 X70.866 Y131.766 E7.36912
G1 X71.022 Y131.356 E7.37667
G1 X71.257 Y130.834 E7.38653
G1 X71.496 Y130.391 E7.39520
G1 X71.729 Y130.019 E7.40275
G1 X72.060 Y129.553 E7.41259
G1 X72.426 Y129.115 E7.42242
G1 X72.727 Y128.796 E7.42997
G1 X73.095 Y128.452 E7.43865
G1 X73.540 Y128.092 E7.44850
G1 X73.897 Y127.838 E7.45605
G1 X74.325 Y127.572 E7.46473
G1 X74.831 Y127.305 E7.47458
G1 X75.231 Y127.125 E7.48213
G1 X75.703 Y126.947 E7.49082
G1 X76.250 Y126.782 E7.50065
G1 X76.742 Y126.671 E7.50933
G1 X77.240 Y126.592 E7.51803
G1 X77.743 Y126.545 E7.52672
G1 X78.248 Y126.531 E7.53542
G1 X78.686 Y126.547 E7.54297
G1 X79.256 Y126.602 E7.55282
G1 X79.753 Y126.686 E7.56150
G1 X80.243 Y126.802 E7.57017
G1 X80.789 Y126.973 E7.58003
G1 X81.199 Y127.129 E7.58758
G1 X81.657 Y127.338 E7.59626
G1 X82.160 Y127.612 E7.60611
G1 X82.531 Y127.844 E7.61365
G1 X82.941 Y128.139 E7.62234
G1 X83.381 Y128.504 E7.63219
G1 X83.700 Y128.804 E7.63973
G1 X84.045 Y129.173 E7.64842
G1 X84.406 Y129.615 E7.65826
G1 X84.697 Y130.027 E7.66694
G1 X84.961 Y130.458 E7.67563
G1 X85.196 Y130.905 E7.68433
G1 X85.376 Y131.304 E7.69188
G1 X85.556 Y131.784 E7.70070
G1 E1.70070 F3600.00000
