; generated by Slic3r 1.3.0-dev on 2018-06-18 at 14:34:26

; external perimeters extrusion width = 0.40mm (2.57mm^3/s)
; perimeters extrusion width = 0.67mm (7.54mm^3/s)
; infill extrusion width = 0.67mm (7.54mm^3/s)
; solid infill extrusion width = 0.24mm (1.97mm^3/s)
; top infill extrusion width = 0.67mm (3.77mm^3/s)

M190 S70 ; set bed temperature and wait for it to be reached
M104 S245 ; set temperature
G28 ; home all axes

; Filament gcode

M109 S245 ; set temperature and wait for it to be reached
G21 ; set units to millimeters
G90 ; use absolute coordinates
M82 ; use absolute distances for extrusion
G92 E0
M106 S255
G1 Z0.200 F7800.000
G1 E-6.00000 F3600.00000
G92 E0
G1 X69.172 Y82.276 F7800.000
G1 E6.00000 F3600.00000
G1 F1800
G1 X71.323 Y81.484 E6.03948
G1 X72.500 Y81.379 E6.05982
G1 X127.500 Y81.379 E7.00685
G1 X129.758 Y81.776 E7.04633
G1 X131.746 Y82.919 E7.08581
G1 X133.224 Y84.672 E7.12529
G1 X134.016 Y86.823 E7.16477
G1 X134.121 Y88.000 E7.18511
G1 X134.121 Y91.000 E7.23677
G1 X133.724 Y93.258 E7.27625
G1 X133.195 Y94.378 E7.29757
G1 X122.872 Y111.782 E7.64599
G1 X122.592 Y112.243 E7.65529
G1 X121.988 Y113.081 E7.67307
G1 X121.685 Y113.439 E7.68115
G1 X120.960 Y114.172 E7.69890
G1 X120.606 Y114.477 E7.70695
G1 X119.774 Y115.089 E7.72473
G1 X119.377 Y115.336 E7.73278
G1 X118.460 Y115.811 E7.75056
G1 X118.030 Y115.994 E7.75862
G1 X117.343 Y116.241 E7.77118
G1 X114.818 Y116.994 E7.81655
G1 X111.837 Y117.692 E7.86926
G1 X111.419 Y117.774 E7.87660
G1 X108.444 Y118.246 E7.92847
G1 X105.347 Y118.533 E7.98203
G1 X102.500 Y118.621 E8.03107
G1 X97.500 Y118.621 E8.11716
G1 X94.391 Y118.519 E8.17072
G1 X91.182 Y118.196 E8.22626
G1 X88.581 Y117.774 E8.27163
G1 X85.594 Y117.103 E8.32434
G1 X82.656 Y116.240 E8.37706
G1 X81.970 Y115.994 E8.38961
G1 X81.540 Y115.811 E8.39767
G1 X80.623 Y115.336 E8.41545
G1 X80.226 Y115.089 E8.42350
G1 X79.394 Y114.477 E8.44128
G1 X79.040 Y114.172 E8.44933
G1 X78.314 Y113.438 E8.46711
G1 X78.012 Y113.081 E8.47516
G1 X77.408 Y112.243 E8.49294
G1 X66.805 Y94.378 E8.85066
G1 X65.995 Y92.233 E8.89014
G1 X65.879 Y91.000 E8.91146
G1 X65.879 Y88.000 E8.96312
G1 X66.276 Y85.742 E9.00260
G1 X67.419 Y83.754 E9.04208
G1 X69.126 Y82.315 E9.08052
G1 X69.369 Y82.402 F7800.000
G1 F1800
G1 X72.500 Y81.586 E9.13623
G1 X127.500 Y81.586 E10.08326
G1 X129.721 Y81.983 E10.12212
G1 X131.668 Y83.124 E10.16097
G1 X133.098 Y84.869 E10.19982
G1 X133.914 Y88.000 E10.25553
G1 X133.914 Y91.000 E10.30719
G1 X133.517 Y93.221 E10.34604
G1 X133.017 Y94.272 E10.36608
G1 X122.694 Y111.676 E10.71451
G1 X122.415 Y112.136 E10.72377
G1 X121.830 Y112.947 E10.74099
G1 X121.527 Y113.305 E10.74906
G1 X120.824 Y114.015 E10.76626
G1 X120.470 Y114.321 E10.77432
G1 X119.665 Y114.913 E10.79153
G1 X119.268 Y115.160 E10.79959
G1 X118.380 Y115.621 E10.81681
G1 X117.949 Y115.803 E10.82487
G1 X117.284 Y116.042 E10.83704
G1 X114.759 Y116.795 E10.88240
G1 X111.791 Y117.490 E10.93489
G1 X111.386 Y117.569 E10.94200
G1 X108.422 Y118.040 E10.99367
G1 X105.340 Y118.326 E11.04696
G1 X102.500 Y118.414 E11.09589
G1 X97.500 Y118.414 E11.18199
G1 X94.406 Y118.313 E11.23529
G1 X91.578 Y118.040 E11.28422
G1 X88.614 Y117.569 E11.33588
G1 X85.641 Y116.901 E11.38836
G1 X82.716 Y116.042 E11.44085
G1 X82.051 Y115.803 E11.45301
G1 X81.620 Y115.621 E11.46107
G1 X80.732 Y115.160 E11.47829
G1 X80.335 Y114.913 E11.48634
G1 X79.530 Y114.321 E11.50356
G1 X79.176 Y114.015 E11.51162
G1 X78.472 Y113.304 E11.52884
G1 X78.170 Y112.947 E11.53689
G1 X77.585 Y112.136 E11.55411
G1 X66.983 Y94.272 E11.91179
G1 X66.191 Y92.159 E11.95065
G1 X66.086 Y91.000 E11.97069
G1 X66.086 Y88.000 E12.02235
G1 X66.483 Y85.779 E12.06120
G1 X67.624 Y83.832 E12.10005
G1 X69.323 Y82.440 E12.13787
G1 X69.566 Y82.530 F7800.000
G1 F1800
G1 X72.500 Y81.793 E12.18996
G1 X127.500 Y81.793 E13.13699
G1 X129.684 Y82.190 E13.17520
G1 X131.588 Y83.329 E13.21342
G1 X132.970 Y85.066 E13.25163
G1 X133.707 Y88.000 E13.30372
G1 X133.707 Y91.000 E13.35538
G1 X132.839 Y94.167 E13.41192
G1 X122.516 Y111.570 E13.76034
G1 X122.238 Y112.028 E13.76956
G1 X121.672 Y112.814 E13.78623
G1 X121.369 Y113.172 E13.79430
G1 X120.689 Y113.858 E13.81094
G1 X120.335 Y114.164 E13.81900
G1 X119.556 Y114.738 E13.83566
G1 X119.158 Y114.985 E13.84372
G1 X118.299 Y115.430 E13.86038
G1 X117.868 Y115.612 E13.86844
G1 X117.225 Y115.844 E13.88021
G1 X114.700 Y116.597 E13.92558
G1 X111.745 Y117.288 E13.97783
G1 X111.352 Y117.365 E13.98472
G1 X108.401 Y117.834 E14.03618
G1 X105.333 Y118.119 E14.08922
G1 X102.500 Y118.207 E14.13804
G1 X97.500 Y118.207 E14.22413
G1 X94.421 Y118.106 E14.27718
G1 X91.599 Y117.834 E14.32599
G1 X88.648 Y117.365 E14.37745
G1 X85.687 Y116.699 E14.42970
G1 X82.775 Y115.843 E14.48196
G1 X82.132 Y115.612 E14.49373
G1 X81.701 Y115.430 E14.50179
G1 X80.842 Y114.985 E14.51845
G1 X80.444 Y114.738 E14.52651
G1 X79.665 Y114.164 E14.54317
G1 X79.311 Y113.858 E14.55122
G1 X78.630 Y113.171 E14.56789
G1 X78.328 Y112.813 E14.57594
G1 X77.762 Y112.028 E14.59261
G1 X67.161 Y94.167 E14.95025
G1 X66.293 Y91.000 E15.00679
G1 X66.293 Y88.000 E15.05844
G1 X66.690 Y85.816 E15.09666
G1 X67.829 Y83.912 E15.13487
G1 X69.519 Y82.567 E15.17205
G1 E9.17205 F3600.00000
G92 E0
G1 X117.375 Y90.875 F7800.000
G1 E6.00000 F3600.00000
G1 F1080
G1 X117.375 Y107.045 E6.27843
G1 X117.340 Y107.497 E6.28623
G1 X117.236 Y107.933 E6.29395
G1 X117.065 Y108.347 E6.30167
G1 X116.832 Y108.730 E6.30938
G1 X116.545 Y109.070 E6.31705
G1 X116.204 Y109.365 E6.32482
G1 X115.823 Y109.602 E6.33254
G1 X115.408 Y109.778 E6.34030
G1 X112.893 Y110.528 E6.38548
G1 X110.333 Y111.115 E6.43072
G1 X107.740 Y111.537 E6.47595
G1 X105.125 Y111.790 E6.52118
G1 X102.498 Y111.875 E6.56644
G1 X97.502 Y111.875 E6.65247
G1 X94.875 Y111.790 E6.69773
G1 X92.260 Y111.537 E6.74296
G1 X89.686 Y111.119 E6.78787
G1 X87.107 Y110.528 E6.83342
G1 X84.592 Y109.778 E6.87860
G1 X84.177 Y109.602 E6.88637
G1 X83.796 Y109.365 E6.89409
G1 X83.457 Y109.072 E6.90181
G1 X83.168 Y108.730 E6.90952
G1 X82.935 Y108.347 E6.91724
G1 X82.764 Y107.933 E6.92496
G1 X82.660 Y107.497 E6.93268
G1 X82.625 Y107.045 E6.94048
G1 X82.625 Y90.875 E7.21891
G1 X72.625 Y90.875 E7.39109
G1 X72.625 Y88.125 E7.43845
G1 X127.375 Y88.125 E8.38117
G1 X127.375 Y90.875 E8.42852
G1 X117.435 Y90.875 E8.59968
G1 X116.977 Y90.911 F7800.000
G1 X117.168 Y90.668 F7800.000
G1 F1800
G1 X117.168 Y107.037 E8.88153
G1 X117.134 Y107.465 E8.88892
G1 X117.038 Y107.869 E8.89608
G1 X116.880 Y108.254 E8.90324
G1 X116.664 Y108.609 E8.91040
G1 X116.397 Y108.924 E8.91750
G1 X116.080 Y109.198 E8.92472
G1 X115.727 Y109.418 E8.93188
G1 X115.337 Y109.583 E8.93917
G1 X112.840 Y110.328 E8.98404
G1 X110.293 Y110.912 E9.02904
G1 X107.713 Y111.331 E9.07404
G1 X105.112 Y111.584 E9.11904
G1 X102.495 Y111.668 E9.16413
G1 X97.505 Y111.668 E9.25004
G1 X94.888 Y111.584 E9.29514
G1 X92.287 Y111.331 E9.34014
G1 X89.725 Y110.915 E9.38481
G1 X87.160 Y110.328 E9.43014
G1 X84.663 Y109.583 E9.47501
G1 X84.273 Y109.418 E9.48230
G1 X83.919 Y109.198 E9.48946
G1 X83.605 Y108.926 E9.49662
G1 X83.336 Y108.609 E9.50378
G1 X83.120 Y108.254 E9.51094
G1 X82.962 Y107.869 E9.51810
G1 X82.866 Y107.465 E9.52526
G1 X82.832 Y107.037 E9.53264
G1 X82.832 Y90.668 E9.81450
G1 X72.832 Y90.668 E9.98668
G1 X72.832 Y88.332 E10.02690
G1 X127.168 Y88.332 E10.96250
G1 X127.168 Y90.668 E11.00272
G1 X117.228 Y90.668 E11.17387
G1 X116.939 Y90.758 F7800.000
G1 F1500
G1 X116.939 Y90.483 E11.17862
G1 X117.214 Y90.483 E11.18336
G1 X119.179 Y88.517 E11.23137
G1 X119.473 Y88.517 E11.23645
G1 X117.507 Y90.483 E11.28446
G1 X117.801 Y90.483 E11.28953
G1 X119.767 Y88.517 E11.33754
G1 X120.060 Y88.517 E11.34262
G1 X118.095 Y90.483 E11.39063
G1 X118.389 Y90.483 E11.39570
G1 X120.354 Y88.517 E11.44371
G1 X120.648 Y88.517 E11.44878
G1 X118.682 Y90.483 E11.49680
G1 X118.976 Y90.483 E11.50187
G1 X120.942 Y88.517 E11.54988
G1 X121.235 Y88.517 E11.55495
G1 X119.270 Y90.483 E11.60296
G1 X119.564 Y90.483 E11.60804
G1 X121.529 Y88.517 E11.65605
G1 X121.823 Y88.517 E11.66112
G1 X119.857 Y90.483 E11.70913
G1 X120.151 Y90.483 E11.71421
G1 X122.117 Y88.517 E11.76222
G1 X122.410 Y88.517 E11.76729
G1 X120.445 Y90.483 E11.81530
G1 X120.739 Y90.483 E11.82037
G1 X122.704 Y88.517 E11.86839
G1 X122.998 Y88.517 E11.87346
G1 X121.032 Y90.483 E11.92147
G1 X121.326 Y90.483 E11.92654
G1 X123.292 Y88.517 E11.97455
G1 X123.585 Y88.517 E11.97963
G1 X121.620 Y90.483 E12.02764
G1 X121.913 Y90.483 E12.03271
G1 X123.879 Y88.517 E12.08072
G1 X124.173 Y88.517 E12.08580
G1 X122.207 Y90.483 E12.13381
G1 X122.501 Y90.483 E12.13888
G1 X124.467 Y88.517 E12.18689
G1 X124.760 Y88.517 E12.19197
G1 X122.795 Y90.483 E12.23998
G1 X123.088 Y90.483 E12.24505
G1 X125.054 Y88.517 E12.29306
G1 X125.348 Y88.517 E12.29813
G1 X123.382 Y90.483 E12.34614
G1 X123.676 Y90.483 E12.35122
G1 X125.642 Y88.517 E12.39923
G1 X125.935 Y88.517 E12.40430
G1 X123.970 Y90.483 E12.45231
G1 X124.263 Y90.483 E12.45739
G1 X126.229 Y88.517 E12.50540
G1 X126.523 Y88.517 E12.51047
G1 X124.557 Y90.483 E12.55848
G1 X124.851 Y90.483 E12.56356
G1 X126.817 Y88.517 E12.61157
G1 X126.983 Y88.517 E12.61444
G1 X126.983 Y88.645 E12.61664
G1 X125.145 Y90.483 E12.66154
G1 X125.438 Y90.483 E12.66661
G1 X126.983 Y88.938 E12.70433
G1 X126.983 Y89.232 E12.70940
G1 X125.732 Y90.483 E12.73995
G1 X126.026 Y90.483 E12.74503
G1 X126.983 Y89.526 E12.76840
G1 X126.983 Y89.820 E12.77347
G1 X126.320 Y90.483 E12.78967
G1 X126.613 Y90.483 E12.79474
G1 X126.983 Y90.113 E12.80376
G1 X126.983 Y90.407 E12.80884
G1 X126.907 Y90.483 E12.81069
G1 E6.81069 F3600.00000
G92 E0
G1 X116.227 Y108.801 F7800.000
G1 E6.00000 F3600.00000
G1 F1500
G1 X116.517 Y108.466 E6.00766
G1 X116.716 Y108.138 E6.01429
G1 X116.801 Y107.933 E6.01812
G1 X115.382 Y109.352 E6.05278
G1 X114.939 Y109.501 E6.06085
G1 X116.927 Y107.513 E6.10940
G1 X116.970 Y107.177 E6.11526
G1 X114.520 Y109.626 E6.17509
G1 X114.102 Y109.751 E6.18263
G1 X116.983 Y106.870 E6.25300
G1 X116.983 Y106.576 E6.25808
G1 X113.683 Y109.876 E6.33868
G1 X113.264 Y110.001 E6.34622
G1 X116.983 Y106.282 E6.43705
G1 X116.983 Y105.988 E6.44212
G1 X112.846 Y110.125 E6.54317
G1 X112.457 Y110.220 E6.55008
G1 X116.983 Y105.695 E6.66061
G1 X116.983 Y105.401 E6.66569
G1 X112.076 Y110.308 E6.78553
G1 X111.695 Y110.395 E6.79229
G1 X116.983 Y105.107 E6.92145
G1 X116.983 Y104.813 E6.92652
G1 X111.314 Y110.482 E7.06499
G1 X110.932 Y110.570 E7.07174
G1 X116.983 Y104.520 E7.21952
G1 X116.983 Y104.226 E7.22460
G1 X110.551 Y110.657 E7.38169
G1 X110.175 Y110.740 E7.38834
G1 X116.983 Y103.932 E7.55462
G1 X116.983 Y103.638 E7.55970
G1 X109.824 Y110.797 E7.73455
G1 X109.473 Y110.854 E7.74068
G1 X116.983 Y103.345 E7.92410
G1 X116.983 Y103.051 E7.92917
G1 X109.123 Y110.911 E8.12116
G1 X108.772 Y110.968 E8.12729
G1 X116.983 Y102.757 E8.32784
G1 X116.983 Y102.463 E8.33292
G1 X108.421 Y111.025 E8.54203
G1 X108.070 Y111.082 E8.54817
G1 X116.983 Y102.170 E8.76585
G1 X116.983 Y101.876 E8.77093
G1 X107.720 Y111.139 E8.99718
G1 X107.390 Y111.174 E9.00290
G1 X116.983 Y101.582 E9.23719
G1 X116.983 Y101.288 E9.24226
G1 X107.065 Y111.206 E9.48450
G1 X106.740 Y111.238 E9.49014
G1 X116.983 Y100.995 E9.74033
G1 X116.983 Y100.701 E9.74540
G1 X106.415 Y111.269 E10.00353
G1 X106.089 Y111.301 E10.00917
G1 X116.983 Y100.407 E10.27524
G1 X116.983 Y100.113 E10.28032
G1 X105.764 Y111.332 E10.55433
G1 X105.439 Y111.364 E10.55998
G1 X116.983 Y99.820 E10.84194
G1 X116.983 Y99.526 E10.84701
G1 X105.114 Y111.395 E11.13692
G1 X104.808 Y111.407 E11.14221
G1 X116.983 Y99.232 E11.43959
G1 X116.983 Y98.938 E11.44467
G1 X104.504 Y111.417 E11.74946
G1 X104.200 Y111.427 E11.75471
G1 X116.983 Y98.645 E12.06691
G1 X116.983 Y98.351 E12.07199
G1 X103.897 Y111.437 E12.39161
G1 X103.593 Y111.447 E12.39685
G1 X116.983 Y98.057 E12.72389
G1 X116.983 Y97.763 E12.72896
G1 X103.290 Y111.456 E13.06341
G1 X102.986 Y111.466 E13.06866
G1 X116.983 Y97.470 E13.41052
G1 X116.983 Y97.176 E13.41560
G1 X102.683 Y111.476 E13.76487
G1 X102.382 Y111.483 E13.77007
G1 X116.983 Y96.882 E14.12669
G1 X116.983 Y96.588 E14.13176
G1 X102.088 Y111.483 E14.49555
G1 X101.795 Y111.483 E14.50063
G1 X116.983 Y96.295 E14.87160
G1 X116.983 Y96.001 E14.87667
G1 X101.501 Y111.483 E15.25481
G1 X101.207 Y111.483 E15.25989
G1 X116.983 Y95.707 E15.64520
G1 X116.983 Y95.413 E15.65028
G1 X100.913 Y111.483 E16.04277
G1 X100.620 Y111.483 E16.04784
G1 X116.983 Y95.120 E16.44751
G1 X116.983 Y94.826 E16.45259
G1 X100.326 Y111.483 E16.85943
G1 X100.032 Y111.483 E16.86450
G1 X116.983 Y94.532 E17.27852
G1 X116.983 Y94.239 E17.28359
G1 X99.739 Y111.483 E17.70478
G1 X99.445 Y111.483 E17.70986
G1 X116.983 Y93.945 E18.13822
G1 X116.983 Y93.651 E18.14330
G1 X99.151 Y111.483 E18.57884
G1 X98.857 Y111.483 E18.58391
G1 X116.983 Y93.357 E19.02663
G1 X116.983 Y93.064 E19.03170
G1 X98.564 Y111.483 E19.48159
G1 X98.270 Y111.483 E19.48667
G1 X116.983 Y92.770 E19.94373
G1 X116.983 Y92.476 E19.94881
G1 X97.976 Y111.483 E20.41305
G1 X97.682 Y111.483 E20.41812
G1 X116.983 Y92.182 E20.88953
G1 X116.983 Y91.889 E20.89461
G1 X97.392 Y111.480 E21.37312
G1 X97.107 Y111.471 E21.37804
G1 X116.983 Y91.595 E21.86351
G1 X116.983 Y91.301 E21.86858
G1 X96.822 Y111.461 E22.36100
G1 X96.538 Y111.452 E22.36591
G1 X116.983 Y91.007 E22.86528
G1 X116.983 Y90.714 E22.87035
G1 X96.253 Y111.443 E23.37667
G1 X95.969 Y111.434 E23.38159
G1 X118.885 Y88.517 E23.94133
G1 X118.592 Y88.517 E23.94640
G1 X95.684 Y111.425 E24.50592
G1 X95.400 Y111.416 E24.51084
G1 X118.298 Y88.517 E25.07013
G1 X118.004 Y88.517 E25.07520
G1 X95.115 Y111.406 E25.63427
G1 X94.833 Y111.394 E25.63914
G1 X117.710 Y88.517 E26.19792
G1 X117.417 Y88.517 E26.20299
G1 X94.566 Y111.368 E26.76113
G1 X94.298 Y111.342 E26.76578
G1 X117.123 Y88.517 E27.32328
G1 X116.829 Y88.517 E27.32835
G1 X94.030 Y111.316 E27.88523
G1 X93.762 Y111.290 E27.88987
G1 X116.536 Y88.517 E28.44611
G1 X116.242 Y88.517 E28.45118
G1 X93.494 Y111.265 E29.00679
G1 X93.227 Y111.239 E29.01143
G1 X115.948 Y88.517 E29.56640
G1 X115.654 Y88.517 E29.57148
G1 X92.959 Y111.213 E30.12581
G1 X92.691 Y111.187 E30.13046
G1 X115.361 Y88.517 E30.68416
G1 X115.067 Y88.517 E30.68923
G1 X92.423 Y111.161 E31.24230
G1 X92.163 Y111.127 E31.24683
G1 X114.773 Y88.517 E31.79908
G1 X114.479 Y88.517 E31.80415
G1 X91.910 Y111.086 E32.35539
G1 X91.658 Y111.045 E32.35982
G1 X114.186 Y88.517 E32.91006
G1 X113.892 Y88.517 E32.91513
G1 X91.405 Y111.004 E33.46437
G1 X91.152 Y110.963 E33.46879
G1 X113.598 Y88.517 E34.01702
G1 X113.304 Y88.517 E34.02210
G1 X90.900 Y110.922 E34.56933
G1 X90.647 Y110.881 E34.57375
G1 X113.011 Y88.517 E35.11998
G1 X112.717 Y88.517 E35.12505
G1 X90.394 Y110.840 E35.67028
G1 X90.142 Y110.799 E35.67470
G1 X112.423 Y88.517 E36.21892
G1 X112.129 Y88.517 E36.22399
G1 X89.889 Y110.758 E36.76721
G1 X89.642 Y110.711 E36.77155
G1 X111.836 Y88.517 E37.31363
G1 X111.542 Y88.517 E37.31870
G1 X89.403 Y110.656 E37.85944
G1 X89.164 Y110.601 E37.86368
G1 X111.248 Y88.517 E38.40308
G1 X110.954 Y88.517 E38.40815
G1 X88.925 Y110.546 E38.94622
G1 X88.686 Y110.492 E38.95045
G1 X110.661 Y88.517 E39.48718
G1 X110.367 Y88.517 E39.49226
G1 X88.447 Y110.437 E40.02765
G1 X88.208 Y110.382 E40.03188
G1 X110.073 Y88.517 E40.56594
G1 X109.779 Y88.517 E40.57101
G1 X87.969 Y110.328 E41.10373
G1 X87.730 Y110.273 E41.10797
G1 X109.486 Y88.517 E41.63935
G1 X109.192 Y88.517 E41.64442
G1 X87.491 Y110.218 E42.17447
G1 X87.252 Y110.163 E42.17870
G1 X108.898 Y88.517 E42.70741
G1 X108.604 Y88.517 E42.71249
G1 X87.022 Y110.099 E43.23963
G1 X86.796 Y110.032 E43.24371
G1 X108.311 Y88.517 E43.76920
G1 X108.017 Y88.517 E43.77427
G1 X86.570 Y109.964 E44.29812
G1 X86.344 Y109.897 E44.30219
G1 X107.723 Y88.517 E44.82439
G1 X107.429 Y88.517 E44.82946
G1 X86.117 Y109.829 E45.35001
G1 X85.891 Y109.762 E45.35409
G1 X107.136 Y88.517 E45.87298
G1 X106.842 Y88.517 E45.87806
G1 X85.665 Y109.694 E46.39530
G1 X85.439 Y109.627 E46.39938
G1 X106.548 Y88.517 E46.91498
G1 X106.254 Y88.517 E46.92006
G1 X85.212 Y109.559 E47.43401
G1 X84.986 Y109.492 E47.43808
G1 X105.961 Y88.517 E47.95039
G1 X105.667 Y88.517 E47.95546
G1 X84.760 Y109.424 E48.46611
G1 X84.549 Y109.341 E48.47002
G1 X105.373 Y88.517 E48.97865
G1 X105.079 Y88.517 E48.98372
