; generated by Slic3r 1.3.0-dev on 2018-07-10 at 14:07:23

; external perimeters extrusion width = 0.40mm (2.57mm^3/s)
; perimeters extrusion width = 0.67mm (7.54mm^3/s)
; infill extrusion width = 0.67mm (7.54mm^3/s)
; solid infill extrusion width = 0.24mm (1.97mm^3/s)
; top infill extrusion width = 0.67mm (3.77mm^3/s)

M190 S70 ; set bed temperature and wait for it to be reached
M104 S245 ; set temperature
G28 ; home all axes

; Filament gcode

M109 S245 ; set temperature and wait for it to be reached
G21 ; set units to millimeters
G90 ; use absolute coordinates
M82 ; use absolute distances for extrusion
G92 E0
M106 S255
G1 Z0.200 F7800.000
G1 E-6.00000 F3600.00000
G92 E0
G1 X86.919 Y86.254 F7800.000
G1 E6.00000 F3600.00000
G1 F1800
G1 X88.672 Y84.776 E6.03948
G1 X90.823 Y83.984 E6.07896
G1 X92.000 Y83.879 E6.09930
G1 X108.000 Y83.879 E6.37480
G1 X110.258 Y84.276 E6.41428
G1 X112.246 Y85.419 E6.45376
G1 X113.724 Y87.172 E6.49324
G1 X114.516 Y89.323 E6.53272
G1 X114.621 Y90.500 E6.55306
G1 X114.621 Y109.500 E6.88021
G1 X114.224 Y111.758 E6.91969
G1 X113.081 Y113.746 E6.95917
G1 X111.328 Y115.224 E6.99865
G1 X109.177 Y116.016 E7.03813
G1 X108.000 Y116.121 E7.05847
G1 X92.000 Y116.121 E7.33397
G1 X89.742 Y115.724 E7.37345
G1 X87.754 Y114.581 E7.41293
G1 X86.276 Y112.828 E7.45241
G1 X85.484 Y110.677 E7.49189
G1 X85.379 Y109.500 E7.51223
G1 X85.379 Y90.500 E7.83939
G1 X85.776 Y88.242 E7.87887
G1 X86.889 Y86.306 E7.91731
G1 X87.124 Y86.332 F7800.000
G1 F1800
G1 X88.869 Y84.902 E7.95616
G1 X92.000 Y84.086 E8.01187
G1 X108.000 Y84.086 E8.28737
G1 X110.221 Y84.483 E8.32623
G1 X112.168 Y85.624 E8.36508
G1 X113.598 Y87.369 E8.40393
G1 X114.414 Y90.500 E8.45964
G1 X114.414 Y109.500 E8.78680
G1 X114.017 Y111.721 E8.82565
G1 X112.876 Y113.668 E8.86450
G1 X111.131 Y115.098 E8.90335
G1 X108.000 Y115.914 E8.95906
G1 X92.000 Y115.914 E9.23456
G1 X89.779 Y115.517 E9.27342
G1 X87.832 Y114.376 E9.31227
G1 X86.402 Y112.631 E9.35112
G1 X85.586 Y109.500 E9.40683
G1 X85.586 Y90.500 E9.73399
G1 X85.983 Y88.279 E9.77284
G1 X87.094 Y86.384 E9.81066
G1 X87.329 Y86.412 F7800.000
G1 F1800
G1 X89.066 Y85.030 E9.84887
G1 X92.000 Y84.293 E9.90096
G1 X108.000 Y84.293 E10.17646
G1 X110.184 Y84.690 E10.21468
G1 X112.088 Y85.829 E10.25289
G1 X113.470 Y87.566 E10.29111
G1 X114.207 Y90.500 E10.34319
G1 X114.207 Y109.500 E10.67035
G1 X113.810 Y111.684 E10.70857
G1 X112.671 Y113.588 E10.74678
G1 X110.934 Y114.970 E10.78500
G1 X108.000 Y115.707 E10.83709
G1 X92.000 Y115.707 E11.11258
G1 X89.816 Y115.310 E11.15080
G1 X87.912 Y114.171 E11.18901
G1 X86.530 Y112.434 E11.22723
G1 X85.793 Y109.500 E11.27932
G1 X85.793 Y90.500 E11.60647
G1 X86.190 Y88.316 E11.64469
G1 X87.299 Y86.463 E11.68187
G1 E5.68187 F3600.00000
G92 E0
G1 X107.875 Y109.375 F7800.000
G1 E6.00000 F3600.00000
G1 F1080
G1 X92.125 Y109.375 E6.27119
G1 X92.125 Y90.625 E6.59405
G1 X107.875 Y90.625 E6.86524
G1 X107.875 Y109.315 E7.18706
G1 X107.492 Y109.260 F7800.000
G1 X107.668 Y109.168 F7800.000
G1 F1800
G1 X92.332 Y109.168 E7.45112
G1 X92.332 Y90.832 E7.76684
G1 X107.668 Y90.832 E8.03091
G1 X107.668 Y109.108 E8.34559
G1 E2.34559 F3600.00000
G92 E0
G1 X101.362 Y101.362 F7800.000
G1 E6.00000 F3600.00000
G1 F1200
G1 X100.963 Y101.668 E6.00866
G1 X100.499 Y101.860 E6.01732
G1 X100.000 Y101.926 E6.02597
G1 X99.501 Y101.860 E6.03463
G1 X99.037 Y101.668 E6.04329
G1 X98.638 Y101.362 E6.05195
G1 X98.332 Y100.963 E6.06060
G1 X98.140 Y100.498 E6.06926
G1 X98.074 Y100.000 E6.07792
G1 X98.140 Y99.501 E6.08658
G1 X98.332 Y99.037 E6.09523
G1 X98.638 Y98.638 E6.10389
G1 X99.037 Y98.332 E6.11255
G1 X99.501 Y98.140 E6.12121
G1 X99.988 Y98.076 E6.12966
G1 X100.498 Y98.139 E6.13851
G1 X100.963 Y98.332 E6.14717
G1 X101.362 Y98.638 E6.15583
G1 X101.668 Y99.037 E6.16449
G1 X101.860 Y99.501 E6.17315
G1 X101.926 Y100.000 E6.18181
G1 X101.860 Y100.498 E6.19046
G1 X101.668 Y100.963 E6.19912
G1 X101.398 Y101.314 E6.20675
G1 X101.362 Y101.362 F7800.000
G1 X101.488 Y101.526 F7800.000
G1 F1200
G1 X101.067 Y101.849 E6.21587
G1 X100.553 Y102.062 E6.22547
G1 X100.000 Y102.135 E6.23507
G1 X99.447 Y102.062 E6.24466
G1 X98.933 Y101.849 E6.25426
G1 X98.490 Y101.510 E6.26385
G1 X98.151 Y101.067 E6.27345
G1 X97.938 Y100.553 E6.28305
G1 X97.865 Y100.000 E6.29264
G1 X97.938 Y99.447 E6.30224
G1 X98.151 Y98.933 E6.31184
G1 X98.490 Y98.490 E6.32143
G1 X98.933 Y98.151 E6.33103
G1 X99.447 Y97.938 E6.34063
G1 X99.987 Y97.867 E6.35000
G1 X100.552 Y97.937 E6.35980
G1 X101.067 Y98.151 E6.36941
G1 X101.510 Y98.490 E6.37901
G1 X101.849 Y98.933 E6.38860
G1 X102.062 Y99.447 E6.39820
G1 X102.135 Y100.000 E6.40780
G1 X102.062 Y100.553 E6.41739
G1 X101.849 Y101.067 E6.42699
G1 X101.530 Y101.484 E6.43602
G1 E0.43602 F3600.00000
G92 E0
G1 X92.517 Y104.257 F7800.000
G1 E6.00000 F3600.00000
G1 F1500
G1 X92.517 Y104.550 E6.00506
G1 X97.802 Y99.266 E6.13391
G1 X97.758 Y99.371 E6.13588
G1 X97.723 Y99.638 E6.14051
G1 X92.517 Y104.844 E6.26745
G1 X92.517 Y105.137 E6.27250
G1 X97.678 Y99.976 E6.39835
G1 X97.712 Y100.235 E6.40287
G1 X92.517 Y105.430 E6.52953
G1 X92.517 Y105.723 E6.53459
G1 X97.746 Y100.494 E6.66209
G1 X97.758 Y100.585 E6.66366
G1 X97.814 Y100.720 E6.66618
G1 X92.517 Y106.017 E6.79533
G1 X92.517 Y106.310 E6.80039
G1 X97.900 Y100.927 E6.93164
G1 X97.986 Y101.135 E6.93551
G1 X92.517 Y106.603 E7.06885
G1 X92.517 Y106.896 E7.07390
G1 X98.110 Y101.304 E7.21027
G1 X98.237 Y101.469 E7.21388
G1 X92.517 Y107.190 E7.35336
G1 X92.517 Y107.483 E7.35841
G1 X98.365 Y101.635 E7.50099
G1 X98.531 Y101.763 E7.50460
G1 X92.517 Y107.776 E7.65122
G1 X92.517 Y108.069 E7.65628
G1 X98.697 Y101.890 E7.80695
G1 X98.866 Y102.014 E7.81057
G1 X92.517 Y108.363 E7.96536
G1 X92.517 Y108.656 E7.97042
G1 X99.073 Y102.100 E8.13026
G1 X99.280 Y102.186 E8.13413
G1 X92.517 Y108.949 E8.29904
G1 X92.517 Y108.983 E8.29962
G1 X92.777 Y108.983 E8.30409
G1 X99.506 Y102.254 E8.46817
G1 X99.765 Y102.288 E8.47267
G1 X93.070 Y108.983 E8.63592
G1 X93.363 Y108.983 E8.64097
G1 X100.024 Y102.321 E8.80340
G1 X100.362 Y102.277 E8.80927
G1 X93.656 Y108.983 E8.97278
G1 X93.950 Y108.983 E8.97783
G1 X100.734 Y102.198 E9.14326
G1 X101.194 Y102.008 E9.15184
G1 X101.297 Y101.929 E9.15408
G1 X94.243 Y108.983 E9.32609
G1 E3.32609 F3600.00000
G92 E0
G1 X107.439 Y108.983 F7800.000
G1 E6.00000 F3600.00000
G1 F1500
G1 X107.483 Y108.939 E6.00107
G1 X107.483 Y108.646 E6.00613
G1 X107.146 Y108.983 E6.01436
G1 X106.852 Y108.983 E6.01941
G1 X107.483 Y108.352 E6.03479
G1 X107.483 Y108.059 E6.03984
G1 X106.559 Y108.983 E6.06237
G1 X106.266 Y108.983 E6.06742
G1 X107.483 Y107.766 E6.09710
G1 X107.483 Y107.473 E6.10215
G1 X105.973 Y108.983 E6.13898
G1 X105.679 Y108.983 E6.14403
G1 X107.483 Y107.179 E6.18801
G1 X107.483 Y106.886 E6.19307
G1 X105.386 Y108.983 E6.24419
G1 X105.093 Y108.983 E6.24925
G1 X107.483 Y106.593 E6.30752
G1 X107.483 Y106.300 E6.31258
G1 X104.800 Y108.983 E6.37801
G1 X104.506 Y108.983 E6.38306
G1 X107.483 Y106.006 E6.45564
G1 X107.483 Y105.713 E6.46069
G1 X104.213 Y108.983 E6.54042
G1 X103.920 Y108.983 E6.54547
G1 X107.483 Y105.420 E6.63235
G1 X107.483 Y105.127 E6.63741
G1 X103.627 Y108.983 E6.73143
G1 X103.333 Y108.983 E6.73649
G1 X107.483 Y104.833 E6.83767
G1 X107.483 Y104.540 E6.84272
G1 X103.040 Y108.983 E6.95105
G1 X102.747 Y108.983 E6.95610
G1 X107.483 Y104.247 E7.07158
G1 X107.483 Y103.954 E7.07664
G1 X102.454 Y108.983 E7.19926
G1 X102.160 Y108.983 E7.20432
G1 X107.483 Y103.660 E7.33410
G1 X107.483 Y103.367 E7.33915
G1 X101.867 Y108.983 E7.47608
G1 X101.574 Y108.983 E7.48114
G1 X107.483 Y103.074 E7.62521
G1 X107.483 Y102.781 E7.63027
G1 X101.281 Y108.983 E7.78150
G1 X100.987 Y108.983 E7.78655
G1 X107.483 Y102.487 E7.94493
G1 X107.483 Y102.194 E7.94999
G1 X100.694 Y108.983 E8.11551
G1 X100.401 Y108.983 E8.12057
G1 X107.483 Y101.901 E8.29325
G1 X107.483 Y101.608 E8.29830
G1 X100.108 Y108.983 E8.47813
G1 X99.814 Y108.983 E8.48319
G1 X107.483 Y101.314 E8.67017
G1 X107.483 Y101.021 E8.67522
G1 X99.521 Y108.983 E8.86935
G1 X99.228 Y108.983 E8.87441
G1 X107.483 Y100.728 E9.07569
G1 X107.483 Y100.435 E9.08074
G1 X98.935 Y108.983 E9.28917
G1 X98.641 Y108.983 E9.29423
G1 X107.483 Y100.142 E9.50981
G1 X107.483 Y99.848 E9.51486
G1 X98.348 Y108.983 E9.73759
G1 X98.055 Y108.983 E9.74265
G1 X107.483 Y99.555 E9.97253
G1 X107.483 Y99.262 E9.97758
G1 X97.762 Y108.983 E10.21461
G1 X97.469 Y108.983 E10.21967
G1 X107.483 Y98.969 E10.46385
G1 X107.483 Y98.675 E10.46890
G1 X97.175 Y108.983 E10.72023
G1 X96.882 Y108.983 E10.72529
G1 X107.483 Y98.382 E10.98377
G1 X107.483 Y98.089 E10.98882
G1 X96.589 Y108.983 E11.25445
G1 X96.296 Y108.983 E11.25951
G1 X107.483 Y97.796 E11.53229
G1 X107.483 Y97.502 E11.53734
G1 X96.002 Y108.983 E11.81727
G1 X95.709 Y108.983 E11.82233
G1 X107.483 Y97.209 E12.10941
G1 X107.483 Y96.916 E12.11447
G1 X95.416 Y108.983 E12.40870
G1 X95.123 Y108.983 E12.41375
G1 X107.483 Y96.623 E12.71513
G1 X107.483 Y96.329 E12.72019
G1 X94.829 Y108.983 E13.02872
G1 X94.536 Y108.983 E13.03378
G1 X107.483 Y96.036 E13.34946
G1 X107.483 Y95.743 E13.35451
G1 X101.929 Y101.297 E13.48994
G1 X102.008 Y101.194 E13.49219
G1 X102.198 Y100.734 E13.50077
G1 X107.483 Y95.450 E13.62962
G1 X107.483 Y95.156 E13.63468
G1 X102.277 Y100.362 E13.76161
G1 X102.321 Y100.024 E13.76748
G1 X107.483 Y94.863 E13.89333
G1 X107.483 Y94.570 E13.89839
G1 X102.288 Y99.765 E14.02506
G1 X102.254 Y99.506 E14.02956
G1 X107.483 Y94.277 E14.15706
G1 X107.483 Y93.983 E14.16212
G1 X102.186 Y99.280 E14.29127
G1 X102.100 Y99.073 E14.29514
G1 X107.483 Y93.690 E14.42639
G1 X107.483 Y93.397 E14.43144
G1 X102.014 Y98.866 E14.56478
G1 X101.890 Y98.697 E14.56840
G1 X107.483 Y93.104 E14.70477
G1 X107.483 Y92.810 E14.70983
G1 X101.763 Y98.531 E14.84930
G1 X101.635 Y98.365 E14.85291
G1 X107.483 Y92.517 E14.99548
G1 X107.483 Y92.224 E15.00054
G1 X101.469 Y98.237 E15.14717
G1 X101.304 Y98.110 E15.15077
G1 X107.483 Y91.931 E15.30144
G1 X107.483 Y91.638 E15.30650
G1 X101.135 Y97.986 E15.46129
G1 X100.927 Y97.900 E15.46516
G1 X107.483 Y91.344 E15.62501
G1 X107.483 Y91.051 E15.63006
G1 X100.720 Y97.814 E15.79496
G1 X100.583 Y97.757 E15.79752
G1 X100.494 Y97.746 E15.79906
G1 X107.223 Y91.017 E15.96313
G1 X106.930 Y91.017 E15.96819
G1 X100.234 Y97.714 E16.13147
G1 X99.973 Y97.681 E16.13600
G1 X106.637 Y91.017 E16.29848
G1 X106.344 Y91.017 E16.30354
G1 X99.638 Y97.723 E16.46705
G1 X99.371 Y97.758 E16.47168
G1 X99.266 Y97.802 E16.47365
G1 X106.050 Y91.017 E16.63908
G1 X105.757 Y91.017 E16.64414
G1 X98.703 Y98.071 E16.81613
G1 X98.321 Y98.365 E16.82445
G1 X98.027 Y98.747 E16.83276
G1 X92.517 Y104.257 E16.96711
G1 X92.517 Y103.964 E16.97217
G1 X105.464 Y91.017 E17.28785
G1 X105.171 Y91.017 E17.29291
G1 X92.517 Y103.671 E17.60144
G1 X92.517 Y103.377 E17.60650
G1 X104.877 Y91.017 E17.90788
G1 X104.584 Y91.017 E17.91293
G1 X92.517 Y103.084 E18.20717
G1 X92.517 Y102.791 E18.21222
G1 X104.291 Y91.017 E18.49931
G1 X103.998 Y91.017 E18.50436
G1 X92.517 Y102.498 E18.78429
G1 X92.517 Y102.204 E18.78935
G1 X103.705 Y91.017 E19.06213
G1 X103.411 Y91.017 E19.06719
G1 X92.517 Y101.911 E19.33282
G1 X92.517 Y101.618 E19.33788
G1 X103.118 Y91.017 E19.59636
G1 X102.825 Y91.017 E19.60141
G1 X92.517 Y101.325 E19.85275
G1 X92.517 Y101.032 E19.85780
G1 X102.532 Y91.017 E20.10198
G1 X102.238 Y91.017 E20.10704
G1 X92.517 Y100.738 E20.34407
G1 X92.517 Y100.445 E20.34913
G1 X101.945 Y91.017 E20.57901
G1 X101.652 Y91.017 E20.58406
G1 X92.517 Y100.152 E20.80679
G1 X92.517 Y99.859 E20.81185
G1 X101.359 Y91.017 E21.02743
G1 X101.065 Y91.017 E21.03249
G1 X92.517 Y99.565 E21.24092
G1 X92.517 Y99.272 E21.24597
G1 X100.772 Y91.017 E21.44725
G1 X100.479 Y91.017 E21.45231
G1 X92.517 Y98.979 E21.64644
G1 X92.517 Y98.686 E21.65150
G1 X100.186 Y91.017 E21.83848
G1 X99.892 Y91.017 E21.84353
G1 X92.517 Y98.392 E22.02336
G1 X92.517 Y98.099 E22.02842
G1 X99.599 Y91.017 E22.20110
G1 X99.306 Y91.017 E22.20616
G1 X92.517 Y97.806 E22.37169
G1 X92.517 Y97.513 E22.37674
G1 X99.013 Y91.017 E22.53512
G1 X98.719 Y91.017 E22.54018
G1 X92.517 Y97.219 E22.69141
G1 X92.517 Y96.926 E22.69646
G1 X98.426 Y91.017 E22.84054
G1 X98.133 Y91.017 E22.84560
G1 X92.517 Y96.633 E22.98253
G1 X92.517 Y96.340 E22.98758
G1 X97.840 Y91.017 E23.11736
G1 X97.546 Y91.017 E23.12242
G1 X92.517 Y96.046 E23.24505
G1 X92.517 Y95.753 E23.25010
G1 X97.253 Y91.017 E23.36558
G1 X96.960 Y91.017 E23.37064
G1 X92.517 Y95.460 E23.47897
G1 X92.517 Y95.167 E23.48402
G1 X96.667 Y91.017 E23.58520
G1 X96.373 Y91.017 E23.59026
G1 X92.517 Y94.873 E23.68429
G1 X92.517 Y94.580 E23.68934
G1 X96.080 Y91.017 E23.77622
G1 X95.787 Y91.017 E23.78128
G1 X92.517 Y94.287 E23.86101
G1 X92.517 Y93.994 E23.86606
G1 X95.494 Y91.017 E23.93864
G1 X95.201 Y91.017 E23.94370
G1 X92.517 Y93.700 E24.00912
G1 X92.517 Y93.407 E24.01418
G1 X94.907 Y91.017 E24.07246
G1 X94.614 Y91.017 E24.07751
G1 X92.517 Y93.114 E24.12864
G1 X92.517 Y92.821 E24.13370
G1 X94.321 Y91.017 E24.17767
G1 X94.028 Y91.017 E24.18273
G1 X92.517 Y92.528 E24.21956
G1 X92.517 Y92.234 E24.22461
G1 X93.734 Y91.017 E24.25429
G1 X93.441 Y91.017 E24.25935
G1 X92.517 Y91.941 E24.28187
G1 X92.517 Y91.648 E24.28693
G1 X93.148 Y91.017 E24.30231
G1 X92.855 Y91.017 E24.30736
G1 X92.517 Y91.355 E24.31559
G1 X92.517 Y91.061 E24.32065
G1 X92.561 Y91.017 E24.32172
G1 Z0.400 F7800.000
G1 E18.32172 F3600.00000
G92 E0
G1 X107.800 Y109.300 F7800.000
G1 E6.00000 F3600.00000
G1 F2160
G1 X92.200 Y109.300 E6.46318
G1 X92.200 Y90.700 E7.01544
G1 X107.800 Y90.700 E7.47862
G1 X107.800 Y109.240 E8.02910
G1 X107.417 Y109.185 F7800.000
G1 X107.307 Y108.807 F7800.000
G1 F3600
G1 X92.693 Y108.807 E8.79264
G1 X92.693 Y91.193 E9.71291
G1 X107.307 Y91.193 E10.47645
G1 X107.307 Y108.747 E11.39359
G1 X101.415 Y101.415 F7800.000
G1 F2400
G1 X101.001 Y101.734 E11.40910
G1 X100.518 Y101.934 E11.42462
G1 X100.000 Y102.002 E11.44013
G1 X99.482 Y101.934 E11.45565
G1 X98.999 Y101.734 E11.47116
G1 X98.585 Y101.415 E11.48668
G1 X98.266 Y101.001 E11.50219
G1 X98.066 Y100.518 E11.51771
G1 X97.998 Y100.000 E11.53322
G1 X98.066 Y99.482 E11.54874
G1 X98.266 Y98.999 E11.56425
G1 X98.585 Y98.585 E11.57977
G1 X98.999 Y98.266 E11.59528
G1 X99.482 Y98.066 E11.61080
G1 X99.963 Y98.003 E11.62521
G1 X100.516 Y98.066 E11.64174
G1 X101.001 Y98.266 E11.65731
G1 X101.415 Y98.585 E11.67283
G1 X101.734 Y98.999 E11.68834
G1 X101.934 Y99.482 E11.70386
G1 X102.002 Y100.000 E11.71937
G1 X101.934 Y100.518 E11.73489
G1 X101.734 Y101.001 E11.75041
G1 X101.452 Y101.368 E11.76414
G1 X101.415 Y101.415 F7800.000
G1 X101.806 Y101.715 F7800.000
G1 F2400
G1 X101.767 Y101.767 E11.76753
G1 X101.249 Y102.164 E11.80161
G1 X100.647 Y102.414 E11.83569
G1 X100.000 Y102.499 E11.86976
G1 X99.353 Y102.414 E11.90384
G1 X98.751 Y102.164 E11.93792
G1 X98.233 Y101.767 E11.97200
G1 X97.836 Y101.249 E12.00608
G1 X97.586 Y100.647 E12.04016
G1 X97.501 Y100.000 E12.07423
G1 X97.586 Y99.353 E12.10831
G1 X97.836 Y98.751 E12.14239
G1 X98.233 Y98.233 E12.17647
G1 X98.751 Y97.836 E12.21055
G1 X99.353 Y97.586 E12.24463
G1 X99.959 Y97.507 E12.27653
G1 X100.641 Y97.584 E12.31239
G1 X101.249 Y97.836 E12.34681
G1 X101.767 Y98.233 E12.38089
G1 X102.164 Y98.751 E12.41496
G1 X102.414 Y99.353 E12.44904
G1 X102.499 Y100.000 E12.48312
G1 X102.414 Y100.647 E12.51720
G1 X102.164 Y101.249 E12.55128
G1 X101.843 Y101.668 E12.57883
G1 X98.217 Y102.285 F7800.000
G1 F3000
G1 X97.983 Y102.105 E12.58371
G1 X97.803 Y101.870 E12.58859
G1 X93.062 Y97.129 E12.69918
G1 X93.062 Y96.849 E12.70381
G1 X97.382 Y101.169 E12.80458
G1 X97.228 Y100.798 E12.81120
G1 X97.219 Y100.725 E12.81241
G1 X93.062 Y96.568 E12.90938
G1 X93.062 Y96.288 E12.91401
G1 X97.176 Y100.402 E13.00998
G1 X97.134 Y100.079 E13.01536
G1 X93.062 Y96.007 E13.11034
G1 X93.062 Y95.727 E13.11497
G1 X97.158 Y99.823 E13.21052
G1 X97.191 Y99.575 E13.21464
G1 X93.062 Y95.446 E13.31096
G1 X93.062 Y95.166 E13.31558
G1 X97.223 Y99.327 E13.41266
G1 X97.298 Y99.121 E13.41627
G1 X93.062 Y94.885 E13.51509
G1 X93.062 Y94.605 E13.51971
G1 X97.380 Y98.923 E13.62044
G1 X97.462 Y98.725 E13.62399
G1 X93.062 Y94.324 E13.72663
G1 X93.062 Y94.043 E13.73126
G1 X97.556 Y98.538 E13.83611
G1 X97.678 Y98.379 E13.83941
G1 X93.062 Y93.763 E13.94709
G1 X93.062 Y93.482 E13.95172
