; generated by Slic3r 1.3.0-dev on 2018-07-06 at 15:49:50

; external perimeters extrusion width = 0.35mm (1.29mm^3/s)
; perimeters extrusion width = 0.39mm (2.89mm^3/s)
; infill extrusion width = 0.39mm (3.85mm^3/s)
; solid infill extrusion width = 0.39mm (1.92mm^3/s)
; top infill extrusion width = 0.39mm (1.44mm^3/s)

M107
M190 S80 ; set bed temperature and wait for it to be reached
M104 S245 ; set temperature
G28 ; home all axes
G1 Z5 F5000 ; lift nozzle

; Filament gcode

M109 S245 ; set temperature and wait for it to be reached
G21 ; set units to millimeters
G90 ; use absolute coordinates
M82 ; use absolute distances for extrusion
G92 E0
G1 Z0.350 F7800.000
G1 E-2.00000 F2400.00000
G92 E0
G1 X113.443 Y9.312 F7800.000
G1 E2.00000 F2400.00000
G1 F1800
G1 X114.161 Y7.823 E2.15028
G1 X116.060 Y4.892 E2.46787
G1 X117.621 Y3.211 E2.67641
G1 X119.661 Y2.164 E2.88495
G1 X120.921 Y1.905 E3.00195
G1 X121.844 Y1.807 E3.08625
G1 X122.544 Y1.770 E3.15001
G1 X130.588 Y1.772 E3.88145
G1 X132.846 Y2.169 E4.09000
G1 X134.834 Y3.313 E4.29854
G1 X136.313 Y5.066 E4.50708
G1 X137.176 Y7.709 E4.75990
G1 X142.617 Y59.870 E9.52863
G1 X142.639 Y60.984 E9.62993
G1 X142.039 Y70.284 E10.47732
G1 X141.545 Y72.401 E10.67501
G1 X93.836 Y187.134 E21.97360
G1 X93.366 Y188.054 E22.06756
G1 X92.037 Y190.220 E22.29858
G1 X91.220 Y191.290 E22.42105
G1 X89.482 Y193.142 E22.65199
G1 X88.463 Y194.026 E22.77469
G1 X86.384 Y195.488 E23.00572
G1 X85.207 Y196.148 E23.12845
G1 X82.877 Y197.157 E23.35936
G1 X81.598 Y197.563 E23.48133
G1 X79.112 Y198.083 E23.71228
G1 X77.777 Y198.223 E23.83439
G1 X75.235 Y198.230 E24.06553
G1 X73.888 Y198.096 E24.18854
G1 X71.401 Y197.588 E24.41944
G1 X70.113 Y197.184 E24.54217
G1 X67.779 Y196.181 E24.77313
G1 X66.611 Y195.533 E24.89457
G1 X64.525 Y194.083 E25.12557
G1 X63.496 Y193.198 E25.24900
G1 X61.751 Y191.354 E25.47991
G1 X60.933 Y190.293 E25.60165
G1 X59.594 Y188.135 E25.83263
G1 X59.004 Y186.925 E25.95503
G1 X58.128 Y184.541 E26.18599
G1 X57.795 Y183.236 E26.30839
G1 X57.419 Y180.724 E26.53934
G1 X57.357 Y179.379 E26.66183
G1 X57.494 Y176.892 E26.88828
G1 X57.708 Y175.509 E27.01551
G1 X58.484 Y172.640 E27.28575
G1 X113.426 Y9.361 E42.95066
G1 E40.95066 F2400.00000
G92 E0
G1 X122.984 Y13.253 F7800.000
G1 E2.00000 F2400.00000
G1 F1800
G1 X122.973 Y66.455 E6.83760
G1 X132.228 Y66.457 E7.67920
G1 X132.229 Y62.157 E8.07020
G1 X134.321 Y62.157 E8.26045
G1 X133.855 Y69.384 E8.91894
G1 X126.469 Y82.264 E10.26899
G1 X116.079 Y107.190 E12.72460
G1 X116.111 Y107.205 E12.72780
G1 X87.175 Y176.879 E19.58786
G1 X87.339 Y179.622 E19.83766
G1 X87.025 Y181.812 E20.03883
G1 X86.270 Y183.892 E20.24005
G1 X85.112 Y185.780 E20.44146
G1 X83.597 Y187.393 E20.64264
G1 X81.787 Y188.666 E20.84389
G1 X79.757 Y189.546 E21.04510
G1 X77.589 Y189.999 E21.24642
G1 X75.375 Y190.005 E21.44782
G1 X73.208 Y189.562 E21.64889
G1 X71.174 Y188.688 E21.85022
G1 X69.356 Y187.425 E22.05150
G1 X67.836 Y185.818 E22.25266
G1 X66.668 Y183.936 E22.45401
G1 X65.905 Y181.859 E22.65524
G1 X65.578 Y179.670 E22.85648
G1 X65.700 Y177.459 E23.05787
G1 X66.267 Y175.321 E23.25894
G1 X67.255 Y173.342 E23.46012
G1 X68.594 Y171.639 E23.65714
G1 X70.728 Y169.821 E23.91201
G1 X105.130 Y90.359 E31.78551
G1 X121.228 Y12.041 E39.05580
G1 X122.490 Y10.093 E39.26690
G1 X123.378 Y10.093 E39.34766
G1 X123.438 Y9.995 E39.35811
G1 X128.986 Y9.996 E39.86258
G1 X128.986 Y13.254 E40.15887
G1 X123.036 Y13.253 E40.69986
G1 X123.608 Y13.878 F7800.000
G1 F1800
G1 X123.598 Y65.830 E45.42381
G1 X131.604 Y65.832 E46.15177
G1 X131.604 Y61.532 E46.54277
G1 X134.988 Y61.532 E46.85043
G1 X134.470 Y69.569 E47.58271
G1 X127.031 Y82.540 E48.94237
G1 X116.886 Y106.877 E51.33985
G1 X116.918 Y106.891 E51.34298
G1 X87.807 Y176.986 E58.24442
G1 X87.966 Y179.648 E58.48688
G1 X87.634 Y181.964 E58.69967
G1 X86.836 Y184.164 E58.91251
G1 X85.611 Y186.161 E59.12549
G1 X84.009 Y187.867 E59.33830
G1 X82.094 Y189.214 E59.55118
G1 X79.947 Y190.144 E59.76400
G1 X77.655 Y190.623 E59.97689
G1 X75.312 Y190.630 E60.18990
G1 X73.020 Y190.162 E60.40263
G1 X70.869 Y189.238 E60.61553
G1 X68.947 Y187.901 E60.82842
G1 X67.338 Y186.201 E61.04120
G1 X66.103 Y184.212 E61.25412
G1 X65.296 Y182.015 E61.46697
G1 X64.950 Y179.699 E61.67981
G1 X65.080 Y177.361 E61.89282
G1 X65.679 Y175.099 E62.10551
G1 X66.725 Y173.006 E62.31831
G1 X68.142 Y171.203 E62.52678
G1 X70.212 Y169.439 E62.77413
G1 X104.530 Y90.170 E70.62855
G1 X120.640 Y11.800 E77.90366
G1 X122.150 Y9.468 E78.15636
G1 X123.028 Y9.468 E78.23619
G1 X123.088 Y9.370 E78.24664
G1 X129.611 Y9.371 E78.83977
G1 X129.610 Y13.879 E79.24970
G1 X123.661 Y13.878 E79.79068
G1 X124.233 Y14.503 F7800.000
G1 F1800
G1 X124.223 Y65.205 E84.40100
G1 X130.979 Y65.207 E85.01532
G1 X130.980 Y60.907 E85.40631
G1 X135.654 Y60.908 E85.83139
G1 X135.084 Y69.754 E86.63745
G1 X127.593 Y82.817 E88.00673
G1 X117.694 Y106.564 E90.34608
G1 X117.724 Y106.578 E90.34913
G1 X88.440 Y177.092 E97.29195
G1 X88.594 Y179.674 E97.52707
G1 X88.244 Y182.117 E97.75149
G1 X87.402 Y184.437 E97.97595
G1 X86.110 Y186.542 E98.20050
G1 X84.421 Y188.342 E98.42493
G1 X82.401 Y189.762 E98.64945
G1 X80.137 Y190.743 E98.87387
G1 X77.720 Y191.248 E99.09833
G1 X75.250 Y191.255 E99.32296
G1 X72.832 Y190.761 E99.54734
G1 X70.564 Y189.787 E99.77181
G1 X68.537 Y188.377 E99.99632
G1 X66.841 Y186.585 E100.22072
G1 X65.539 Y184.487 E100.44521
G1 X64.688 Y182.170 E100.66966
G1 X64.323 Y179.729 E100.89412
G1 X64.459 Y177.262 E101.11874
G1 X65.092 Y174.878 E101.34306
G1 X66.194 Y172.670 E101.56746
G1 X67.689 Y170.768 E101.78740
G1 X69.697 Y169.058 E102.02721
G1 X103.931 Y89.981 E109.86256
G1 X120.051 Y11.559 E117.14250
G1 X121.811 Y8.843 E117.43679
G1 X122.678 Y8.843 E117.51569
G1 X122.738 Y8.745 E117.52614
G1 X130.236 Y8.747 E118.20792
G1 X130.235 Y14.505 E118.73150
G1 X124.286 Y14.503 E119.27248
G1 X123.894 Y14.591 F7800.000
G1 E117.27248 F2400.00000
G92 E0
G1 X122.425 Y12.896 F7800.000
G1 E2.00000 F2400.00000
G1 F1800
G1 X121.434 Y13.887 E2.12788
G1 X121.205 Y15.003 E2.23185
G1 X122.425 Y13.783 E2.38931
G1 X122.425 Y14.670 E2.47023
G1 X120.975 Y16.120 E2.65727
G1 X120.746 Y17.236 E2.76124
G1 X122.425 Y15.557 E2.97786
G1 X122.424 Y16.444 E3.05878
G1 X120.516 Y18.352 E3.30498
G1 X120.287 Y19.468 E3.40895
G1 X122.424 Y17.331 E3.68473
G1 X122.424 Y18.218 E3.76565
G1 X120.057 Y20.584 E4.07102
G1 X119.828 Y21.700 E4.17499
G1 X122.424 Y19.105 E4.50993
G1 X122.424 Y19.992 E4.59085
G1 X119.599 Y22.817 E4.95538
G1 X119.369 Y23.933 E5.05934
G1 X122.423 Y20.878 E5.45345
G1 X122.423 Y21.765 E5.53437
G1 X119.140 Y25.049 E5.95806
G1 X118.910 Y26.165 E6.06202
G1 X122.423 Y22.652 E6.51529
G1 X122.423 Y23.539 E6.59621
G1 X118.681 Y27.281 E7.07906
G1 X118.451 Y28.397 E7.18303
G1 X122.423 Y24.426 E7.69546
G1 X122.423 Y25.313 E7.77638
G1 X118.222 Y29.514 E8.31839
G1 X117.992 Y30.630 E8.42235
G1 X122.422 Y26.200 E8.99394
G1 X122.422 Y27.087 E9.07486
G1 X117.763 Y31.746 E9.67604
G1 X117.534 Y32.862 E9.78000
G1 X122.422 Y27.974 E10.41075
G1 X122.422 Y28.861 E10.49167
G1 X117.304 Y33.978 E11.15201
G1 X117.075 Y35.094 E11.25597
G1 X122.422 Y29.748 E11.94588
G1 X122.421 Y30.634 E12.02680
G1 X116.845 Y36.211 E12.74630
G1 X116.616 Y37.327 E12.85026
G1 X122.421 Y31.521 E13.59934
G1 X122.421 Y32.408 E13.68026
G1 X116.386 Y38.443 E14.45891
G1 X116.157 Y39.559 E14.56288
G1 X122.421 Y33.295 E15.37111
G1 X122.421 Y34.182 E15.45204
G1 X115.928 Y40.675 E16.28985
G1 X115.698 Y41.791 E16.39382
G1 X122.421 Y35.069 E17.26121
G1 X122.420 Y35.956 E17.34213
G1 X115.469 Y42.908 E18.23911
G1 X115.239 Y44.024 E18.34308
G1 X122.420 Y36.843 E19.26963
G1 X122.420 Y37.730 E19.35055
G1 X115.010 Y45.140 E20.30669
G1 X114.780 Y46.256 E20.41066
G1 X122.420 Y38.617 E21.39638
G1 X122.420 Y39.504 E21.47730
G1 X114.551 Y47.372 E22.49260
G1 X114.322 Y48.488 E22.59656
G1 X122.419 Y40.390 E23.64144
G1 X122.419 Y41.277 E23.72237
G1 X114.092 Y49.605 E24.79683
G1 X113.863 Y50.721 E24.90079
G1 X122.419 Y42.164 E26.00483
G1 X122.419 Y43.051 E26.08575
G1 X113.633 Y51.837 E27.21938
G1 X113.404 Y52.953 E27.32334
G1 X122.419 Y43.938 E28.48654
G1 X122.419 Y44.825 E28.56746
G1 X113.174 Y54.069 E29.76025
G1 X112.945 Y55.185 E29.86421
G1 X122.418 Y45.712 E31.08658
G1 X122.418 Y46.599 E31.16750
G1 X112.716 Y56.301 E32.41944
G1 X112.486 Y57.418 E32.52341
G1 X122.418 Y47.486 E33.80493
G1 X122.418 Y48.373 E33.88585
G1 X112.257 Y58.534 E35.19696
G1 X112.027 Y59.650 E35.30092
G1 X122.418 Y49.260 E36.64161
G1 X122.418 Y50.146 E36.72253
G1 X111.798 Y60.766 E38.09280
G1 X111.568 Y61.882 E38.19676
G1 X122.417 Y51.033 E39.59661
G1 X122.417 Y51.920 E39.67753
G1 X111.339 Y62.998 E41.10696
G1 X111.110 Y64.115 E41.21093
G1 X122.417 Y52.807 E42.66993
G1 X122.417 Y53.694 E42.75085
G1 X110.880 Y65.231 E44.23944
G1 X110.651 Y66.347 E44.34341
G1 X122.417 Y54.581 E45.86158
G1 X122.416 Y55.468 E45.94250
G1 X110.421 Y67.463 E47.49025
G1 X110.192 Y68.579 E47.59422
G1 X122.416 Y56.355 E49.17155
G1 X122.416 Y57.242 E49.25247
G1 X109.962 Y69.695 E50.85938
G1 X109.733 Y70.812 E50.96334
G1 X122.416 Y58.129 E52.59984
G1 X122.416 Y59.016 E52.68076
G1 X109.503 Y71.928 E54.34683
G1 X109.274 Y73.044 E54.45080
G1 X122.416 Y59.902 E56.14645
G1 X122.415 Y60.789 E56.22737
G1 X109.045 Y74.160 E57.95260
G1 X108.815 Y75.276 E58.05657
G1 X122.415 Y61.676 E59.81138
G1 X122.415 Y62.563 E59.89230
G1 X108.586 Y76.392 E61.67670
G1 X108.356 Y77.509 E61.78067
G1 X122.415 Y63.450 E63.59464
G1 X122.415 Y64.337 E63.67556
G1 X108.127 Y78.625 E65.51912
G1 X107.897 Y79.741 E65.62308
G1 X122.414 Y65.224 E67.49622
G1 X122.414 Y66.111 E67.57714
G1 X107.668 Y80.857 E69.47986
G1 X107.439 Y81.973 E69.58383
G1 X122.414 Y66.998 E71.51612
G1 X122.414 Y67.013 E71.51754
G1 X123.285 Y67.013 E71.59701
G1 X107.209 Y83.089 E73.67130
G1 X106.980 Y84.206 E73.77526
G1 X124.172 Y67.014 E75.99355
G1 X125.058 Y67.014 E76.07443
G1 X106.750 Y85.322 E78.43671
G1 X106.521 Y86.438 E78.54068
G1 X125.945 Y67.014 E81.04695
G1 X126.831 Y67.014 E81.12784
G1 X106.291 Y87.554 E83.77811
G1 X106.062 Y88.670 E83.88207
G1 X127.718 Y67.014 E86.67634
G1 X128.604 Y67.015 E86.75723
G1 X105.833 Y89.786 E89.69549
G1 X105.662 Y90.614 E89.77262
G1 X105.488 Y91.018 E89.81275
G1 X129.491 Y67.015 E92.90991
G1 X130.377 Y67.015 E92.99080
G1 X104.811 Y92.582 E96.28971
G1 X104.134 Y94.145 E96.44517
G1 X131.264 Y67.015 E99.94582
G1 X132.151 Y67.015 E100.02671
G1 X103.457 Y95.709 E103.72910
G1 X102.780 Y97.273 E103.88457
G1 X133.472 Y66.581 E107.84482
G1 X133.411 Y67.528 E107.93148
G1 X102.103 Y98.837 E111.97119
G1 X101.426 Y100.400 E112.12666
G1 X133.350 Y68.476 E116.24583
G1 X133.307 Y69.133 E116.30584
G1 X132.941 Y69.772 E116.37308
G1 X100.749 Y101.964 E120.52683
G1 X100.072 Y103.528 E120.68230
G1 X131.749 Y71.851 E124.76957
G1 X130.556 Y73.930 E124.98822
G1 X99.395 Y105.091 E129.00902
G1 X98.718 Y106.655 E129.16448
G1 X129.364 Y76.009 E133.11880
G1 X128.172 Y78.088 E133.33746
G1 X98.041 Y108.219 E137.22530
G1 X97.364 Y109.782 E137.38077
G1 X126.980 Y80.166 E141.20213
G1 X125.974 Y81.921 E141.38662
G1 X125.875 Y82.158 E141.41010
G1 X96.687 Y111.346 E145.17625
G1 X96.010 Y112.910 E145.33172
G1 X125.241 Y83.679 E149.10343
G1 X124.607 Y85.199 E149.25374
G1 X95.333 Y114.474 E153.03102
G1 X94.656 Y116.037 E153.18648
G1 X123.973 Y86.720 E156.96933
G1 X123.340 Y88.240 E157.11963
G1 X93.979 Y117.601 E160.90805
G1 X93.302 Y119.165 E161.06351
G1 X122.706 Y89.761 E164.85749
G1 X122.072 Y91.282 E165.00780
G1 X92.625 Y120.728 E168.80734
G1 X91.948 Y122.292 E168.96281
G1 X121.438 Y92.802 E172.76792
G1 X120.804 Y94.323 E172.91822
G1 X91.271 Y123.856 E176.72890
G1 X90.594 Y125.419 E176.88437
G1 X120.170 Y95.843 E180.70061
G1 X119.537 Y97.364 E180.85092
G1 X89.917 Y126.983 E184.67273
G1 X89.240 Y128.547 E184.82820
G1 X118.903 Y98.884 E188.65557
G1 X118.269 Y100.405 E188.80588
G1 X88.563 Y130.111 E192.63882
G1 X87.886 Y131.674 E192.79429
G1 X117.635 Y101.925 E196.63280
G1 X117.001 Y103.446 E196.78310
G1 X87.209 Y133.238 E200.62718
G1 X86.532 Y134.802 E200.78265
G1 X116.367 Y104.967 E204.63229
G1 X115.734 Y106.487 E204.78260
G1 X85.855 Y136.365 E208.63781
G1 X85.178 Y137.929 E208.79327
G1 X115.168 Y107.940 E212.66282
G1 X114.538 Y109.456 E212.81264
G1 X84.501 Y139.493 E216.68827
G1 X83.824 Y141.056 E216.84374
G1 X113.908 Y110.973 E220.72545
G1 X113.278 Y112.489 E220.87528
G1 X83.147 Y142.620 E224.76307
G1 X82.470 Y144.184 E224.91854
G1 X112.648 Y114.006 E228.81242
G1 X112.019 Y115.523 E228.96225
G1 X81.793 Y145.748 E232.86221
G1 X81.117 Y147.311 E233.01768
G1 X111.389 Y117.039 E236.92373
G1 X110.759 Y118.556 E237.07355
G1 X80.440 Y148.875 E240.98568
G1 X79.763 Y150.439 E241.14115
G1 X110.129 Y120.072 E245.05937
G1 X109.499 Y121.589 E245.20919
G1 X79.086 Y152.002 E249.13349
G1 X78.409 Y153.566 E249.28896
G1 X108.869 Y123.105 E253.21934
G1 X108.240 Y124.622 E253.36917
G1 X77.732 Y155.130 E257.30564
G1 X77.055 Y156.694 E257.46111
G1 X107.610 Y126.138 E261.40366
G1 X106.980 Y127.655 E261.55349
G1 X76.378 Y158.257 E265.50212
G1 X75.701 Y159.821 E265.65759
G1 X106.350 Y129.171 E269.61231
G1 X105.720 Y130.688 E269.76214
G1 X75.024 Y161.385 E273.72294
G1 X74.347 Y162.948 E273.87841
G1 X105.091 Y132.205 E277.84530
G1 X104.461 Y133.721 E277.99512
G1 X73.670 Y164.512 E281.96810
G1 X72.993 Y166.076 E282.12356
G1 X103.831 Y135.238 E286.10262
G1 X103.201 Y136.754 E286.25245
G1 X72.316 Y167.639 E290.23759
G1 X71.639 Y169.203 E290.39306
G1 X102.571 Y138.271 E294.38428
G1 X101.941 Y139.787 E294.53411
G1 X67.456 Y174.273 E298.98383
G1 X66.788 Y175.610 E299.12014
G1 X66.710 Y175.906 E299.14809
G1 X101.312 Y141.304 E303.61279
G1 X100.682 Y142.820 E303.76262
G1 X66.390 Y177.112 E308.18733
G1 X66.254 Y177.623 E308.23558
G1 X66.224 Y178.165 E308.28501
G1 X100.052 Y144.337 E312.64981
G1 X99.422 Y145.853 E312.79963
G1 X66.172 Y179.103 E317.08986
G1 X66.139 Y179.707 E317.14507
G1 X66.180 Y179.982 E317.17043
G1 X98.792 Y147.370 E321.37841
G1 X98.163 Y148.887 E321.52824
G1 X66.295 Y180.754 E325.64007
G1 X66.411 Y181.525 E325.71124
G1 X97.533 Y150.403 E329.72693
G1 X96.903 Y151.920 E329.87675
G1 X66.610 Y182.213 E333.78547
G1 X66.848 Y182.861 E333.84851
G1 X96.273 Y153.436 E337.64524
G1 X95.643 Y154.953 E337.79506
G1 X67.086 Y183.510 E341.47979
G1 X67.166 Y183.727 E341.50095
G1 X67.392 Y184.091 E341.53998
G1 X95.013 Y156.469 E345.10402
G1 X94.384 Y157.986 E345.25385
G1 X67.731 Y184.638 E348.69280
G1 X68.071 Y185.185 E348.75155
G1 X93.754 Y159.502 E352.06542
G1 X93.124 Y161.019 E352.21525
G1 X68.449 Y185.694 E355.39903
G1 X68.881 Y186.149 E355.45626
G1 X92.494 Y162.536 E358.50315
G1 X91.864 Y164.052 E358.65297
G1 X69.312 Y186.605 E361.56295
G1 X69.752 Y187.051 E361.62016
G1 X91.235 Y165.569 E364.39205
G1 X90.605 Y167.085 E364.54188
G1 X70.275 Y187.415 E367.16502
G1 X70.798 Y187.779 E367.22314
G1 X89.975 Y168.602 E369.69754
G1 X89.345 Y170.118 E369.84736
G1 X71.321 Y188.142 E372.17300
G1 X71.412 Y188.206 E372.18312
G1 X71.924 Y188.426 E372.23399
G1 X88.715 Y171.635 E374.40051
G1 X88.085 Y173.151 E374.55034
G1 X72.545 Y188.692 E376.55556
G1 X73.165 Y188.958 E376.61715
G1 X87.456 Y174.668 E378.46107
G1 X86.826 Y176.184 E378.61089
G1 X73.871 Y189.140 E380.28251
G1 X74.607 Y189.290 E380.35108
G1 X86.642 Y177.255 E381.90396
G1 X86.692 Y178.092 E381.98044
G1 X75.343 Y189.441 E383.44478
G1 X76.227 Y189.444 E383.52540
G1 X86.742 Y178.929 E384.88217
G1 X86.778 Y179.529 E384.93708
G1 X86.736 Y179.821 E384.96400
G1 X77.116 Y189.441 E386.20524
G1 X77.458 Y189.440 E386.23641
G1 X78.148 Y189.296 E386.30076
G1 X86.587 Y180.857 E387.38969
G1 X86.482 Y181.593 E387.45755
G1 X86.336 Y181.995 E387.49657
G1 X79.269 Y189.062 E388.40841
G1 X79.500 Y189.013 E388.42997
G1 X80.742 Y188.475 E388.55344
G1 X85.831 Y183.387 E389.21006
G1 X85.771 Y183.553 E389.22618
G1 X84.679 Y185.332 E389.41667
G1 X83.119 Y186.985 E389.62403
G1 E387.62403 F2400.00000
G92 E0
G1 X132.787 Y66.379 F7800.000
G1 E2.00000 F2400.00000
G1 F1800
G1 X133.533 Y65.633 E2.09628
G1 X133.594 Y64.685 E2.18294
G1 X132.787 Y65.492 E2.28709
G1 X132.787 Y64.605 E2.36801
G1 X133.655 Y63.737 E2.48002
G1 X133.717 Y62.789 E2.56668
G1 X132.788 Y63.718 E2.68656
G1 X132.788 Y62.848 E2.76595
