; generated by Slic3r 1.3.0-dev on 2018-07-06 at 15:48:50

; external perimeters extrusion width = 0.35mm (1.29mm^3/s)
; perimeters extrusion width = 0.39mm (2.89mm^3/s)
; infill extrusion width = 0.39mm (3.85mm^3/s)
; solid infill extrusion width = 0.39mm (1.92mm^3/s)
; top infill extrusion width = 0.39mm (1.44mm^3/s)

M107
M190 S80 ; set bed temperature and wait for it to be reached
M104 S245 ; set temperature
G28 ; home all axes
G1 Z5 F5000 ; lift nozzle

; Filament gcode

M109 S245 ; set temperature and wait for it to be reached
G21 ; set units to millimeters
G90 ; use absolute coordinates
M82 ; use absolute distances for extrusion
G92 E0
G1 Z0.350 F7800.000
G1 E-2.00000 F2400.00000
G92 E0
G1 X62.848 Y7.701 F7800.000
G1 E2.00000 F2400.00000
G1 F1800
G1 X63.478 Y5.496 E2.20854
G1 X64.822 Y3.637 E2.41708
G1 X66.719 Y2.348 E2.62563
G1 X69.437 Y1.765 E2.87843
G1 X77.480 Y1.765 E3.60975
G1 X78.184 Y1.802 E3.67388
G1 X79.106 Y1.901 E3.75819
G1 X81.310 Y2.536 E3.96673
G1 X83.165 Y3.884 E4.17527
G1 X83.964 Y4.889 E4.29199
G1 X85.861 Y7.821 E4.60958
G1 X86.579 Y9.309 E4.75976
G1 X141.505 Y172.650 E20.42950
G1 X142.280 Y175.520 E20.69981
G1 X142.491 Y176.850 E20.82226
G1 X142.631 Y179.387 E21.05330
G1 X142.569 Y180.734 E21.17594
G1 X142.193 Y183.246 E21.40690
G1 X141.860 Y184.547 E21.52901
G1 X140.985 Y186.932 E21.76001
G1 X140.394 Y188.145 E21.88267
G1 X139.054 Y190.303 E22.11364
G1 X138.232 Y191.367 E22.23594
G1 X136.484 Y193.210 E22.46692
G1 X135.462 Y194.089 E22.58949
G1 X133.377 Y195.540 E22.82046
G1 X132.202 Y196.192 E22.94267
G1 X129.866 Y197.192 E23.17372
G1 X128.583 Y197.593 E23.29594
G1 X126.093 Y198.101 E23.52702
G1 X124.751 Y198.235 E23.64966
G1 X122.210 Y198.228 E23.88070
G1 X120.872 Y198.088 E24.00302
G1 X118.386 Y197.568 E24.23399
G1 X117.106 Y197.161 E24.35612
G1 X114.775 Y196.150 E24.58715
G1 X113.599 Y195.490 E24.70978
G1 X111.522 Y194.028 E24.94075
G1 X110.506 Y193.145 E25.06310
G1 X108.767 Y191.293 E25.29412
G1 X107.950 Y190.224 E25.41647
G1 X106.621 Y188.059 E25.64747
G1 X106.149 Y187.136 E25.74178
G1 X58.465 Y72.393 E37.04029
G1 X57.972 Y70.277 E37.23787
G1 X57.372 Y60.978 E38.08525
G1 X57.394 Y59.862 E38.18667
G1 X62.843 Y7.753 E42.95078
G1 E40.95078 F2400.00000
G92 E0
G1 X77.039 Y13.249 F7800.000
G1 E2.00000 F2400.00000
G1 F1800
G1 X71.037 Y13.249 E2.54580
G1 X71.037 Y9.990 E2.84221
G1 X76.574 Y9.990 E3.34571
G1 X76.633 Y10.088 E3.35616
G1 X77.531 Y10.088 E3.43784
G1 X78.793 Y12.037 E3.64893
G1 X94.876 Y90.356 E10.91900
G1 X129.264 Y169.831 E18.79315
G1 X131.366 Y171.607 E19.04339
G1 X132.734 Y173.348 E19.24470
G1 X133.721 Y175.329 E19.44594
G1 X134.288 Y177.468 E19.64717
G1 X134.410 Y179.678 E19.84847
G1 X134.083 Y181.867 E20.04972
G1 X133.320 Y183.945 E20.25101
G1 X132.153 Y185.826 E20.45225
G1 X130.630 Y187.432 E20.65351
G1 X128.813 Y188.696 E20.85477
G1 X126.778 Y189.567 E21.05605
G1 X124.609 Y190.010 E21.25734
G1 X122.396 Y190.004 E21.45856
G1 X120.229 Y189.551 E21.65985
G1 X118.199 Y188.670 E21.86110
G1 X116.389 Y187.396 E22.06233
G1 X114.874 Y185.782 E22.26365
G1 X113.716 Y183.896 E22.46492
G1 X112.963 Y181.814 E22.66617
G1 X112.648 Y179.623 E22.86743
G1 X112.812 Y176.883 E23.11709
G1 X83.916 Y107.259 E29.97151
G1 X83.949 Y107.246 E29.97476
G1 X73.540 Y82.258 E32.43615
G1 X66.156 Y69.378 E33.78617
G1 X65.690 Y62.151 E34.44464
G1 X67.783 Y62.151 E34.63499
G1 X67.783 Y66.451 E35.02596
G1 X77.039 Y66.451 E35.86764
G1 X77.039 Y13.302 E40.70046
G1 X76.414 Y13.874 F7800.000
G1 F1800
G1 X70.412 Y13.874 E41.24626
G1 X70.412 Y9.365 E41.65631
G1 X76.928 Y9.365 E42.24880
G1 X76.987 Y9.463 E42.25925
G1 X77.871 Y9.463 E42.33967
G1 X79.381 Y11.796 E42.59236
G1 X95.475 Y90.167 E49.86725
G1 X129.779 Y169.448 E57.72219
G1 X131.818 Y171.171 E57.96490
G1 X133.265 Y173.012 E58.17782
G1 X134.309 Y175.107 E58.39066
G1 X134.908 Y177.370 E58.60349
G1 X135.038 Y179.708 E58.81640
G1 X134.691 Y182.023 E59.02926
G1 X133.885 Y184.221 E59.24216
G1 X132.650 Y186.209 E59.45501
G1 X131.039 Y187.908 E59.66788
G1 X129.118 Y189.245 E59.88074
G1 X126.965 Y190.167 E60.09362
G1 X124.671 Y190.635 E60.30652
G1 X122.331 Y190.629 E60.51936
G1 X120.039 Y190.149 E60.73224
G1 X117.892 Y189.218 E60.94509
G1 X115.978 Y187.870 E61.15794
G1 X114.374 Y186.163 E61.37086
G1 X113.150 Y184.168 E61.58375
G1 X112.354 Y181.967 E61.79661
G1 X112.020 Y179.649 E62.00947
G1 X112.180 Y176.989 E62.25181
G1 X83.100 Y106.923 E69.14986
G1 X83.132 Y106.909 E69.15303
G1 X72.978 Y82.535 E71.55403
G1 X65.541 Y69.563 E72.91366
G1 X65.023 Y61.526 E73.64592
G1 X68.408 Y61.526 E73.95369
G1 X68.408 Y65.826 E74.34467
G1 X76.414 Y65.826 E75.07271
G1 X76.414 Y13.927 E79.79188
G1 X75.790 Y14.499 F7800.000
G1 F1800
G1 X69.787 Y14.499 E80.33768
G1 X69.787 Y8.740 E80.86138
G1 X77.282 Y8.740 E81.54286
G1 X77.341 Y8.838 E81.55331
G1 X78.211 Y8.838 E81.63247
G1 X79.970 Y11.555 E81.92675
G1 X96.074 Y89.978 E89.20646
G1 X130.294 Y169.066 E97.04220
G1 X132.270 Y170.734 E97.27738
G1 X133.795 Y172.676 E97.50190
G1 X134.896 Y174.885 E97.72634
G1 X135.529 Y177.271 E97.95077
G1 X135.665 Y179.737 E98.17531
G1 X135.300 Y182.178 E98.39977
G1 X134.449 Y184.496 E98.62427
G1 X133.147 Y186.593 E98.84873
G1 X131.448 Y188.384 E99.07321
G1 X129.422 Y189.794 E99.29768
G1 X127.153 Y190.766 E99.52216
G1 X124.734 Y191.260 E99.74667
G1 X122.265 Y191.253 E99.97113
G1 X119.849 Y190.748 E100.19560
G1 X117.584 Y189.765 E100.42006
G1 X115.566 Y188.345 E100.64452
G1 X113.875 Y186.545 E100.86904
G1 X112.584 Y184.441 E101.09354
G1 X111.745 Y182.119 E101.31801
G1 X111.393 Y179.676 E101.54248
G1 X111.548 Y177.096 E101.77750
G1 X82.284 Y106.586 E108.71917
G1 X82.315 Y106.573 E108.72227
G1 X72.416 Y82.811 E111.06288
G1 X64.927 Y69.748 E112.43212
G1 X64.357 Y60.901 E113.23817
G1 X69.033 Y60.901 E113.66337
G1 X69.033 Y65.201 E114.05435
G1 X75.790 Y65.201 E114.66874
G1 X75.790 Y14.552 E119.27428
G1 X75.805 Y14.150 F7800.000
G1 E117.27428 F2400.00000
G92 E0
G1 X71.596 Y10.681 F7800.000
G1 E2.00000 F2400.00000
G1 F1800
G1 X71.728 Y10.548 E2.01710
G1 X72.615 Y10.548 E2.09794
G1 X71.595 Y11.567 E2.22940
G1 X71.595 Y12.454 E2.31024
G1 X73.501 Y10.548 E2.55603
G1 X74.387 Y10.548 E2.63688
G1 X72.245 Y12.691 E2.91324
G1 X73.131 Y12.691 E2.99409
G1 X75.274 Y10.548 E3.27046
G1 X76.160 Y10.548 E3.35130
G1 X74.018 Y12.691 E3.62767
G1 X74.904 Y12.691 E3.70851
G1 X76.948 Y10.647 E3.97217
G1 X77.258 Y10.647 E4.00041
G1 X77.484 Y10.997 E4.03845
G1 X75.790 Y12.691 E4.25694
G1 X76.677 Y12.691 E4.33779
G1 X77.833 Y11.535 E4.48686
G1 X78.181 Y12.073 E4.54533
G1 X77.563 Y12.691 E4.62499
G1 X77.598 Y12.691 E4.62815
G1 X77.598 Y13.543 E4.70584
G1 X78.383 Y12.758 E4.80705
G1 X78.534 Y13.493 E4.87553
G1 X77.598 Y14.429 E4.99622
G1 X77.598 Y15.315 E5.07707
G1 X78.685 Y14.229 E5.21724
G1 X78.836 Y14.964 E5.28572
G1 X77.598 Y16.202 E5.44537
G1 X77.598 Y17.088 E5.52622
G1 X78.987 Y15.699 E5.70535
G1 X79.138 Y16.435 E5.77382
G1 X77.598 Y17.975 E5.97243
G1 X77.598 Y18.861 E6.05328
G1 X79.289 Y17.170 E6.27137
G1 X79.440 Y17.906 E6.33984
G1 X77.598 Y19.747 E6.57741
G1 X77.598 Y20.634 E6.65825
G1 X79.591 Y18.641 E6.91530
G1 X79.742 Y19.376 E6.98377
G1 X77.598 Y21.520 E7.26030
G1 X77.598 Y22.407 E7.34114
G1 X79.893 Y20.112 E7.63715
G1 X80.044 Y20.847 E7.70562
G1 X77.598 Y23.293 E8.02110
G1 X77.598 Y24.180 E8.10195
G1 X80.195 Y21.583 E8.43691
G1 X80.346 Y22.318 E8.50538
G1 X77.598 Y25.066 E8.85982
G1 X77.598 Y25.952 E8.94067
G1 X80.497 Y23.053 E9.31458
G1 X80.648 Y23.789 E9.38306
G1 X77.598 Y26.839 E9.77645
G1 X77.598 Y27.725 E9.85730
G1 X80.799 Y24.524 E10.27017
G1 X80.950 Y25.260 E10.33865
G1 X77.598 Y28.612 E10.77100
G1 X77.598 Y29.498 E10.85185
G1 X81.101 Y25.995 E11.30368
G1 X81.252 Y26.730 E11.37215
G1 X77.598 Y30.384 E11.84346
G1 X77.598 Y31.271 E11.92431
G1 X81.403 Y27.466 E12.41510
G1 X81.554 Y28.201 E12.48357
G1 X77.598 Y32.157 E12.99384
G1 X77.598 Y33.044 E13.07469
G1 X81.705 Y28.937 E13.60443
G1 X81.856 Y29.672 E13.67291
G1 X77.598 Y33.930 E14.22213
G1 X77.598 Y34.816 E14.30298
G1 X82.007 Y30.407 E14.87168
G1 X82.158 Y31.143 E14.94015
G1 X77.598 Y35.703 E15.52834
G1 X77.598 Y36.589 E15.60918
G1 X82.309 Y31.878 E16.21684
G1 X82.460 Y32.614 E16.28532
G1 X77.598 Y37.476 E16.91246
G1 X77.598 Y38.362 E16.99330
G1 X82.611 Y33.349 E17.63992
G1 X82.762 Y34.084 E17.70839
G1 X77.598 Y39.248 E18.37449
G1 X77.598 Y40.135 E18.45534
G1 X82.913 Y34.820 E19.14091
G1 X83.064 Y35.555 E19.20939
G1 X77.598 Y41.021 E19.91444
G1 X77.598 Y41.908 E19.99529
G1 X83.215 Y36.290 E20.71982
G1 X83.366 Y37.026 E20.78829
G1 X77.598 Y42.794 E21.53230
G1 X77.598 Y43.681 E21.61315
G1 X83.517 Y37.761 E22.37664
G1 X83.668 Y38.497 E22.44511
G1 X77.598 Y44.567 E23.22808
G1 X77.598 Y45.453 E23.30893
G1 X83.819 Y39.232 E24.11138
G1 X83.970 Y39.967 E24.17985
G1 X77.598 Y46.340 E25.00178
G1 X77.598 Y47.226 E25.08262
G1 X84.121 Y40.703 E25.92403
G1 X84.272 Y41.438 E25.99250
G1 X77.598 Y48.113 E26.85338
G1 X77.598 Y48.999 E26.93423
G1 X84.423 Y42.174 E27.81459
G1 X84.574 Y42.909 E27.88306
G1 X77.598 Y49.885 E28.78290
G1 X77.598 Y50.772 E28.86375
G1 X84.725 Y43.644 E29.78307
G1 X84.876 Y44.380 E29.85154
G1 X77.598 Y51.658 E30.79034
G1 X77.598 Y52.545 E30.87119
G1 X85.027 Y45.115 E31.82946
G1 X85.178 Y45.851 E31.89794
G1 X77.598 Y53.431 E32.87569
G1 X77.598 Y54.317 E32.95654
G1 X85.329 Y46.586 E33.95377
G1 X85.480 Y47.321 E34.02224
G1 X77.598 Y55.204 E35.03896
G1 X77.598 Y56.090 E35.11980
G1 X85.631 Y48.057 E36.15599
G1 X85.782 Y48.792 E36.22446
G1 X77.598 Y56.977 E37.28013
G1 X77.598 Y57.863 E37.36098
G1 X85.933 Y49.528 E38.43613
G1 X86.084 Y50.263 E38.50460
G1 X77.598 Y58.750 E39.59923
G1 X77.598 Y59.636 E39.68007
G1 X86.235 Y50.998 E40.79418
G1 X86.386 Y51.734 E40.86265
G1 X77.598 Y60.522 E41.99624
G1 X77.598 Y61.409 E42.07708
G1 X86.537 Y52.469 E43.23015
G1 X86.689 Y53.205 E43.29862
G1 X77.598 Y62.295 E44.47116
G1 X77.598 Y63.182 E44.55200
G1 X86.840 Y53.940 E45.74403
G1 X86.991 Y54.675 E45.81250
G1 X77.598 Y64.068 E47.02400
G1 X77.598 Y64.954 E47.10484
G1 X87.142 Y55.411 E48.33582
G1 X87.293 Y56.146 E48.40429
G1 X77.598 Y65.841 E49.65475
G1 X77.598 Y66.727 E49.73559
G1 X87.444 Y56.882 E51.00553
G1 X87.595 Y57.617 E51.07400
G1 X70.074 Y75.138 E53.33392
G1 X70.397 Y75.701 E53.39315
G1 X87.746 Y58.352 E55.63089
G1 X87.897 Y59.088 E55.69937
G1 X70.720 Y76.265 E57.91492
G1 X71.043 Y76.828 E57.97416
G1 X88.048 Y59.823 E60.16753
G1 X88.199 Y60.559 E60.23600
G1 X71.366 Y77.392 E62.40720
G1 X71.689 Y77.955 E62.46643
G1 X88.350 Y61.294 E64.61544
G1 X88.501 Y62.029 E64.68391
G1 X72.012 Y78.518 E66.81074
G1 X72.335 Y79.082 E66.86997
G1 X88.652 Y62.765 E68.97462
G1 X88.803 Y63.500 E69.04309
G1 X72.658 Y79.645 E71.12556
G1 X72.981 Y80.209 E71.18479
G1 X88.954 Y64.236 E73.24507
G1 X89.105 Y64.971 E73.31354
G1 X73.304 Y80.772 E75.35164
G1 X73.627 Y81.335 E75.41087
G1 X89.256 Y65.706 E77.42679
G1 X89.407 Y66.442 E77.49526
G1 X73.950 Y81.899 E79.48900
G1 X74.035 Y82.048 E79.50465
G1 X74.227 Y82.508 E79.55014
G1 X89.558 Y67.177 E81.52760
G1 X89.709 Y67.912 E81.59608
G1 X74.487 Y83.134 E83.55940
G1 X74.748 Y83.760 E83.62122
G1 X89.860 Y68.648 E85.57040
G1 X90.011 Y69.383 E85.63887
G1 X75.009 Y84.385 E87.57391
G1 X75.269 Y85.011 E87.63573
G1 X90.162 Y70.119 E89.55662
G1 X90.313 Y70.854 E89.62509
G1 X75.530 Y85.637 E91.53184
G1 X75.791 Y86.263 E91.59366
G1 X90.464 Y71.589 E93.48626
G1 X90.615 Y72.325 E93.55473
G1 X76.051 Y86.888 E95.43319
G1 X76.312 Y87.514 E95.49501
G1 X90.766 Y73.060 E97.35932
G1 X90.917 Y73.796 E97.42780
G1 X76.573 Y88.140 E99.27796
G1 X76.833 Y88.766 E99.33979
G1 X91.068 Y74.531 E101.17581
G1 X91.219 Y75.266 E101.24428
G1 X77.094 Y89.391 E103.06616
G1 X77.355 Y90.017 E103.12799
G1 X91.370 Y76.002 E104.93572
G1 X91.521 Y76.737 E105.00419
G1 X77.616 Y90.643 E106.79778
G1 X77.876 Y91.268 E106.85960
G1 X91.672 Y77.473 E108.63905
G1 X91.823 Y78.208 E108.70752
G1 X78.137 Y91.894 E110.47282
G1 X78.398 Y92.520 E110.53465
G1 X91.974 Y78.943 E112.28580
G1 X92.125 Y79.679 E112.35427
G1 X78.658 Y93.146 E114.09128
G1 X78.919 Y93.771 E114.15311
G1 X92.276 Y80.414 E115.87598
G1 X92.427 Y81.150 E115.94445
G1 X79.180 Y94.397 E117.65317
G1 X79.440 Y95.023 E117.71500
G1 X92.578 Y81.885 E119.40957
G1 X92.729 Y82.620 E119.47804
G1 X79.701 Y95.649 E121.15848
G1 X79.962 Y96.274 E121.22030
G1 X92.880 Y83.356 E122.88659
G1 X93.031 Y84.091 E122.95506
G1 X80.222 Y96.900 E124.60721
G1 X80.483 Y97.526 E124.66903
G1 X93.182 Y84.827 E126.30703
G1 X93.333 Y85.562 E126.37551
G1 X80.744 Y98.152 E127.99936
G1 X81.004 Y98.777 E128.06119
G1 X93.484 Y86.297 E129.67090
G1 X93.635 Y87.033 E129.73937
G1 X81.265 Y99.403 E131.33494
G1 X81.526 Y100.029 E131.39676
G1 X93.786 Y87.768 E132.97819
G1 X93.937 Y88.504 E133.04666
G1 X81.786 Y100.654 E134.61394
G1 X82.047 Y101.280 E134.67576
G1 X94.088 Y89.239 E136.22889
G1 X94.239 Y89.974 E136.29737
G1 X82.308 Y101.906 E137.83636
G1 X82.568 Y102.532 E137.89818
G1 X94.427 Y90.673 E139.42776
G1 X94.695 Y91.292 E139.48925
G1 X82.829 Y103.157 E141.01974
G1 X83.090 Y103.783 E141.08156
G1 X94.962 Y91.910 E142.61296
G1 X95.230 Y92.529 E142.67444
G1 X83.350 Y104.409 E144.20674
G1 X83.611 Y105.035 E144.26857
G1 X95.498 Y93.148 E145.80178
G1 X95.766 Y93.767 E145.86326
G1 X83.872 Y105.660 E147.39738
G1 X84.132 Y106.286 E147.45921
G1 X96.033 Y94.385 E148.99423
G1 X96.301 Y95.004 E149.05572
G1 X84.393 Y106.912 E150.59165
G1 X84.654 Y107.538 E150.65347
G1 X96.569 Y95.623 E152.19031
G1 X96.836 Y96.241 E152.25179
G1 X84.886 Y108.192 E153.79322
G1 X85.146 Y108.818 E153.85508
G1 X97.104 Y96.860 E155.39750
G1 X97.372 Y97.479 E155.45898
G1 X85.406 Y109.445 E157.00240
G1 X85.666 Y110.071 E157.06426
G1 X97.640 Y98.097 E158.60867
G1 X97.907 Y98.716 E158.67016
G1 X85.926 Y110.698 E160.21556
G1 X86.186 Y111.324 E160.27742
G1 X98.175 Y99.335 E161.82382
G1 X98.443 Y99.954 E161.88531
G1 X86.446 Y111.950 E163.43271
G1 X86.706 Y112.577 E163.49457
G1 X98.710 Y100.572 E165.04296
G1 X98.978 Y101.191 E165.10445
G1 X86.966 Y113.203 E166.65383
G1 X87.226 Y113.830 E166.71569
G1 X99.246 Y101.810 E168.26608
G1 X99.513 Y102.428 E168.32756
G1 X87.486 Y114.456 E169.87895
G1 X87.746 Y115.082 E169.94080
G1 X99.781 Y103.047 E171.49318
G1 X100.049 Y103.666 E171.55466
G1 X88.006 Y115.709 E173.10804
G1 X88.266 Y116.335 E173.16990
G1 X100.317 Y104.284 E174.72426
G1 X100.584 Y104.903 E174.78575
G1 X88.526 Y116.962 E176.34111
G1 X88.786 Y117.588 E176.40297
G1 X100.852 Y105.522 E177.95933
G1 X101.120 Y106.141 E178.02081
G1 X89.046 Y118.215 E179.57817
G1 X89.306 Y118.841 E179.64003
G1 X101.387 Y106.759 E181.19838
G1 X101.655 Y107.378 E181.25986
G1 X89.566 Y119.467 E182.81921
G1 X89.826 Y120.094 E182.88107
G1 X101.923 Y107.997 E184.44141
G1 X102.191 Y108.615 E184.50289
G1 X90.086 Y120.720 E186.06423
G1 X90.346 Y121.347 E186.12609
G1 X102.458 Y109.234 E187.68842
G1 X102.726 Y109.853 E187.74991
G1 X90.606 Y121.973 E189.31324
G1 X90.866 Y122.600 E189.37509
G1 X102.994 Y110.472 E190.93942
G1 X103.261 Y111.090 E191.00090
G1 X91.126 Y123.226 E192.56622
G1 X91.386 Y123.852 E192.62808
G1 X103.529 Y111.709 E194.19440
G1 X103.797 Y112.328 E194.25588
G1 X91.646 Y124.479 E195.82319
G1 X91.906 Y125.105 E195.88505
G1 X104.064 Y112.946 E197.45336
G1 X104.332 Y113.565 E197.51484
G1 X92.166 Y125.732 E199.08414
G1 X92.426 Y126.358 E199.14600
G1 X104.600 Y114.184 E200.71630
G1 X104.868 Y114.802 E200.77778
G1 X92.686 Y126.984 E202.34908
G1 X92.946 Y127.611 E202.41093
G1 X105.135 Y115.421 E203.98322
G1 X105.403 Y116.040 E204.04471
G1 X93.206 Y128.237 E205.61799
G1 X93.466 Y128.864 E205.67985
G1 X105.671 Y116.659 E207.25413
G1 X105.938 Y117.277 E207.31562
G1 X93.726 Y129.490 E208.89089
G1 X93.985 Y130.117 E208.95275
G1 X106.206 Y117.896 E210.52902
G1 X106.474 Y118.515 E210.59051
G1 X94.245 Y130.743 E212.16777
G1 X94.505 Y131.369 E212.22963
G1 X106.742 Y119.133 E213.80789
G1 X107.009 Y119.752 E213.86938
G1 X94.765 Y131.996 E215.44864
G1 X95.025 Y132.622 E215.51049
G1 X107.277 Y120.371 E217.09075
G1 X107.545 Y120.989 E217.15223
G1 X95.285 Y133.249 E218.73348
G1 X95.545 Y133.875 E218.79534
G1 X107.812 Y121.608 E220.37758
G1 X108.080 Y122.227 E220.43907
G1 X95.805 Y134.502 E222.02231
G1 X96.065 Y135.128 E222.08417
