; generated by Slic3r 1.3.0-dev on 2018-06-22 at 14:50:30

; external perimeters extrusion width = 0.40mm (2.57mm^3/s)
; perimeters extrusion width = 0.67mm (7.54mm^3/s)
; infill extrusion width = 0.67mm (7.54mm^3/s)
; solid infill extrusion width = 0.24mm (1.97mm^3/s)
; top infill extrusion width = 0.67mm (3.77mm^3/s)

M190 S70 ; set bed temperature and wait for it to be reached
M104 S245 ; set temperature
G28 ; home all axes

; Filament gcode

M109 S245 ; set temperature and wait for it to be reached
G21 ; set units to millimeters
G90 ; use absolute coordinates
M82 ; use absolute distances for extrusion
G92 E0
M106 S255
G1 Z0.200 F7800.000
G1 E-6.00000 F3600.00000
G92 E0
G1 X73.283 Y93.221 F7800.000
G1 E6.00000 F3600.00000
G1 F1800
G1 X94.157 Y79.059 E6.43434
G1 X94.794 Y78.677 E6.44714
G1 X95.424 Y78.346 E6.45939
G1 X96.325 Y77.955 E6.47630
G1 X97.005 Y77.718 E6.48870
G1 X97.938 Y77.467 E6.50533
G1 X98.654 Y77.330 E6.51788
G1 X99.600 Y77.219 E6.53428
G1 X100.329 Y77.186 E6.54685
G1 X101.281 Y77.211 E6.56326
G1 X102.007 Y77.283 E6.57582
G1 X102.944 Y77.444 E6.59218
G1 X103.648 Y77.619 E6.60467
G1 X104.575 Y77.922 E6.62146
G1 X105.326 Y78.232 E6.63545
G1 X117.961 Y83.639 E6.87210
G1 X118.816 Y84.081 E6.88867
G1 X120.689 Y85.229 E6.92650
G1 X121.530 Y85.840 E6.94441
G1 X123.200 Y87.267 E6.98223
G1 X123.933 Y88.000 E7.00007
G1 X125.360 Y89.670 E7.03790
G1 X125.971 Y90.511 E7.05580
G1 X127.119 Y92.384 E7.09362
G1 X127.591 Y93.309 E7.11150
G1 X128.432 Y95.340 E7.14935
G1 X128.753 Y96.328 E7.16724
G1 X129.266 Y98.464 E7.20507
G1 X129.429 Y99.492 E7.22298
G1 X129.601 Y101.682 E7.26081
G1 X129.601 Y102.718 E7.27866
G1 X129.429 Y104.908 E7.31649
G1 X129.266 Y105.936 E7.33440
G1 X128.753 Y108.072 E7.37223
G1 X128.432 Y109.060 E7.39012
G1 X127.591 Y111.090 E7.42795
G1 X127.119 Y112.016 E7.44584
G1 X125.971 Y113.889 E7.48367
G1 X125.360 Y114.730 E7.50158
G1 X123.933 Y116.400 E7.53940
G1 X123.200 Y117.133 E7.55724
G1 X121.530 Y118.560 E7.59506
G1 X120.689 Y119.171 E7.61297
G1 X118.816 Y120.319 E7.65079
G1 X117.890 Y120.791 E7.66869
G1 X115.860 Y121.632 E7.70653
G1 X114.872 Y121.953 E7.72441
G1 X112.736 Y122.466 E7.76223
G1 X111.708 Y122.629 E7.78015
G1 X109.518 Y122.801 E7.81798
G1 X108.482 Y122.801 E7.83583
G1 X106.292 Y122.629 E7.87366
G1 X105.264 Y122.466 E7.89158
G1 X103.128 Y121.953 E7.92940
G1 X102.461 Y121.755 E7.94138
G1 X74.787 Y111.940 E8.44697
G1 X72.791 Y110.811 E8.48645
G1 X71.300 Y109.070 E8.52593
G1 X70.493 Y106.924 E8.56541
G1 X70.379 Y105.700 E8.58657
G1 X70.379 Y98.700 E8.70710
G1 X70.776 Y96.442 E8.74658
G1 X71.919 Y94.454 E8.78606
G1 X73.238 Y93.261 E8.81669
G1 X73.399 Y93.392 F7800.000
G1 F1800
G1 X94.273 Y79.230 E9.25103
G1 X94.891 Y78.860 E9.26343
G1 X95.521 Y78.529 E9.27568
G1 X96.393 Y78.150 E9.29206
G1 X97.073 Y77.913 E9.30446
G1 X97.977 Y77.670 E9.32057
G1 X98.693 Y77.533 E9.33312
G1 X99.609 Y77.425 E9.34901
G1 X100.338 Y77.392 E9.36157
G1 X101.261 Y77.417 E9.37747
G1 X101.987 Y77.489 E9.39004
G1 X102.894 Y77.646 E9.40589
G1 X103.598 Y77.820 E9.41837
G1 X104.496 Y78.114 E9.43464
G1 X105.245 Y78.422 E9.44858
G1 X117.880 Y83.829 E9.68522
G1 X118.708 Y84.257 E9.70128
G1 X120.581 Y85.405 E9.73910
G1 X121.396 Y85.998 E9.75645
G1 X123.066 Y87.425 E9.79428
G1 X123.775 Y88.134 E9.81155
G1 X125.203 Y89.805 E9.84938
G1 X125.795 Y90.619 E9.86672
G1 X126.943 Y92.492 E9.90455
G1 X127.399 Y93.388 E9.92187
G1 X128.241 Y95.419 E9.95972
G1 X128.552 Y96.376 E9.97705
G1 X129.065 Y98.513 E10.01488
G1 X129.222 Y99.508 E10.03223
G1 X129.394 Y101.698 E10.07006
G1 X129.394 Y102.702 E10.08735
G1 X129.222 Y104.892 E10.12518
G1 X129.065 Y105.888 E10.14253
G1 X128.552 Y108.024 E10.18036
G1 X128.241 Y108.981 E10.19769
G1 X127.400 Y111.011 E10.23552
G1 X126.943 Y111.908 E10.25285
G1 X125.795 Y113.781 E10.29068
G1 X125.202 Y114.596 E10.30803
G1 X123.775 Y116.266 E10.34585
G1 X123.066 Y116.975 E10.36313
G1 X121.396 Y118.402 E10.40095
G1 X120.581 Y118.995 E10.41830
G1 X118.708 Y120.143 E10.45613
G1 X117.811 Y120.600 E10.47346
G1 X115.781 Y121.441 E10.51130
G1 X114.824 Y121.752 E10.52862
G1 X112.688 Y122.265 E10.56645
G1 X111.692 Y122.422 E10.58381
G1 X109.502 Y122.594 E10.62163
G1 X108.498 Y122.594 E10.63893
G1 X106.308 Y122.422 E10.67675
G1 X105.312 Y122.265 E10.69411
G1 X103.176 Y121.752 E10.73193
G1 X102.530 Y121.560 E10.74354
G1 X74.856 Y111.745 E11.24913
G1 X72.895 Y110.629 E11.28799
G1 X71.442 Y108.902 E11.32684
G1 X70.586 Y105.700 E11.38391
G1 X70.586 Y98.700 E11.50445
G1 X70.983 Y96.479 E11.54330
G1 X72.124 Y94.532 E11.58215
G1 X73.354 Y93.432 E11.61057
G1 X73.515 Y93.564 F7800.000
G1 F1800
G1 X94.389 Y79.402 E12.04490
G1 X94.987 Y79.043 E12.05691
G1 X95.617 Y78.712 E12.06916
G1 X96.461 Y78.346 E12.08501
G1 X97.141 Y78.109 E12.09740
G1 X98.016 Y77.874 E12.11300
G1 X98.732 Y77.737 E12.12555
G1 X99.618 Y77.632 E12.14092
G1 X100.347 Y77.599 E12.15349
G1 X101.241 Y77.623 E12.16887
G1 X101.967 Y77.695 E12.18144
G1 X102.845 Y77.847 E12.19677
G1 X103.548 Y78.021 E12.20926
G1 X104.417 Y78.305 E12.22500
G1 X105.163 Y78.612 E12.23889
G1 X117.798 Y84.019 E12.47553
G1 X118.600 Y84.434 E12.49107
G1 X120.473 Y85.582 E12.52890
G1 X121.261 Y86.155 E12.54569
G1 X122.931 Y87.582 E12.58351
G1 X123.618 Y88.269 E12.60023
G1 X125.045 Y89.939 E12.63806
G1 X125.618 Y90.727 E12.65484
G1 X126.766 Y92.600 E12.69267
G1 X127.208 Y93.468 E12.70943
G1 X128.049 Y95.498 E12.74728
G1 X128.350 Y96.424 E12.76404
G1 X128.864 Y98.561 E12.80188
G1 X129.016 Y99.524 E12.81867
G1 X129.188 Y101.714 E12.85649
G1 X129.188 Y102.686 E12.87323
G1 X129.016 Y104.876 E12.91105
G1 X128.863 Y105.840 E12.92785
G1 X128.350 Y107.976 E12.96568
G1 X128.049 Y108.902 E12.98244
G1 X127.208 Y110.932 E13.02028
G1 X126.766 Y111.800 E13.03705
G1 X125.618 Y113.673 E13.07488
G1 X125.045 Y114.461 E13.09167
G1 X123.618 Y116.131 E13.12949
G1 X122.931 Y116.818 E13.14621
G1 X121.261 Y118.245 E13.18403
G1 X120.473 Y118.818 E13.20082
G1 X118.600 Y119.966 E13.23865
G1 X117.732 Y120.408 E13.25542
G1 X115.702 Y121.250 E13.29326
G1 X114.776 Y121.550 E13.31003
G1 X112.640 Y122.063 E13.34785
G1 X111.676 Y122.216 E13.36465
G1 X109.486 Y122.388 E13.40247
G1 X108.514 Y122.388 E13.41921
G1 X106.324 Y122.216 E13.45704
G1 X105.360 Y122.063 E13.47383
G1 X103.224 Y121.550 E13.51166
G1 X102.599 Y121.365 E13.52289
G1 X74.925 Y111.550 E14.02848
G1 X73.000 Y110.446 E14.06670
G1 X71.586 Y108.736 E14.10491
G1 X70.793 Y105.700 E14.15893
G1 X70.793 Y98.700 E14.27946
G1 X71.190 Y96.516 E14.31768
G1 X72.329 Y94.612 E14.35589
G1 X73.470 Y93.603 E14.38211
G1 E8.38211 F3600.00000
G92 E0
G1 X105.392 Y88.841 F7800.000
G1 E6.00000 F3600.00000
G1 F1080
G1 X106.830 Y88.496 E6.02545
G1 X109.000 Y88.325 E6.06294
G1 X111.170 Y88.496 E6.10043
G1 X113.287 Y89.004 E6.13791
G1 X115.299 Y89.838 E6.17541
G1 X117.155 Y90.975 E6.21290
G1 X118.810 Y92.390 E6.25038
G1 X120.225 Y94.045 E6.28787
G1 X121.362 Y95.901 E6.32535
G1 X122.196 Y97.913 E6.36285
G1 X122.704 Y100.030 E6.40034
G1 X122.875 Y102.200 E6.43782
G1 X122.704 Y104.370 E6.47531
G1 X122.196 Y106.487 E6.51280
G1 X121.362 Y108.499 E6.55029
G1 X120.225 Y110.355 E6.58778
G1 X118.810 Y112.010 E6.62526
G1 X117.155 Y113.425 E6.66275
G1 X115.299 Y114.562 E6.70024
G1 X113.287 Y115.396 E6.73773
G1 X111.170 Y115.904 E6.77522
G1 X109.000 Y116.075 E6.81271
G1 X106.830 Y115.904 E6.85019
G1 X104.713 Y115.396 E6.88768
G1 X102.701 Y114.562 E6.92517
G1 X100.845 Y113.425 E6.96266
G1 X99.223 Y112.039 E6.99939
G1 X92.029 Y109.077 E7.13334
G1 X90.925 Y108.990 E7.15243
G1 X89.876 Y108.738 E7.17100
G1 X88.879 Y108.325 E7.18958
G1 X87.960 Y107.762 E7.20814
G1 X87.139 Y107.061 E7.22672
G1 X86.438 Y106.240 E7.24531
G1 X86.030 Y105.575 E7.25875
G1 X77.125 Y105.575 E7.41208
G1 X77.125 Y102.827 E7.45940
G1 X87.919 Y102.827 E7.64525
G1 X88.074 Y103.475 E7.65673
G1 X88.305 Y104.045 E7.66732
G1 X88.661 Y104.627 E7.67906
G1 X89.081 Y105.119 E7.69020
G1 X89.573 Y105.539 E7.70135
G1 X90.126 Y105.878 E7.71251
G1 X90.724 Y106.126 E7.72366
G1 X91.354 Y106.277 E7.73482
G1 X92.000 Y106.327 E7.74597
G1 X92.646 Y106.277 E7.75712
G1 X93.276 Y106.126 E7.76827
G1 X93.874 Y105.878 E7.77943
G1 X94.427 Y105.539 E7.79059
G1 X94.919 Y105.119 E7.80173
G1 X95.339 Y104.627 E7.81288
G1 X95.832 Y103.821 E7.82914
G1 X95.783 Y103.821 E7.82999
G1 X95.926 Y103.476 E7.83644
G1 X96.077 Y102.846 E7.84759
G1 X96.127 Y102.200 E7.85874
G1 X96.077 Y101.554 E7.86989
G1 X95.926 Y100.924 E7.88105
G1 X95.783 Y100.579 E7.88749
G1 X95.832 Y100.579 E7.88835
G1 X95.339 Y99.773 E7.90460
G1 X94.919 Y99.281 E7.91575
G1 X94.427 Y98.861 E7.92690
G1 X93.874 Y98.522 E7.93806
G1 X93.276 Y98.274 E7.94921
G1 X92.646 Y98.123 E7.96037
G1 X92.000 Y98.072 E7.97152
G1 X91.354 Y98.123 E7.98267
G1 X90.724 Y98.274 E7.99383
G1 X90.126 Y98.522 E8.00498
G1 X89.573 Y98.861 E8.01614
G1 X89.081 Y99.281 E8.02729
G1 X88.661 Y99.773 E8.03843
G1 X88.322 Y100.326 E8.04959
G1 X88.074 Y100.924 E8.06074
G1 X87.919 Y101.572 E8.07221
G1 X77.125 Y101.572 E8.25807
G1 X77.125 Y98.825 E8.30537
G1 X86.030 Y98.825 E8.45870
G1 X86.438 Y98.160 E8.47214
G1 X87.139 Y97.339 E8.49072
G1 X87.960 Y96.638 E8.50930
G1 X88.879 Y96.075 E8.52787
G1 X89.876 Y95.662 E8.54645
G1 X90.925 Y95.410 E8.56502
G1 X92.029 Y95.323 E8.58411
G1 X93.821 Y94.585 E8.61747
G1 X96.273 Y86.652 E8.76045
G1 X96.550 Y86.065 E8.77162
G1 X96.927 Y85.528 E8.78291
G1 X97.393 Y85.049 E8.79442
G1 X97.941 Y84.644 E8.80615
G1 X98.554 Y84.322 E8.81808
G1 X99.217 Y84.091 E8.83016
G1 X99.914 Y83.957 E8.84238
G1 X100.632 Y83.926 E8.85476
G1 X101.333 Y83.996 E8.86689
G1 X102.018 Y84.165 E8.87904
G1 X102.665 Y84.431 E8.89108
G1 X103.255 Y84.786 E8.90295
G1 X103.774 Y85.219 E8.91459
G1 X104.209 Y85.721 E8.92602
G1 X104.549 Y86.278 E8.93725
G1 X104.787 Y86.880 E8.94841
G1 X105.374 Y88.784 E8.98270
G1 X105.496 Y89.227 F7800.000
G1 X105.252 Y89.088 F7800.000
G1 F1800
G1 X106.862 Y88.701 E9.01122
G1 X109.000 Y88.533 E9.04815
G1 X111.138 Y88.701 E9.08507
G1 X113.223 Y89.202 E9.12200
G1 X115.205 Y90.023 E9.15893
G1 X117.033 Y91.143 E9.19586
G1 X118.663 Y92.537 E9.23278
G1 X120.057 Y94.167 E9.26971
G1 X121.177 Y95.995 E9.30663
G1 X121.998 Y97.977 E9.34357
G1 X122.499 Y100.062 E9.38049
G1 X122.667 Y102.200 E9.41742
G1 X122.499 Y104.338 E9.45434
G1 X121.998 Y106.423 E9.49127
G1 X121.177 Y108.405 E9.52820
G1 X120.057 Y110.233 E9.56513
G1 X118.663 Y111.863 E9.60205
G1 X117.033 Y113.257 E9.63898
G1 X115.205 Y114.377 E9.67590
G1 X113.223 Y115.198 E9.71284
G1 X111.138 Y115.699 E9.74976
G1 X109.000 Y115.867 E9.78669
G1 X106.862 Y115.699 E9.82361
G1 X104.777 Y115.198 E9.86054
G1 X102.795 Y114.377 E9.89747
G1 X100.967 Y113.257 E9.93440
G1 X99.332 Y111.860 E9.97141
G1 X92.078 Y108.873 E10.10650
G1 X90.957 Y108.785 E10.12586
G1 X89.940 Y108.540 E10.14387
G1 X88.973 Y108.140 E10.16189
G1 X88.082 Y107.593 E10.17990
G1 X87.286 Y106.914 E10.19791
G1 X86.606 Y106.118 E10.21593
G1 X86.146 Y105.368 E10.23109
G1 X77.332 Y105.368 E10.38285
G1 X77.332 Y103.034 E10.42304
G1 X87.755 Y103.034 E10.60251
G1 X87.876 Y103.539 E10.61145
G1 X88.119 Y104.139 E10.62260
G1 X88.493 Y104.749 E10.63491
G1 X88.934 Y105.266 E10.64662
G1 X89.451 Y105.707 E10.65833
G1 X90.032 Y106.063 E10.67005
G1 X90.660 Y106.324 E10.68176
G1 X91.322 Y106.482 E10.69348
G1 X92.000 Y106.535 E10.70519
G1 X92.678 Y106.482 E10.71690
G1 X93.340 Y106.324 E10.72862
G1 X93.968 Y106.063 E10.74034
G1 X94.549 Y105.707 E10.75206
G1 X95.066 Y105.266 E10.76376
G1 X95.507 Y104.749 E10.77547
G1 X96.202 Y103.614 E10.79837
G1 X96.106 Y103.614 E10.80002
G1 X96.282 Y102.878 E10.81306
G1 X96.335 Y102.200 E10.82477
G1 X96.282 Y101.522 E10.83647
G1 X96.106 Y100.786 E10.84951
G1 X96.202 Y100.786 E10.85116
G1 X95.507 Y99.651 E10.87406
G1 X95.066 Y99.134 E10.88577
G1 X94.549 Y98.693 E10.89748
G1 X93.968 Y98.337 E10.90920
G1 X93.340 Y98.076 E10.92091
G1 X92.678 Y97.918 E10.93263
G1 X92.000 Y97.864 E10.94434
G1 X91.322 Y97.918 E10.95606
G1 X90.660 Y98.076 E10.96777
G1 X90.032 Y98.337 E10.97949
G1 X89.451 Y98.693 E10.99121
G1 X88.934 Y99.134 E11.00292
G1 X88.493 Y99.651 E11.01462
G1 X88.137 Y100.232 E11.02634
G1 X87.876 Y100.860 E11.03806
G1 X87.756 Y101.365 E11.04700
G1 X77.332 Y101.365 E11.22647
G1 X77.332 Y99.032 E11.26664
G1 X86.146 Y99.032 E11.41840
G1 X86.606 Y98.282 E11.43356
G1 X87.286 Y97.486 E11.45158
G1 X88.082 Y96.807 E11.46960
G1 X88.973 Y96.260 E11.48761
G1 X89.940 Y95.860 E11.50562
G1 X90.957 Y95.615 E11.52364
G1 X92.078 Y95.527 E11.54300
G1 X93.990 Y94.739 E11.57861
G1 X96.466 Y86.729 E11.72297
G1 X96.730 Y86.169 E11.73363
G1 X97.087 Y85.661 E11.74433
G1 X97.530 Y85.206 E11.75526
G1 X98.051 Y84.820 E11.76643
G1 X98.637 Y84.512 E11.77781
G1 X99.270 Y84.292 E11.78937
G1 X99.938 Y84.164 E11.80107
G1 X100.626 Y84.134 E11.81294
G1 X101.297 Y84.200 E11.82455
G1 X101.953 Y84.362 E11.83619
G1 X102.571 Y84.617 E11.84769
G1 X103.135 Y84.955 E11.85901
G1 X103.629 Y85.368 E11.87009
G1 X104.041 Y85.844 E11.88093
G1 X104.363 Y86.371 E11.89157
G1 X104.591 Y86.949 E11.90228
G1 X105.234 Y89.030 E11.93978
G1 E5.93978 F3600.00000
G92 E0
G1 X101.859 Y87.941 F7800.000
G1 E6.00000 F3600.00000
G1 F1200
G1 X101.656 Y88.340 E6.00771
G1 X101.340 Y88.656 E6.01541
G1 X100.941 Y88.859 E6.02312
G1 X100.500 Y88.929 E6.03081
G1 X100.059 Y88.859 E6.03849
G1 X99.660 Y88.656 E6.04621
G1 X99.344 Y88.340 E6.05390
G1 X99.141 Y87.941 E6.06162
G1 X99.071 Y87.500 E6.06930
G1 X99.141 Y87.059 E6.07699
G1 X99.344 Y86.660 E6.08470
G1 X99.660 Y86.344 E6.09240
G1 X100.059 Y86.141 E6.10011
G1 X100.500 Y86.070 E6.10780
G1 X100.941 Y86.141 E6.11549
G1 X101.340 Y86.344 E6.12321
G1 X101.656 Y86.660 E6.13090
G1 X101.859 Y87.059 E6.13861
G1 X101.930 Y87.500 E6.14630
G1 X101.869 Y87.882 E6.15296
G1 X101.859 Y87.941 F7800.000
G1 X102.044 Y88.035 F7800.000
G1 F1200
G1 X101.826 Y88.463 E6.16124
G1 X101.463 Y88.826 E6.17007
G1 X101.005 Y89.059 E6.17892
G1 X100.500 Y89.138 E6.18773
G1 X99.995 Y89.059 E6.19654
G1 X99.537 Y88.826 E6.20538
G1 X99.174 Y88.463 E6.21421
G1 X98.941 Y88.005 E6.22306
G1 X98.862 Y87.500 E6.23187
G1 X98.941 Y86.995 E6.24068
G1 X99.174 Y86.536 E6.24953
G1 X99.537 Y86.174 E6.25836
G1 X99.994 Y85.941 E6.26720
G1 X100.500 Y85.861 E6.27602
G1 X101.006 Y85.941 E6.28484
G1 X101.463 Y86.174 E6.29368
G1 X101.826 Y86.536 E6.30251
G1 X102.059 Y86.994 E6.31135
G1 X102.139 Y87.500 E6.32017
G1 X102.063 Y87.979 E6.32851
G1 E0.32851 F3600.00000
G92 E0
G1 X104.856 Y94.067 F7800.000
G1 E6.00000 F3600.00000
G1 F1080
G1 X106.180 Y93.519 E6.02467
G1 X107.620 Y93.180 E6.05014
G1 X109.000 Y93.072 E6.07398
G1 X110.428 Y93.184 E6.09864
G1 X111.821 Y93.519 E6.12331
G1 X113.144 Y94.067 E6.14797
G1 X114.366 Y94.816 E6.17264
G1 X115.455 Y95.745 E6.19730
G1 X116.384 Y96.834 E6.22195
G1 X117.133 Y98.056 E6.24662
G1 X117.681 Y99.379 E6.27129
G1 X118.016 Y100.772 E6.29596
G1 X118.128 Y102.200 E6.32062
G1 X118.016 Y103.628 E6.34527
G1 X117.681 Y105.021 E6.36994
G1 X117.133 Y106.344 E6.39461
G1 X116.384 Y107.566 E6.41928
G1 X115.455 Y108.655 E6.44393
G1 X114.366 Y109.584 E6.46859
G1 X113.144 Y110.333 E6.49326
G1 X111.821 Y110.881 E6.51792
G1 X110.428 Y111.216 E6.54259
G1 X109.000 Y111.327 E6.56725
G1 X107.572 Y111.216 E6.59190
G1 X106.179 Y110.881 E6.61657
G1 X104.856 Y110.333 E6.64124
G1 X103.634 Y109.584 E6.66591
G1 X102.545 Y108.655 E6.69056
G1 X101.616 Y107.566 E6.71522
G1 X100.867 Y106.344 E6.73989
G1 X100.319 Y105.021 E6.76455
G1 X99.984 Y103.628 E6.78922
G1 X99.873 Y102.200 E6.81388
G1 X99.984 Y100.772 E6.83853
G1 X100.319 Y99.379 E6.86321
G1 X100.867 Y98.056 E6.88787
G1 X101.616 Y96.834 E6.91254
G1 X102.545 Y95.745 E6.93719
G1 X103.634 Y94.816 E6.96185
G1 X104.805 Y94.099 E6.98549
G1 X104.856 Y94.067 F7800.000
G1 X104.748 Y93.891 F7800.000
G1 F1800
G1 X106.116 Y93.321 E7.01100
G1 X107.588 Y92.975 E7.03703
G1 X109.000 Y92.864 E7.06143
G1 X110.460 Y92.979 E7.08665
G1 X111.885 Y93.321 E7.11188
G1 X113.238 Y93.882 E7.13710
G1 X114.488 Y94.647 E7.16233
G1 X115.602 Y95.598 E7.18755
G1 X116.553 Y96.712 E7.21277
G1 X117.318 Y97.962 E7.23800
G1 X117.879 Y99.315 E7.26322
G1 X118.221 Y100.740 E7.28845
G1 X118.336 Y102.200 E7.31367
G1 X118.221 Y103.660 E7.33889
G1 X117.879 Y105.085 E7.36412
G1 X117.318 Y106.438 E7.38935
G1 X116.553 Y107.688 E7.41458
