; generated by Slic3r 1.3.0-dev on 2018-07-10 at 14:05:55

; external perimeters extrusion width = 0.40mm (2.57mm^3/s)
; perimeters extrusion width = 0.67mm (7.54mm^3/s)
; infill extrusion width = 0.67mm (7.54mm^3/s)
; solid infill extrusion width = 0.24mm (1.97mm^3/s)
; top infill extrusion width = 0.67mm (3.77mm^3/s)

M190 S70 ; set bed temperature and wait for it to be reached
M104 S245 ; set temperature
G28 ; home all axes

; Filament gcode

M109 S245 ; set temperature and wait for it to be reached
G21 ; set units to millimeters
G90 ; use absolute coordinates
M82 ; use absolute distances for extrusion
G92 E0
M106 S255
G1 Z0.200 F7800.000
G1 E-6.00000 F3600.00000
G92 E0
G1 X86.346 Y87.290 F7800.000
G1 E6.00000 F3600.00000
G1 F1800
G1 X89.318 Y84.318 E6.07238
G1 X91.196 Y83.002 E6.11185
G1 X94.000 Y82.379 E6.16132
G1 X106.000 Y82.379 E6.36795
G1 X108.258 Y82.776 E6.40743
G1 X110.682 Y84.318 E6.45689
G1 X113.682 Y87.318 E6.52995
G1 X114.998 Y89.196 E6.56943
G1 X115.621 Y92.000 E6.61889
G1 X115.621 Y111.000 E6.94605
G1 X115.224 Y113.258 E6.98553
G1 X114.081 Y115.246 E7.02501
G1 X112.328 Y116.724 E7.06449
G1 X110.177 Y117.516 E7.10397
G1 X109.000 Y117.621 E7.12431
G1 X91.000 Y117.621 E7.43424
G1 X88.742 Y117.224 E7.47372
G1 X86.754 Y116.081 E7.51320
G1 X85.276 Y114.328 E7.55268
G1 X84.484 Y112.177 E7.59216
G1 X84.379 Y111.000 E7.61250
G1 X84.379 Y92.000 E7.93966
G1 X84.776 Y89.742 E7.97914
G1 X86.307 Y87.335 E8.02825
G1 X86.492 Y87.437 F7800.000
G1 F1800
G1 X89.465 Y84.465 E8.10063
G1 X91.316 Y83.175 E8.13948
G1 X94.000 Y82.586 E8.18679
G1 X106.000 Y82.586 E8.39342
G1 X108.221 Y82.983 E8.43227
G1 X110.535 Y84.465 E8.47959
G1 X113.536 Y87.465 E8.55264
G1 X114.826 Y89.316 E8.59150
G1 X115.414 Y92.000 E8.63881
G1 X115.414 Y111.000 E8.96597
G1 X115.017 Y113.221 E9.00482
G1 X113.876 Y115.168 E9.04367
G1 X112.131 Y116.598 E9.08252
G1 X109.000 Y117.414 E9.13823
G1 X91.000 Y117.414 E9.44817
G1 X88.779 Y117.017 E9.48702
G1 X86.832 Y115.876 E9.52588
G1 X85.402 Y114.131 E9.56473
G1 X84.586 Y111.000 E9.62044
G1 X84.586 Y92.000 E9.94760
G1 X84.983 Y89.779 E9.98645
G1 X86.453 Y87.482 E10.03341
G1 X86.639 Y87.583 F7800.000
G1 F1800
G1 X89.611 Y84.611 E10.10578
G1 X91.436 Y83.347 E10.14400
G1 X94.000 Y82.793 E10.18918
G1 X106.000 Y82.793 E10.39580
G1 X108.184 Y83.190 E10.43402
G1 X110.389 Y84.611 E10.47919
G1 X113.389 Y87.611 E10.55225
G1 X114.653 Y89.436 E10.59046
G1 X115.207 Y92.000 E10.63564
G1 X115.207 Y111.000 E10.96279
G1 X114.810 Y113.184 E11.00101
G1 X113.671 Y115.088 E11.03922
G1 X111.934 Y116.470 E11.07744
G1 X109.000 Y117.207 E11.12953
G1 X91.000 Y117.207 E11.43947
G1 X88.816 Y116.810 E11.47768
G1 X86.912 Y115.671 E11.51590
G1 X85.530 Y113.934 E11.55411
G1 X84.793 Y111.000 E11.60620
G1 X84.793 Y92.000 E11.93336
G1 X85.190 Y89.816 E11.97157
G1 X86.600 Y87.628 E12.01639
G1 E6.01639 F3600.00000
G92 E0
G1 X108.875 Y110.875 F7800.000
G1 E6.00000 F3600.00000
G1 F1080
G1 X91.125 Y110.875 E6.30563
G1 X91.125 Y92.052 E6.62974
G1 X94.052 Y89.125 E6.70101
G1 X105.948 Y89.125 E6.90586
G1 X108.875 Y92.052 E6.97713
G1 X108.875 Y110.815 E7.30021
G1 X108.520 Y110.691 F7800.000
G1 X108.668 Y110.668 F7800.000
G1 F1800
G1 X91.332 Y110.668 E7.59871
G1 X91.332 Y92.138 E7.91778
G1 X94.138 Y89.332 E7.98609
G1 X105.862 Y89.332 E8.18798
G1 X108.668 Y92.138 E8.25630
G1 X108.668 Y110.608 E8.57433
G1 X108.439 Y110.483 F7800.000
G1 F1500
G1 X108.483 Y110.439 E8.57541
G1 X108.483 Y110.146 E8.58045
G1 X108.146 Y110.483 E8.58867
G1 X107.853 Y110.483 E8.59371
G1 X108.483 Y109.853 E8.60906
G1 X108.483 Y109.560 E8.61411
G1 X107.560 Y110.483 E8.63660
G1 X107.267 Y110.483 E8.64164
G1 X108.483 Y109.267 E8.67127
G1 X108.483 Y108.974 E8.67632
G1 X106.974 Y110.483 E8.71308
G1 X106.681 Y110.483 E8.71813
G1 X108.483 Y108.681 E8.76203
G1 X108.483 Y108.388 E8.76708
G1 X106.388 Y110.483 E8.81812
G1 X106.095 Y110.483 E8.82316
G1 X108.483 Y108.095 E8.88134
G1 X108.483 Y107.802 E8.88639
G1 X105.802 Y110.483 E8.95170
G1 X105.509 Y110.483 E8.95675
G1 X108.483 Y107.509 E9.02920
G1 X108.483 Y107.216 E9.03425
G1 X105.216 Y110.483 E9.11384
G1 X104.923 Y110.483 E9.11889
G1 X108.483 Y106.923 E9.20562
G1 X108.483 Y106.630 E9.21066
G1 X104.630 Y110.483 E9.30453
G1 X104.337 Y110.483 E9.30958
G1 X108.483 Y106.337 E9.41058
G1 X108.483 Y106.044 E9.41563
G1 X104.044 Y110.483 E9.52377
G1 X103.751 Y110.483 E9.52882
G1 X108.483 Y105.751 E9.64410
G1 X108.483 Y105.458 E9.64915
G1 X103.458 Y110.483 E9.77157
G1 X103.165 Y110.483 E9.77661
G1 X108.483 Y105.165 E9.90617
G1 X108.483 Y104.872 E9.91122
G1 X102.872 Y110.483 E10.04791
G1 X102.579 Y110.483 E10.05296
G1 X108.483 Y104.579 E10.19679
G1 X108.483 Y104.286 E10.20184
G1 X102.286 Y110.483 E10.35281
G1 X101.993 Y110.483 E10.35786
G1 X108.483 Y103.993 E10.51597
G1 X108.483 Y103.700 E10.52101
G1 X101.700 Y110.483 E10.68626
G1 X101.407 Y110.483 E10.69131
G1 X108.483 Y103.407 E10.86369
G1 X108.483 Y103.114 E10.86874
G1 X101.114 Y110.483 E11.04826
G1 X100.821 Y110.483 E11.05331
G1 X108.483 Y102.821 E11.23997
G1 X108.483 Y102.528 E11.24501
G1 X100.528 Y110.483 E11.43881
G1 X100.235 Y110.483 E11.44386
G1 X108.483 Y102.235 E11.64480
G1 X108.483 Y101.942 E11.64984
G1 X99.942 Y110.483 E11.85792
G1 X99.649 Y110.483 E11.86296
G1 X108.483 Y101.649 E12.07818
G1 X108.483 Y101.356 E12.08322
G1 X99.356 Y110.483 E12.30557
G1 X99.063 Y110.483 E12.31062
G1 X108.483 Y101.063 E12.54011
G1 X108.483 Y100.770 E12.54516
G1 X98.770 Y110.483 E12.78178
G1 X98.477 Y110.483 E12.78683
G1 X108.483 Y100.477 E13.03059
G1 X108.483 Y100.184 E13.03564
G1 X98.184 Y110.483 E13.28654
G1 X97.891 Y110.483 E13.29159
G1 X108.483 Y99.891 E13.54963
G1 X108.483 Y99.598 E13.55467
G1 X97.598 Y110.483 E13.81985
G1 X97.305 Y110.483 E13.82490
G1 X108.483 Y99.305 E14.09721
G1 X108.483 Y99.012 E14.10226
G1 X97.012 Y110.483 E14.38172
G1 X96.719 Y110.483 E14.38676
G1 X108.483 Y98.719 E14.67335
G1 X108.483 Y98.426 E14.67840
G1 X96.426 Y110.483 E14.97213
G1 X96.133 Y110.483 E14.97718
G1 X108.483 Y98.133 E15.27804
G1 X108.483 Y97.840 E15.28309
G1 X95.840 Y110.483 E15.59110
G1 X95.547 Y110.483 E15.59614
G1 X108.483 Y97.547 E15.91129
G1 X108.483 Y97.254 E15.91633
G1 X95.254 Y110.483 E16.23862
G1 X94.961 Y110.483 E16.24366
G1 X108.483 Y96.961 E16.57308
G1 X108.483 Y96.668 E16.57813
G1 X94.668 Y110.483 E16.91469
G1 X94.375 Y110.483 E16.91973
G1 X108.483 Y96.375 E17.26343
G1 X108.483 Y96.082 E17.26848
G1 X94.082 Y110.483 E17.61931
G1 X93.789 Y110.483 E17.62436
G1 X108.483 Y95.789 E17.98233
G1 X108.483 Y95.496 E17.98737
G1 X93.496 Y110.483 E18.35248
G1 X93.203 Y110.483 E18.35753
G1 X108.483 Y95.203 E18.72978
G1 X108.483 Y94.910 E18.73482
G1 X92.910 Y110.483 E19.11421
G1 X92.617 Y110.483 E19.11925
G1 X108.483 Y94.617 E19.50578
G1 X108.483 Y94.324 E19.51082
G1 X92.324 Y110.483 E19.90448
G1 X92.031 Y110.483 E19.90953
G1 X108.483 Y94.031 E20.31033
G1 X108.483 Y93.738 E20.31538
G1 X91.738 Y110.483 E20.72331
G1 X91.517 Y110.483 E20.72712
G1 X91.517 Y110.411 E20.72836
G1 X108.483 Y93.445 E21.14168
G1 X108.483 Y93.152 E21.14673
G1 X91.517 Y110.118 E21.56005
G1 X91.517 Y109.825 E21.56510
G1 X108.483 Y92.859 E21.97842
G1 X108.483 Y92.566 E21.98347
G1 X91.517 Y109.532 E22.39679
G1 X91.517 Y109.239 E22.40184
G1 X108.483 Y92.273 E22.81516
G1 X108.483 Y92.201 E22.81640
G1 X108.372 Y92.091 E22.81909
G1 X91.517 Y108.946 E23.22972
G1 X91.517 Y108.653 E23.23477
G1 X108.226 Y91.944 E23.64183
G1 X108.079 Y91.798 E23.64540
G1 X91.517 Y108.360 E24.04889
G1 X91.517 Y108.067 E24.05394
G1 X107.933 Y91.651 E24.45386
G1 X107.786 Y91.505 E24.45743
G1 X91.517 Y107.774 E24.85379
G1 X91.517 Y107.481 E24.85884
G1 X107.640 Y91.358 E25.25162
G1 X107.493 Y91.212 E25.25519
G1 X91.517 Y107.188 E25.64441
G1 X91.517 Y106.895 E25.64945
G1 X107.347 Y91.065 E26.03510
G1 X107.200 Y90.919 E26.03867
G1 X91.517 Y106.602 E26.42075
G1 X91.517 Y106.309 E26.42579
G1 X107.054 Y90.772 E26.80430
G1 X106.907 Y90.626 E26.80787
G1 X91.517 Y106.016 E27.18281
G1 X91.517 Y105.723 E27.18786
G1 X106.761 Y90.479 E27.55923
G1 X106.614 Y90.333 E27.56280
G1 X91.517 Y105.430 E27.93060
G1 X91.517 Y105.137 E27.93565
G1 X106.468 Y90.186 E28.29988
G1 X106.321 Y90.040 E28.30345
G1 X91.517 Y104.844 E28.66412
G1 X91.517 Y104.551 E28.66916
G1 X106.175 Y89.893 E29.02626
G1 X106.028 Y89.747 E29.02983
G1 X91.517 Y104.258 E29.38336
G1 X91.517 Y103.965 E29.38840
G1 X105.882 Y89.600 E29.73836
G1 X105.799 Y89.517 E29.74039
G1 X105.672 Y89.517 E29.74257
G1 X91.517 Y103.672 E30.08742
G1 X91.517 Y103.379 E30.09246
G1 X105.379 Y89.517 E30.43017
G1 X105.086 Y89.517 E30.43522
G1 X91.517 Y103.086 E30.76579
G1 X91.517 Y102.793 E30.77084
G1 X104.793 Y89.517 E31.09427
G1 X104.500 Y89.517 E31.09932
G1 X91.517 Y102.500 E31.41561
G1 X91.517 Y102.207 E31.42066
G1 X104.207 Y89.517 E31.72982
G1 X103.914 Y89.517 E31.73487
G1 X91.517 Y101.914 E32.03689
G1 X91.517 Y101.621 E32.04193
G1 X103.621 Y89.517 E32.33682
G1 X103.328 Y89.517 E32.34186
G1 X91.517 Y101.328 E32.62961
G1 X91.517 Y101.035 E32.63465
G1 X103.035 Y89.517 E32.91526
G1 X102.742 Y89.517 E32.92031
G1 X91.517 Y100.742 E33.19378
G1 X91.517 Y100.449 E33.19882
G1 X102.449 Y89.517 E33.46515
G1 X102.156 Y89.517 E33.47020
G1 X91.517 Y100.156 E33.72939
G1 X91.517 Y99.863 E33.73444
G1 X101.863 Y89.517 E33.98649
G1 X101.570 Y89.517 E33.99154
G1 X91.517 Y99.570 E34.23646
G1 X91.517 Y99.277 E34.24151
G1 X101.277 Y89.517 E34.47928
G1 X100.984 Y89.517 E34.48433
G1 X91.517 Y98.984 E34.71497
G1 X91.517 Y98.691 E34.72002
G1 X100.691 Y89.517 E34.94352
G1 X100.398 Y89.517 E34.94857
G1 X91.517 Y98.398 E35.16493
G1 X91.517 Y98.105 E35.16998
G1 X100.105 Y89.517 E35.37921
G1 X99.812 Y89.517 E35.38425
G1 X91.517 Y97.812 E35.58634
G1 X91.517 Y97.519 E35.59139
G1 X99.519 Y89.517 E35.78634
G1 X99.226 Y89.517 E35.79139
G1 X91.517 Y97.226 E35.97920
G1 X91.517 Y96.933 E35.98425
G1 X98.933 Y89.517 E36.16492
G1 X98.640 Y89.517 E36.16997
G1 X91.517 Y96.640 E36.34351
G1 X91.517 Y96.347 E36.34856
G1 X98.347 Y89.517 E36.51495
G1 X98.054 Y89.517 E36.52000
G1 X91.517 Y96.054 E36.67926
G1 X91.517 Y95.761 E36.68431
G1 X97.761 Y89.517 E36.83643
G1 X97.468 Y89.517 E36.84148
G1 X91.517 Y95.468 E36.98647
G1 X91.517 Y95.175 E36.99151
G1 X97.175 Y89.517 E37.12936
G1 X96.882 Y89.517 E37.13441
G1 X91.517 Y94.882 E37.26512
G1 X91.517 Y94.589 E37.27016
G1 X96.589 Y89.517 E37.39374
G1 X96.296 Y89.517 E37.39878
G1 X91.517 Y94.296 E37.51522
G1 X91.517 Y94.003 E37.52026
G1 X96.003 Y89.517 E37.62956
G1 X95.710 Y89.517 E37.63461
G1 X91.517 Y93.710 E37.73676
G1 X91.517 Y93.417 E37.74181
G1 X95.417 Y89.517 E37.83683
G1 X95.124 Y89.517 E37.84188
G1 X91.517 Y93.124 E37.92976
G1 X91.517 Y92.831 E37.93481
G1 X94.831 Y89.517 E38.01555
G1 X94.538 Y89.517 E38.02060
G1 X91.517 Y92.538 E38.09420
G1 X91.517 Y92.245 E38.09925
G1 X94.245 Y89.517 E38.16572
G1 Z0.400 F7800.000
G1 X108.800 Y110.800 F7800.000
G1 F2160
G1 X91.200 Y110.800 E38.68829
G1 X91.200 Y92.083 E39.24402
G1 X94.083 Y89.200 E39.36507
G1 X105.917 Y89.200 E39.71645
G1 X108.800 Y92.083 E39.83750
G1 X108.800 Y110.740 E40.39145
G1 X108.445 Y110.616 F7800.000
G1 X108.307 Y110.307 F7800.000
G1 F3600
G1 X91.693 Y110.307 E41.25948
G1 X91.693 Y92.287 E42.20095
G1 X94.287 Y89.693 E42.39263
G1 X105.713 Y89.693 E42.98959
G1 X108.307 Y92.287 E43.18126
G1 X108.307 Y110.247 E44.11960
G1 X92.149 Y109.938 F7800.000
G1 F3000
G1 X92.062 Y109.851 E44.12163
G1 X92.062 Y109.571 E44.12622
G1 X92.429 Y109.938 E44.13474
G1 X92.708 Y109.938 E44.13932
G1 X92.062 Y109.292 E44.15432
G1 X92.062 Y109.013 E44.15891
G1 X92.987 Y109.938 E44.18039
G1 X93.266 Y109.938 E44.18498
G1 X92.062 Y108.734 E44.21294
G1 X92.062 Y108.455 E44.21753
G1 X93.545 Y109.938 E44.25198
G1 X93.825 Y109.938 E44.25656
G1 X92.062 Y108.175 E44.29749
G1 X92.062 Y107.896 E44.30207
G1 X94.104 Y109.938 E44.34949
G1 X94.383 Y109.938 E44.35407
G1 X92.062 Y107.617 E44.40797
G1 X92.062 Y107.338 E44.41255
G1 X94.662 Y109.938 E44.47293
G1 X94.941 Y109.938 E44.47751
G1 X92.062 Y107.059 E44.54437
G1 X92.062 Y106.779 E44.54896
G1 X95.221 Y109.938 E44.62230
G1 X95.500 Y109.938 E44.62688
G1 X92.062 Y106.500 E44.70670
G1 X92.062 Y106.221 E44.71129
G1 X95.779 Y109.938 E44.79759
G1 X96.058 Y109.938 E44.80218
G1 X92.062 Y105.942 E44.89497
G1 X92.062 Y105.662 E44.89955
G1 X96.338 Y109.938 E44.99882
G1 X96.617 Y109.938 E45.00340
G1 X92.062 Y105.383 E45.10915
G1 X92.062 Y105.104 E45.11374
G1 X96.896 Y109.938 E45.22597
G1 X97.175 Y109.938 E45.23056
G1 X92.062 Y104.825 E45.34927
G1 X92.062 Y104.546 E45.35386
G1 X97.454 Y109.938 E45.47905
G1 X97.734 Y109.938 E45.48364
G1 X92.062 Y104.266 E45.61532
G1 X92.062 Y103.987 E45.61990
G1 X98.013 Y109.938 E45.75807
G1 X98.292 Y109.938 E45.76265
G1 X92.062 Y103.708 E45.90729
G1 X92.062 Y103.429 E45.91188
G1 X98.571 Y109.938 E46.06300
G1 X98.850 Y109.938 E46.06759
G1 X92.062 Y103.150 E46.22520
G1 X92.062 Y102.870 E46.22978
G1 X99.130 Y109.938 E46.39387
G1 X99.409 Y109.938 E46.39846
G1 X92.062 Y102.591 E46.56903
G1 X92.062 Y102.312 E46.57361
G1 X99.688 Y109.938 E46.75067
G1 X99.967 Y109.938 E46.75525
G1 X92.062 Y102.033 E46.93879
G1 X92.062 Y101.754 E46.94337
G1 X100.246 Y109.938 E47.13339
G1 X100.526 Y109.938 E47.13798
G1 X92.062 Y101.474 E47.33448
G1 X92.062 Y101.195 E47.33906
G1 X100.805 Y109.938 E47.54204
G1 X101.084 Y109.938 E47.54663
G1 X92.062 Y100.916 E47.75609
G1 X92.062 Y100.637 E47.76068
G1 X101.363 Y109.938 E47.97663
G1 X101.642 Y109.938 E47.98121
G1 X92.062 Y100.358 E48.20364
G1 X92.062 Y100.078 E48.20822
G1 X101.922 Y109.938 E48.43713
G1 X102.201 Y109.938 E48.44172
G1 X92.062 Y99.799 E48.67711
G1 X92.062 Y99.520 E48.68170
G1 X102.480 Y109.938 E48.92357
G1 X102.759 Y109.938 E48.92816
G1 X92.062 Y99.241 E49.17651
G1 X92.062 Y98.962 E49.18110
G1 X103.038 Y109.938 E49.43594
G1 X103.318 Y109.938 E49.44052
G1 X92.062 Y98.682 E49.70185
G1 X92.062 Y98.403 E49.70643
G1 X103.597 Y109.938 E49.97423
G1 X103.876 Y109.938 E49.97882
G1 X92.062 Y98.124 E50.25310
G1 X92.062 Y97.845 E50.25769
G1 X104.155 Y109.938 E50.53846
G1 X104.435 Y109.938 E50.54304
G1 X92.062 Y97.565 E50.83029
G1 X92.062 Y97.286 E50.83487
G1 X104.714 Y109.938 E51.12861
G1 X104.993 Y109.938 E51.13319
G1 X92.062 Y97.007 E51.43341
G1 X92.062 Y96.728 E51.43799
G1 X105.272 Y109.938 E51.74469
G1 X105.551 Y109.938 E51.74927
G1 X92.062 Y96.449 E52.06245
G1 X92.062 Y96.169 E52.06703
G1 X105.831 Y109.938 E52.38670
G1 X106.110 Y109.938 E52.39128
G1 X92.062 Y95.890 E52.71742
G1 X92.062 Y95.611 E52.72201
G1 X106.389 Y109.938 E53.05463
G1 X106.668 Y109.938 E53.05922
G1 X92.062 Y95.332 E53.39832
G1 X92.062 Y95.053 E53.40291
G1 X106.947 Y109.938 E53.74850
G1 X107.227 Y109.938 E53.75308
G1 X92.062 Y94.773 E54.10515
G1 X92.062 Y94.494 E54.10974
G1 X107.506 Y109.938 E54.46829
G1 X107.785 Y109.938 E54.47288
G1 X92.062 Y94.215 E54.83791
G1 X92.062 Y93.936 E54.84250
G1 X107.938 Y109.813 E55.21109
G1 X107.938 Y109.533 E55.21568
G1 X92.062 Y93.657 E55.58427
G1 X92.062 Y93.377 E55.58886
G1 X107.938 Y109.254 E55.95746
G1 X107.938 Y108.975 E55.96204
G1 X92.062 Y93.098 E56.33064
G1 X92.062 Y92.819 E56.33522
G1 X107.938 Y108.696 E56.70382
G1 X107.938 Y108.417 E56.70840
G1 X92.062 Y92.540 E57.07700
G1 X92.062 Y92.414 E57.07906
G1 X92.138 Y92.337 E57.08085
G1 X107.938 Y108.137 E57.44766
G1 X107.938 Y107.858 E57.45224
G1 X92.278 Y92.198 E57.81582
G1 X92.418 Y92.058 E57.81906
G1 X107.938 Y107.579 E58.17939
G1 X107.938 Y107.300 E58.18398
G1 X92.557 Y91.919 E58.54107
G1 X92.697 Y91.779 E58.54431
G1 X107.938 Y107.021 E58.89816
G1 X107.938 Y106.741 E58.90275
G1 X92.836 Y91.639 E59.25336
G1 X92.976 Y91.500 E59.25660
G1 X107.938 Y106.462 E59.60397
G1 X107.938 Y106.183 E59.60855
G1 X93.116 Y91.360 E59.95268
G1 X93.255 Y91.220 E59.95592
G1 X107.938 Y105.904 E60.29681
G1 X107.938 Y105.624 E60.30139
G1 X93.395 Y91.081 E60.63904
G1 X93.534 Y90.941 E60.64228
G1 X107.938 Y105.345 E60.97668
G1 X107.938 Y105.066 E60.98127
G1 X93.674 Y90.802 E61.31243
G1 X93.814 Y90.662 E61.31567
G1 X107.938 Y104.787 E61.64359
G1 X107.938 Y104.508 E61.64818
G1 X93.953 Y90.522 E61.97286
G1 X94.093 Y90.383 E61.97610
G1 X107.938 Y104.228 E62.29754
G1 X107.938 Y103.949 E62.30213
G1 X94.232 Y90.243 E62.62033
G1 X94.372 Y90.104 E62.62357
G1 X107.938 Y103.670 E62.93853
