; generated by Slic3r 1.3.0-dev on 2018-07-10 at 14:06:50

; external perimeters extrusion width = 0.40mm (2.57mm^3/s)
; perimeters extrusion width = 0.67mm (7.54mm^3/s)
; infill extrusion width = 0.67mm (7.54mm^3/s)
; solid infill extrusion width = 0.24mm (1.97mm^3/s)
; top infill extrusion width = 0.67mm (3.77mm^3/s)

M190 S70 ; set bed temperature and wait for it to be reached
M104 S245 ; set temperature
G28 ; home all axes

; Filament gcode

M109 S245 ; set temperature and wait for it to be reached
G21 ; set units to millimeters
G90 ; use absolute coordinates
M82 ; use absolute distances for extrusion
G92 E0
M106 S255
G1 Z0.200 F7800.000
G1 E-6.00000 F3600.00000
G92 E0
G1 X67.851 Y79.043 F7800.000
G1 E6.00000 F3600.00000
G1 F1800
G1 X69.612 Y77.565 E6.03959
G1 X71.266 Y76.610 E6.07248
G1 X73.427 Y75.824 E6.11208
G1 X75.563 Y75.452 E6.14940
G1 X119.099 Y69.511 E6.90598
G1 X119.994 Y69.450 E6.92144
G1 X121.922 Y69.450 E6.95464
G1 X123.507 Y69.642 E6.98212
G1 X125.380 Y70.104 E7.01533
G1 X126.872 Y70.670 E7.04282
G1 X128.580 Y71.566 E7.07603
G1 X129.893 Y72.473 E7.10351
G1 X131.337 Y73.752 E7.13672
G1 X132.395 Y74.946 E7.16420
G1 X133.491 Y76.534 E7.19741
G1 X134.233 Y77.946 E7.22489
G1 X134.917 Y79.750 E7.25811
G1 X135.299 Y81.300 E7.28559
G1 X135.531 Y83.215 E7.31880
G1 X135.579 Y84.013 E7.33257
G1 X135.579 Y104.013 E7.67694
G1 X135.531 Y104.811 E7.69071
G1 X135.299 Y106.725 E7.72392
G1 X134.917 Y108.275 E7.75140
G1 X134.233 Y110.079 E7.78462
G1 X133.491 Y111.492 E7.81209
G1 X132.406 Y113.063 E7.84497
G1 X131.337 Y114.274 E7.87278
G1 X129.728 Y115.694 E7.90973
G1 X114.434 Y128.373 E8.25181
G1 X112.473 Y129.498 E8.29074
G1 X110.678 Y130.151 E8.32362
G1 X108.413 Y130.550 E8.36322
G1 X106.503 Y130.550 E8.39611
G1 X104.238 Y130.151 E8.43571
G1 X102.444 Y129.498 E8.46860
G1 X100.452 Y128.348 E8.50819
G1 X98.989 Y127.120 E8.54108
G1 X98.563 Y126.730 E8.55103
G1 X68.241 Y96.408 E9.28940
G1 X67.851 Y95.982 E9.29934
G1 X66.623 Y94.519 E9.33223
G1 X65.473 Y92.527 E9.37183
G1 X64.820 Y90.732 E9.40473
G1 X64.421 Y88.468 E9.44431
G1 X64.421 Y86.558 E9.47721
G1 X64.820 Y84.294 E9.51679
G1 X65.473 Y82.498 E9.54969
G1 X66.623 Y80.507 E9.58928
G1 X67.812 Y79.089 E9.62114
G1 X68.009 Y79.176 F7800.000
G1 F1800
G1 X69.716 Y77.745 E9.65950
G1 X71.370 Y76.790 E9.69239
G1 X73.463 Y76.028 E9.73074
G1 X75.591 Y75.657 E9.76793
G1 X119.127 Y69.716 E10.52451
G1 X119.994 Y69.657 E10.53948
G1 X121.922 Y69.657 E10.57269
G1 X123.457 Y69.843 E10.59931
G1 X125.330 Y70.305 E10.63252
G1 X126.776 Y70.853 E10.65914
G1 X128.484 Y71.749 E10.69235
G1 X129.756 Y72.628 E10.71898
G1 X131.200 Y73.907 E10.75218
G1 X132.225 Y75.064 E10.77881
G1 X133.321 Y76.651 E10.81202
G1 X134.039 Y78.020 E10.83863
G1 X134.723 Y79.824 E10.87185
G1 X135.093 Y81.325 E10.89848
G1 X135.326 Y83.239 E10.93168
G1 X135.372 Y84.013 E10.94502
G1 X135.372 Y104.013 E11.28939
G1 X135.326 Y104.786 E11.30273
G1 X135.093 Y106.700 E11.33594
G1 X134.723 Y108.202 E11.36256
G1 X134.039 Y110.005 E11.39578
G1 X133.321 Y111.374 E11.42240
G1 X132.225 Y112.961 E11.45561
G1 X131.200 Y114.119 E11.48223
G1 X129.596 Y115.535 E11.51906
G1 X114.302 Y128.214 E11.86114
G1 X112.402 Y129.303 E11.89885
G1 X110.607 Y129.956 E11.93174
G1 X108.413 Y130.343 E11.97010
G1 X106.503 Y130.343 E12.00299
G1 X104.309 Y129.956 E12.04134
G1 X102.514 Y129.303 E12.07423
G1 X100.585 Y128.189 E12.11259
G1 X99.122 Y126.961 E12.14548
G1 X98.710 Y126.583 E12.15511
G1 X68.387 Y96.261 E12.89349
G1 X68.009 Y95.849 E12.90312
G1 X66.782 Y94.386 E12.93601
G1 X65.668 Y92.456 E12.97437
G1 X65.014 Y90.661 E13.00727
G1 X64.628 Y88.468 E13.04561
G1 X64.628 Y86.558 E13.07851
G1 X65.014 Y84.364 E13.11685
G1 X65.668 Y82.569 E13.14975
G1 X66.781 Y80.640 E13.18811
G1 X67.971 Y79.222 E13.21996
G1 X68.168 Y79.310 F7800.000
G1 F1800
G1 X69.819 Y77.924 E13.25708
G1 X71.474 Y76.969 E13.28997
G1 X73.499 Y76.232 E13.32709
G1 X75.619 Y75.863 E13.36414
G1 X119.155 Y69.921 E14.12072
G1 X119.994 Y69.864 E14.13520
G1 X121.922 Y69.864 E14.16841
G1 X123.408 Y70.044 E14.19417
G1 X125.280 Y70.506 E14.22738
G1 X126.680 Y71.036 E14.25315
G1 X128.387 Y71.933 E14.28636
G1 X129.619 Y72.783 E14.31212
G1 X131.062 Y74.062 E14.34533
G1 X132.055 Y75.182 E14.37110
G1 X133.150 Y76.769 E14.40430
G1 X133.845 Y78.093 E14.43006
G1 X134.529 Y79.897 E14.46328
G1 X134.888 Y81.350 E14.48904
G1 X135.120 Y83.264 E14.52225
G1 X135.165 Y84.013 E14.53516
G1 X135.165 Y104.013 E14.87953
G1 X135.120 Y104.761 E14.89244
G1 X134.888 Y106.675 E14.92565
G1 X134.529 Y108.128 E14.95141
G1 X133.845 Y109.932 E14.98463
G1 X133.150 Y111.256 E15.01038
G1 X132.066 Y112.828 E15.04326
G1 X131.062 Y113.964 E15.06935
G1 X129.464 Y115.375 E15.10607
G1 X114.170 Y128.054 E15.44815
G1 X112.331 Y129.108 E15.48464
G1 X110.536 Y129.762 E15.51753
G1 X108.413 Y130.136 E15.55465
G1 X106.503 Y130.136 E15.58754
G1 X104.380 Y129.762 E15.62466
G1 X102.585 Y129.108 E15.65755
G1 X100.718 Y128.031 E15.69467
G1 X99.255 Y126.803 E15.72756
G1 X98.856 Y126.437 E15.73688
G1 X68.534 Y96.115 E16.47525
G1 X68.168 Y95.716 E16.48457
G1 X66.940 Y94.252 E16.51746
G1 X65.862 Y92.386 E16.55458
G1 X65.209 Y90.590 E16.58748
G1 X64.835 Y88.468 E16.62459
G1 X64.835 Y86.558 E16.65748
G1 X65.209 Y84.435 E16.69459
G1 X65.862 Y82.640 E16.72749
G1 X66.940 Y80.773 E16.76460
G1 X68.129 Y79.356 E16.79646
G1 E10.79646 F3600.00000
G92 E0
G1 X112.833 Y111.888 F7800.000
G1 E6.00000 F3600.00000
G1 F1080
G1 X112.833 Y118.502 E6.11389
G1 X112.507 Y120.350 E6.14621
G1 X111.574 Y121.966 E6.17834
G1 X110.145 Y123.166 E6.21047
G1 X108.391 Y123.804 E6.24260
G1 X106.525 Y123.804 E6.27473
G1 X104.772 Y123.166 E6.30686
G1 X103.342 Y121.966 E6.33899
G1 X102.409 Y120.350 E6.37112
G1 X102.085 Y118.513 E6.40325
G1 X102.409 Y116.675 E6.43539
G1 X103.342 Y115.059 E6.46752
G1 X104.083 Y114.437 E6.48417
G1 X104.083 Y103.006 E6.68100
G1 X103.819 Y100.492 E6.72453
G1 X103.036 Y98.081 E6.76818
G1 X101.768 Y95.885 E6.81183
G1 X100.072 Y94.002 E6.85548
G1 X98.021 Y92.511 E6.89913
G1 X95.728 Y91.491 E6.94235
G1 X93.226 Y90.953 E6.98642
G1 X92.083 Y90.953 E7.00609
G1 X92.083 Y90.888 E7.00722
G1 X80.534 Y90.888 E7.20609
G1 X79.912 Y91.629 E7.22275
G1 X78.296 Y92.562 E7.25488
G1 X76.458 Y92.886 E7.28701
G1 X74.621 Y92.562 E7.31914
G1 X73.004 Y91.629 E7.35127
G1 X71.817 Y90.214 E7.38307
G1 X71.167 Y88.445 E7.41551
G1 X71.167 Y86.580 E7.44764
G1 X71.805 Y84.826 E7.47977
G1 X73.004 Y83.397 E7.51190
G1 X74.621 Y82.464 E7.54403
G1 X76.469 Y82.138 E7.57636
G1 X113.309 Y82.138 E8.21070
G1 X113.986 Y80.353 E8.24356
G1 X115.064 Y78.791 E8.27624
G1 X116.485 Y77.532 E8.30893
G1 X118.166 Y76.650 E8.34161
G1 X120.009 Y76.196 E8.37430
G1 X121.926 Y76.201 E8.40730
G1 X123.750 Y76.650 E8.43966
G1 X125.431 Y77.532 E8.47234
G1 X126.852 Y78.791 E8.50503
G1 X127.930 Y80.353 E8.53771
G1 X128.603 Y82.128 E8.57040
G1 X128.833 Y84.020 E8.60322
G1 X128.833 Y104.005 E8.94733
G1 X128.603 Y105.897 E8.98015
G1 X127.930 Y107.672 E9.01283
G1 X126.852 Y109.234 E9.04552
G1 X125.431 Y110.493 E9.07820
G1 X123.750 Y111.375 E9.11089
G1 X121.907 Y111.829 E9.14357
G1 X120.833 Y111.829 E9.16207
G1 X120.833 Y111.888 E9.16307
G1 X112.893 Y111.888 E9.29979
G1 X112.433 Y111.889 F7800.000
G1 X112.626 Y111.681 F7800.000
G1 F1800
G1 X112.626 Y118.484 E9.41693
G1 X112.310 Y120.278 E9.44831
G1 X111.413 Y121.831 E9.47918
G1 X110.040 Y122.984 E9.51006
G1 X108.355 Y123.597 E9.54093
G1 X106.562 Y123.597 E9.57180
G1 X104.877 Y122.984 E9.60268
G1 X103.503 Y121.831 E9.63355
G1 X102.607 Y120.278 E9.66442
G1 X102.295 Y118.513 E9.69530
G1 X102.607 Y116.747 E9.72617
G1 X103.503 Y115.194 E9.75704
G1 X104.290 Y114.534 E9.77473
G1 X104.290 Y102.995 E9.97341
G1 X104.023 Y100.448 E10.01751
G1 X103.226 Y97.996 E10.06191
G1 X101.937 Y95.763 E10.10630
G1 X100.211 Y93.847 E10.15070
G1 X98.125 Y92.331 E10.19510
G1 X95.793 Y91.293 E10.23906
G1 X93.248 Y90.746 E10.28388
G1 X92.290 Y90.746 E10.30037
G1 X92.290 Y90.681 E10.30150
G1 X80.437 Y90.681 E10.50560
G1 X79.777 Y91.468 E10.52329
G1 X78.224 Y92.364 E10.55416
G1 X76.458 Y92.675 E10.58503
G1 X74.692 Y92.364 E10.61591
G1 X73.140 Y91.468 E10.64678
G1 X71.999 Y90.108 E10.67733
G1 X71.374 Y88.409 E10.70852
G1 X71.374 Y86.616 E10.73938
G1 X71.987 Y84.931 E10.77025
G1 X73.140 Y83.558 E10.80113
G1 X74.692 Y82.661 E10.83200
G1 X76.487 Y82.345 E10.86338
G1 X113.452 Y82.345 E11.49987
G1 X114.171 Y80.450 E11.53476
G1 X115.220 Y78.929 E11.56658
G1 X116.604 Y77.704 E11.59840
G1 X118.240 Y76.845 E11.63022
G1 X120.034 Y76.403 E11.66203
G1 X121.901 Y76.408 E11.69417
G1 X123.676 Y76.845 E11.72567
G1 X125.313 Y77.704 E11.75749
G1 X126.696 Y78.929 E11.78930
G1 X127.746 Y80.450 E11.82112
G1 X128.401 Y82.178 E11.85294
G1 X128.626 Y84.033 E11.88511
G1 X128.626 Y103.993 E12.22879
G1 X128.401 Y105.847 E12.26096
G1 X127.746 Y107.575 E12.29278
G1 X126.696 Y109.096 E12.32460
G1 X125.313 Y110.321 E12.35642
G1 X123.676 Y111.180 E12.38824
G1 X121.882 Y111.622 E12.42006
G1 X120.626 Y111.622 E12.44169
G1 X120.626 Y111.681 E12.44269
G1 X112.686 Y111.681 E12.57941
G1 E6.57941 F3600.00000
G92 E0
G1 X77.380 Y89.110 F7800.000
G1 E6.00000 F3600.00000
G1 F1200
G1 X75.536 Y89.110 E6.03176
G1 X74.614 Y87.513 E6.06351
G1 X75.536 Y85.915 E6.09527
G1 X77.380 Y85.915 E6.12703
G1 X78.303 Y87.513 E6.15878
G1 X77.410 Y89.058 E6.18951
G1 X77.380 Y89.510 F7800.000
G1 X77.500 Y89.317 F7800.000
G1 F1200
G1 X75.416 Y89.317 E6.22538
G1 X74.375 Y87.513 E6.26126
G1 X75.416 Y85.708 E6.29713
G1 X77.500 Y85.708 E6.33300
G1 X78.542 Y87.513 E6.36888
G1 X77.530 Y89.265 E6.40372
G1 E0.40372 F3600.00000
G92 E0
G1 X116.330 Y84.013 F7800.000
G1 E6.00000 F3600.00000
G1 F1200
G1 X116.731 Y82.130 E6.03313
G1 X117.862 Y80.573 E6.06627
G1 X119.547 Y79.609 E6.09970
G1 X121.442 Y79.410 E6.13251
G1 X123.272 Y80.005 E6.16565
G1 X124.702 Y81.292 E6.19878
G1 X125.485 Y83.050 E6.23192
G1 X125.485 Y84.975 E6.26505
G1 X124.702 Y86.733 E6.29818
G1 X123.272 Y88.020 E6.33132
G1 X121.442 Y88.615 E6.36445
G1 X119.528 Y88.414 E6.39759
G1 X117.862 Y87.452 E6.43072
G1 X116.731 Y85.895 E6.46386
G1 X116.343 Y84.071 E6.49596
G1 X116.330 Y84.013 F7800.000
G1 X116.128 Y83.970 F7800.000
G1 F1200
G1 X116.537 Y82.044 E6.52985
G1 X117.720 Y80.416 E6.56452
G1 X119.482 Y79.408 E6.59946
G1 X121.464 Y79.200 E6.63378
G1 X123.378 Y79.822 E6.66843
G1 X124.873 Y81.168 E6.70308
G1 X125.692 Y83.006 E6.73773
G1 X125.692 Y85.019 E6.77238
G1 X124.873 Y86.857 E6.80703
G1 X123.378 Y88.204 E6.84168
G1 X121.464 Y88.826 E6.87633
G1 X119.463 Y88.615 E6.91098
G1 X117.720 Y87.609 E6.94563
G1 X116.537 Y85.981 E6.98028
G1 X116.122 Y84.028 E7.01466
G1 E1.01466 F3600.00000
G92 E0
G1 X109.303 Y87.513 F7800.000
G1 E6.00000 F3600.00000
G1 F1200
G1 X108.380 Y89.110 E6.03176
G1 X106.536 Y89.110 E6.06351
G1 X105.614 Y87.513 E6.09527
G1 X106.536 Y85.915 E6.12703
G1 X108.380 Y85.915 E6.15878
G1 X109.273 Y87.461 E6.18951
G1 X109.609 Y87.770 F7800.000
G1 X109.542 Y87.513 F7800.000
G1 F1200
G1 X108.500 Y89.317 E6.22538
G1 X106.416 Y89.317 E6.26126
G1 X105.375 Y87.513 E6.29713
G1 X106.416 Y85.708 E6.33300
G1 X108.500 Y85.708 E6.36888
G1 X109.512 Y87.461 E6.40372
G1 E0.40372 F3600.00000
G92 E0
G1 X117.862 Y100.573 F7800.000
G1 E6.00000 F3600.00000
G1 F1200
G1 X119.547 Y99.609 E6.03343
G1 X121.442 Y99.410 E6.06624
G1 X123.272 Y100.005 E6.09937
G1 X124.702 Y101.293 E6.13251
G1 X125.485 Y103.050 E6.16564
G1 X125.485 Y104.975 E6.19878
G1 X124.702 Y106.733 E6.23191
G1 X123.272 Y108.020 E6.26505
G1 X121.442 Y108.615 E6.29818
G1 X119.528 Y108.414 E6.33131
G1 X117.862 Y107.452 E6.36445
G1 X116.731 Y105.895 E6.39758
G1 X116.330 Y104.013 E6.43072
G1 X116.731 Y102.130 E6.46385
G1 X117.826 Y100.622 E6.49596
G1 X117.862 Y100.573 F7800.000
G1 X117.759 Y100.393 F7800.000
G1 F1200
G1 X119.482 Y99.408 E6.53014
G1 X121.464 Y99.200 E6.56446
G1 X123.378 Y99.822 E6.59911
G1 X124.873 Y101.168 E6.63376
G1 X125.692 Y103.006 E6.66841
G1 X125.692 Y105.019 E6.70306
G1 X124.873 Y106.857 E6.73771
G1 X123.378 Y108.204 E6.77236
G1 X121.464 Y108.826 E6.80701
G1 X119.463 Y108.615 E6.84166
G1 X117.720 Y107.609 E6.87631
G1 X116.537 Y105.981 E6.91096
G1 X116.119 Y104.013 E6.94561
G1 X116.537 Y102.044 E6.98026
G1 X117.711 Y100.428 E7.01466
G1 E1.01466 F3600.00000
G92 E0
G1 X106.536 Y116.915 F7800.000
G1 E6.00000 F3600.00000
G1 F1200
G1 X108.383 Y116.920 E6.03180
G1 X109.303 Y118.513 E6.06347
G1 X108.380 Y120.110 E6.09522
G1 X106.536 Y120.110 E6.12698
G1 X105.614 Y118.513 E6.15874
G1 X106.506 Y116.967 E6.18946
G1 X106.537 Y116.515 F7800.000
G1 X106.417 Y116.708 F7800.000
G1 F1200
G1 X108.503 Y116.713 E6.22538
G1 X109.542 Y118.513 E6.26116
G1 X108.500 Y120.317 E6.29703
G1 X106.416 Y120.317 E6.33290
G1 X105.375 Y118.513 E6.36878
G1 X106.387 Y116.760 E6.40363
G1 X106.178 Y116.723 F7800.000
G1 F1500
G1 X105.778 Y117.417 E6.41741
G1 X102.850 Y120.345 E6.48873
G1 X102.957 Y120.530 E6.49243
G1 X105.378 Y118.110 E6.55139
G1 X105.158 Y118.491 E6.55897
G1 X105.206 Y118.574 E6.56063
G1 X103.064 Y120.716 E6.61280
G1 X103.171 Y120.902 E6.61649
G1 X105.313 Y118.760 E6.66866
G1 X105.420 Y118.946 E6.67236
G1 X103.278 Y121.088 E6.72453
G1 X103.386 Y121.273 E6.72822
G1 X105.528 Y119.131 E6.78039
G1 X105.635 Y119.317 E6.78408
G1 X103.493 Y121.459 E6.83625
G1 X103.600 Y121.645 E6.83994
G1 X105.742 Y119.503 E6.89211
G1 X105.849 Y119.689 E6.89581
G1 X103.739 Y121.799 E6.94721
G1 X103.898 Y121.933 E6.95079
G1 X105.956 Y119.874 E7.00092
G1 X106.064 Y120.060 E7.00462
G1 X104.057 Y122.066 E7.05348
G1 X104.217 Y122.200 E7.05706
G1 X106.171 Y120.246 E7.10466
G1 X106.278 Y120.431 E7.10836
G1 X104.376 Y122.334 E7.15469
G1 X104.535 Y122.467 E7.15827
G1 X106.500 Y120.502 E7.20613
G1 X106.793 Y120.502 E7.21118
G1 X104.694 Y122.601 E7.26230
G1 X104.854 Y122.734 E7.26588
G1 X107.086 Y120.502 E7.32025
G1 X107.379 Y120.502 E7.32530
G1 X105.031 Y122.850 E7.38248
G1 X105.246 Y122.928 E7.38641
G1 X107.672 Y120.502 E7.44550
G1 X107.965 Y120.502 E7.45054
G1 X105.461 Y123.006 E7.51153
G1 X105.676 Y123.084 E7.51547
G1 X108.258 Y120.502 E7.57836
G1 X108.551 Y120.502 E7.58340
G1 X105.891 Y123.162 E7.64820
G1 E1.64820 F3600.00000
G92 E0
G1 X110.688 Y122.173 F7800.000
G1 E6.00000 F3600.00000
G1 F1500
G1 X111.393 Y121.468 E6.01719
G1 X111.793 Y120.774 E6.03097
G1 X109.648 Y122.920 E6.08323
G1 X109.187 Y123.087 E6.09167
G1 X112.143 Y120.132 E6.16366
G1 X112.206 Y119.776 E6.16988
G1 X108.727 Y123.255 E6.25462
G1 X108.277 Y123.412 E6.26282
G1 X112.269 Y119.420 E6.36004
G1 X112.331 Y119.065 E6.36626
G1 X107.984 Y123.412 E6.47215
G1 X107.691 Y123.412 E6.47719
G1 X112.394 Y118.709 E6.59173
G1 X112.441 Y118.369 E6.59764
G1 X107.398 Y123.412 E6.72046
G1 X107.106 Y123.412 E6.72551
G1 X112.441 Y118.076 E6.85546
G1 X112.441 Y117.783 E6.86050
G1 X106.813 Y123.412 E6.99759
G1 X106.576 Y123.412 E7.00167
G1 X106.535 Y123.397 E7.00242
G1 X112.441 Y117.491 E7.14628
G1 X112.441 Y117.198 E7.15133
G1 X106.320 Y123.319 E7.30041
G1 X106.105 Y123.240 E7.30435
G1 X112.441 Y116.905 E7.45867
G1 X112.441 Y116.612 E7.46371
G1 X108.721 Y120.331 E7.55431
G1 X109.121 Y119.638 E7.56809
G1 X112.441 Y116.319 E7.64895
G1 X112.441 Y116.026 E7.65399
G1 X109.522 Y118.945 E7.72510
G1 X109.759 Y118.535 E7.73327
G1 X109.715 Y118.459 E7.73477
G1 X112.441 Y115.733 E7.80117
G1 X112.441 Y115.440 E7.80621
G1 X109.608 Y118.273 E7.87522
G1 X109.501 Y118.088 E7.87891
G1 X112.441 Y115.147 E7.95053
G1 X112.441 Y114.854 E7.95557
G1 X109.393 Y117.902 E8.02980
G1 X109.286 Y117.716 E8.03349
G1 X112.441 Y114.561 E8.11033
G1 X112.441 Y114.268 E8.11538
G1 X109.179 Y117.530 E8.19483
G1 X109.072 Y117.345 E8.19852
G1 X112.441 Y113.975 E8.28059
G1 X112.441 Y113.683 E8.28563
G1 X108.965 Y117.159 E8.37031
G1 X108.857 Y116.973 E8.37400
G1 X112.441 Y113.390 E8.46129
G1 X112.441 Y113.097 E8.46633
G1 X108.750 Y116.788 E8.55623
G1 X108.643 Y116.602 E8.55992
G1 X112.441 Y112.804 E8.65243
G1 X112.441 Y112.511 E8.65748
G1 X108.424 Y116.528 E8.75532
G1 X108.132 Y116.527 E8.76036
G1 X112.441 Y112.218 E8.86532
G1 X112.441 Y111.925 E8.87036
G1 X107.839 Y116.527 E8.98244
G1 X107.547 Y116.526 E8.98747
G1 E2.98747 F3600.00000
G92 E0
G1 X104.475 Y107.295 F7800.000
G1 E6.00000 F3600.00000
G1 F1500
G1 X123.357 Y88.413 E6.45989
G1 X122.923 Y88.554 E6.46775
