; generated by Slic3r 1.3.0-dev on 2018-06-22 at 14:49:23

; external perimeters extrusion width = 0.40mm (2.57mm^3/s)
; perimeters extrusion width = 0.67mm (7.54mm^3/s)
; infill extrusion width = 0.67mm (7.54mm^3/s)
; solid infill extrusion width = 0.24mm (1.97mm^3/s)
; top infill extrusion width = 0.67mm (3.77mm^3/s)

M190 S70 ; set bed temperature and wait for it to be reached
M104 S245 ; set temperature
G28 ; home all axes

; Filament gcode

M109 S245 ; set temperature and wait for it to be reached
G21 ; set units to millimeters
G90 ; use absolute coordinates
M82 ; use absolute distances for extrusion
G92 E0
M106 S255
G1 Z0.200 F7800.000
G1 E-6.00000 F3600.00000
G92 E0
G1 X76.800 Y87.267 F7800.000
G1 E6.00000 F3600.00000
G1 F1800
G1 X78.470 Y85.840 E6.03782
G1 X79.311 Y85.229 E6.05573
G1 X81.184 Y84.081 E6.09356
G1 X82.039 Y83.639 E6.11013
G1 X95.425 Y77.922 E6.36076
G1 X96.352 Y77.619 E6.37756
G1 X97.055 Y77.445 E6.39003
G1 X97.993 Y77.283 E6.40641
G1 X98.711 Y77.212 E6.41884
G1 X99.671 Y77.186 E6.43538
G1 X100.400 Y77.219 E6.44795
G1 X101.347 Y77.330 E6.46436
G1 X102.063 Y77.467 E6.47691
G1 X102.995 Y77.718 E6.49353
G1 X103.675 Y77.955 E6.50593
G1 X104.576 Y78.346 E6.52283
G1 X105.206 Y78.677 E6.53509
G1 X105.843 Y79.059 E6.54789
G1 X126.717 Y93.221 E6.98223
G1 X128.363 Y94.817 E7.02171
G1 X129.366 Y96.879 E7.06119
G1 X129.621 Y98.700 E7.09285
G1 X129.621 Y105.700 E7.21338
G1 X129.224 Y107.958 E7.25286
G1 X128.081 Y109.946 E7.29234
G1 X126.328 Y111.424 E7.33182
G1 X125.213 Y111.940 E7.35298
G1 X97.539 Y121.755 E7.85857
G1 X96.872 Y121.953 E7.87055
G1 X94.736 Y122.466 E7.90837
G1 X93.708 Y122.629 E7.92629
G1 X91.518 Y122.801 E7.96412
G1 X90.482 Y122.801 E7.98197
G1 X88.292 Y122.629 E8.01980
G1 X87.264 Y122.466 E8.03771
G1 X85.128 Y121.953 E8.07554
G1 X84.140 Y121.632 E8.09343
G1 X82.110 Y120.791 E8.13126
G1 X81.184 Y120.319 E8.14916
G1 X79.311 Y119.171 E8.18698
G1 X78.470 Y118.560 E8.20489
G1 X76.800 Y117.133 E8.24271
G1 X76.067 Y116.400 E8.26055
G1 X74.640 Y114.730 E8.29837
G1 X74.029 Y113.889 E8.31628
G1 X72.881 Y112.016 E8.35411
G1 X72.409 Y111.090 E8.37199
G1 X71.568 Y109.060 E8.40983
G1 X71.247 Y108.072 E8.42772
G1 X70.734 Y105.936 E8.46555
G1 X70.571 Y104.909 E8.48346
G1 X70.399 Y102.718 E8.52129
G1 X70.399 Y101.682 E8.53914
G1 X70.571 Y99.492 E8.57697
G1 X70.734 Y98.464 E8.59489
G1 X71.247 Y96.328 E8.63271
G1 X71.568 Y95.340 E8.65059
G1 X72.409 Y93.310 E8.68843
G1 X72.881 Y92.384 E8.70633
G1 X74.029 Y90.511 E8.74415
G1 X74.640 Y89.670 E8.76206
G1 X76.067 Y88.000 E8.79988
G1 X76.757 Y87.310 E8.81669
G1 X76.934 Y87.425 F7800.000
G1 F1800
G1 X78.604 Y85.998 E8.85451
G1 X79.419 Y85.405 E8.87186
G1 X81.292 Y84.257 E8.90968
G1 X82.120 Y83.829 E8.92574
G1 X95.504 Y78.114 E9.17632
G1 X96.402 Y77.820 E9.19259
G1 X97.105 Y77.646 E9.20506
G1 X98.013 Y77.489 E9.22093
G1 X98.732 Y77.418 E9.23336
G1 X99.662 Y77.392 E9.24939
G1 X100.391 Y77.425 E9.26195
G1 X101.308 Y77.533 E9.27785
G1 X102.024 Y77.671 E9.29040
G1 X102.927 Y77.913 E9.30650
G1 X103.607 Y78.150 E9.31890
G1 X104.479 Y78.529 E9.33528
G1 X105.110 Y78.860 E9.34754
G1 X105.727 Y79.230 E9.35993
G1 X126.601 Y93.392 E9.79427
G1 X128.216 Y94.968 E9.83312
G1 X129.186 Y97.005 E9.87198
G1 X129.414 Y98.700 E9.90143
G1 X129.414 Y105.700 E10.02196
G1 X129.017 Y107.921 E10.06081
G1 X127.876 Y109.868 E10.09966
G1 X125.144 Y111.745 E10.15674
G1 X97.470 Y121.560 E10.66233
G1 X96.824 Y121.752 E10.67394
G1 X94.688 Y122.265 E10.71176
G1 X93.692 Y122.422 E10.72912
G1 X91.502 Y122.594 E10.76694
G1 X90.498 Y122.594 E10.78424
G1 X88.308 Y122.422 E10.82206
G1 X87.312 Y122.265 E10.83942
G1 X85.176 Y121.752 E10.87725
G1 X84.219 Y121.441 E10.89457
G1 X82.189 Y120.600 E10.93241
G1 X81.292 Y120.143 E10.94974
G1 X79.419 Y118.995 E10.98757
G1 X78.604 Y118.402 E11.00492
G1 X76.934 Y116.975 E11.04274
G1 X76.225 Y116.266 E11.06002
G1 X74.798 Y114.596 E11.09784
G1 X74.205 Y113.781 E11.11519
G1 X73.057 Y111.908 E11.15302
G1 X72.600 Y111.011 E11.17034
G1 X71.759 Y108.981 E11.20818
G1 X71.448 Y108.024 E11.22551
G1 X70.935 Y105.888 E11.26334
G1 X70.778 Y104.893 E11.28069
G1 X70.606 Y102.702 E11.31852
G1 X70.606 Y101.698 E11.33582
G1 X70.778 Y99.508 E11.37364
G1 X70.935 Y98.512 E11.39100
G1 X71.448 Y96.376 E11.42882
G1 X71.759 Y95.419 E11.44615
G1 X72.600 Y93.389 E11.48399
G1 X73.057 Y92.492 E11.50132
G1 X74.205 Y90.619 E11.53915
G1 X74.798 Y89.804 E11.55649
G1 X76.225 Y88.134 E11.59432
G1 X76.892 Y87.467 E11.61056
G1 X77.069 Y87.582 F7800.000
G1 F1800
G1 X78.739 Y86.155 E11.64839
G1 X79.527 Y85.582 E11.66517
G1 X81.400 Y84.434 E11.70300
G1 X82.202 Y84.019 E11.71854
G1 X95.583 Y78.305 E11.96907
G1 X96.452 Y78.021 E11.98481
G1 X97.155 Y77.847 E11.99728
G1 X98.033 Y77.695 E12.01263
G1 X98.752 Y77.624 E12.02507
G1 X99.653 Y77.599 E12.04058
G1 X100.382 Y77.632 E12.05315
G1 X101.269 Y77.737 E12.06853
G1 X101.985 Y77.874 E12.08108
G1 X102.859 Y78.109 E12.09667
G1 X103.539 Y78.346 E12.10906
G1 X104.383 Y78.712 E12.12491
G1 X105.013 Y79.043 E12.13717
G1 X105.611 Y79.402 E12.14917
G1 X126.485 Y93.564 E12.58350
G1 X128.069 Y95.118 E12.62172
G1 X129.005 Y97.130 E12.65993
G1 X129.207 Y98.700 E12.68719
G1 X129.207 Y105.700 E12.80772
G1 X128.810 Y107.884 E12.84593
G1 X127.671 Y109.788 E12.88415
G1 X125.075 Y111.550 E12.93817
G1 X97.401 Y121.365 E13.44377
G1 X96.776 Y121.550 E13.45500
G1 X94.640 Y122.063 E13.49282
G1 X93.676 Y122.216 E13.50962
G1 X91.486 Y122.388 E13.54744
G1 X90.514 Y122.388 E13.56418
G1 X88.324 Y122.216 E13.60200
G1 X87.360 Y122.063 E13.61880
G1 X85.224 Y121.550 E13.65663
G1 X84.298 Y121.249 E13.67340
G1 X82.268 Y120.408 E13.71123
G1 X81.400 Y119.966 E13.72800
G1 X79.527 Y118.818 E13.76583
G1 X78.739 Y118.245 E13.78262
G1 X77.069 Y116.818 E13.82044
G1 X76.382 Y116.131 E13.83716
G1 X74.955 Y114.461 E13.87499
G1 X74.382 Y113.673 E13.89177
G1 X73.234 Y111.800 E13.92960
G1 X72.792 Y110.932 E13.94637
G1 X71.951 Y108.902 E13.98421
G1 X71.650 Y107.976 E14.00097
G1 X71.137 Y105.840 E14.03880
G1 X70.984 Y104.876 E14.05559
G1 X70.812 Y102.686 E14.09342
G1 X70.812 Y101.714 E14.11016
G1 X70.984 Y99.524 E14.14799
G1 X71.137 Y98.561 E14.16478
G1 X71.650 Y96.424 E14.20261
G1 X71.950 Y95.499 E14.21937
G1 X72.792 Y93.468 E14.25721
G1 X73.234 Y92.600 E14.27399
G1 X74.382 Y90.727 E14.31181
G1 X74.955 Y89.939 E14.32860
G1 X76.382 Y88.269 E14.36642
G1 X77.026 Y87.624 E14.38211
G1 E8.38211 F3600.00000
G92 E0
G1 X94.608 Y88.841 F7800.000
G1 E6.00000 F3600.00000
G1 F1080
G1 X95.213 Y86.880 E6.03533
G1 X95.451 Y86.278 E6.04648
G1 X95.791 Y85.721 E6.05772
G1 X96.226 Y85.219 E6.06915
G1 X96.745 Y84.786 E6.08079
G1 X97.335 Y84.431 E6.09265
G1 X97.982 Y84.165 E6.10469
G1 X98.667 Y83.996 E6.11685
G1 X99.383 Y83.926 E6.12922
G1 X100.086 Y83.957 E6.14135
G1 X100.783 Y84.091 E6.15358
G1 X101.446 Y84.322 E6.16566
G1 X102.059 Y84.644 E6.17759
G1 X102.607 Y85.049 E6.18931
G1 X103.073 Y85.528 E6.20082
G1 X103.450 Y86.065 E6.21211
G1 X103.727 Y86.652 E6.22328
G1 X106.179 Y94.585 E6.36627
G1 X107.971 Y95.323 E6.39963
G1 X109.075 Y95.410 E6.41871
G1 X110.124 Y95.662 E6.43729
G1 X111.121 Y96.075 E6.45586
G1 X112.040 Y96.638 E6.47443
G1 X112.861 Y97.339 E6.49301
G1 X113.562 Y98.160 E6.51159
G1 X113.970 Y98.825 E6.52503
G1 X122.875 Y98.825 E6.67837
G1 X122.875 Y101.572 E6.72567
G1 X112.081 Y101.572 E6.91152
G1 X111.926 Y100.924 E6.92299
G1 X111.678 Y100.326 E6.93415
G1 X111.339 Y99.773 E6.94530
G1 X110.919 Y99.281 E6.95645
G1 X110.427 Y98.861 E6.96760
G1 X109.874 Y98.522 E6.97876
G1 X109.276 Y98.274 E6.98991
G1 X108.646 Y98.123 E7.00107
G1 X108.000 Y98.072 E7.01222
G1 X107.354 Y98.123 E7.02337
G1 X106.724 Y98.274 E7.03453
G1 X106.126 Y98.522 E7.04568
G1 X105.573 Y98.861 E7.05684
G1 X105.081 Y99.281 E7.06799
G1 X104.661 Y99.773 E7.07913
G1 X104.168 Y100.579 E7.09539
G1 X104.217 Y100.579 E7.09624
G1 X104.074 Y100.924 E7.10269
G1 X103.923 Y101.554 E7.11384
G1 X103.873 Y102.200 E7.12499
G1 X103.923 Y102.846 E7.13614
G1 X104.074 Y103.476 E7.14730
G1 X104.217 Y103.821 E7.15375
G1 X104.168 Y103.821 E7.15460
G1 X104.661 Y104.627 E7.17086
G1 X105.081 Y105.119 E7.18200
G1 X105.573 Y105.539 E7.19315
G1 X106.126 Y105.878 E7.20431
G1 X106.724 Y106.126 E7.21546
G1 X107.354 Y106.277 E7.22662
G1 X108.000 Y106.327 E7.23777
G1 X108.646 Y106.277 E7.24892
G1 X109.276 Y106.126 E7.26007
G1 X109.874 Y105.878 E7.27123
G1 X110.427 Y105.539 E7.28239
G1 X110.919 Y105.119 E7.29353
G1 X111.339 Y104.627 E7.30468
G1 X111.678 Y104.074 E7.31584
G1 X111.926 Y103.476 E7.32699
G1 X112.081 Y102.827 E7.33848
G1 X122.875 Y102.827 E7.52433
G1 X122.875 Y105.575 E7.57165
G1 X113.970 Y105.575 E7.72498
G1 X113.562 Y106.240 E7.73842
G1 X112.861 Y107.061 E7.75700
G1 X112.040 Y107.762 E7.77558
G1 X111.121 Y108.325 E7.79415
G1 X110.124 Y108.738 E7.81273
G1 X109.075 Y108.990 E7.83130
G1 X107.971 Y109.077 E7.85038
G1 X100.777 Y112.039 E7.98434
G1 X99.155 Y113.425 E8.02107
G1 X97.299 Y114.562 E8.05855
G1 X95.287 Y115.396 E8.09605
G1 X93.170 Y115.904 E8.13354
G1 X91.000 Y116.075 E8.17102
G1 X88.830 Y115.904 E8.20851
G1 X86.713 Y115.396 E8.24600
G1 X84.701 Y114.562 E8.28349
G1 X82.845 Y113.425 E8.32098
G1 X81.190 Y112.010 E8.35846
G1 X79.775 Y110.355 E8.39595
G1 X78.638 Y108.499 E8.43344
G1 X77.804 Y106.487 E8.47093
G1 X77.296 Y104.370 E8.50842
G1 X77.125 Y102.200 E8.54591
G1 X77.296 Y100.030 E8.58339
G1 X77.804 Y97.913 E8.62088
G1 X78.638 Y95.901 E8.65837
G1 X79.775 Y94.045 E8.69586
G1 X81.190 Y92.390 E8.73335
G1 X82.845 Y90.975 E8.77083
G1 X84.701 Y89.838 E8.80832
G1 X86.713 Y89.004 E8.84582
G1 X88.830 Y88.496 E8.88330
G1 X91.000 Y88.325 E8.92079
G1 X93.170 Y88.496 E8.95827
G1 X94.550 Y88.827 E8.98270
G1 X94.996 Y88.939 F7800.000
G1 X94.748 Y89.088 F7800.000
G1 F1800
G1 X95.409 Y86.949 E9.02123
G1 X95.637 Y86.371 E9.03194
G1 X95.959 Y85.844 E9.04258
G1 X96.371 Y85.368 E9.05342
G1 X96.865 Y84.955 E9.06450
G1 X97.429 Y84.617 E9.07582
G1 X98.047 Y84.362 E9.08732
G1 X98.702 Y84.200 E9.09895
G1 X99.388 Y84.133 E9.11082
G1 X100.062 Y84.164 E9.12243
G1 X100.730 Y84.292 E9.13414
G1 X101.363 Y84.512 E9.14569
G1 X101.949 Y84.820 E9.15708
G1 X102.470 Y85.206 E9.16825
G1 X102.913 Y85.661 E9.17918
G1 X103.270 Y86.169 E9.18988
G1 X103.534 Y86.729 E9.20054
G1 X106.010 Y94.739 E9.34490
G1 X107.922 Y95.527 E9.38051
G1 X109.043 Y95.615 E9.39987
G1 X110.060 Y95.860 E9.41789
G1 X111.027 Y96.260 E9.43590
G1 X111.918 Y96.807 E9.45391
G1 X112.714 Y97.486 E9.47193
G1 X113.394 Y98.282 E9.48995
G1 X113.854 Y99.032 E9.50510
G1 X122.668 Y99.032 E9.65687
G1 X122.668 Y101.365 E9.69703
G1 X112.244 Y101.365 E9.87651
G1 X112.124 Y100.860 E9.88545
G1 X111.863 Y100.232 E9.89717
G1 X111.507 Y99.651 E9.90889
G1 X111.066 Y99.134 E9.92059
G1 X110.549 Y98.693 E9.93230
G1 X109.968 Y98.337 E9.94402
G1 X109.340 Y98.076 E9.95574
G1 X108.678 Y97.918 E9.96745
G1 X108.000 Y97.864 E9.97917
G1 X107.322 Y97.918 E9.99088
G1 X106.660 Y98.076 E10.00260
G1 X106.032 Y98.337 E10.01431
G1 X105.451 Y98.693 E10.02603
G1 X104.934 Y99.134 E10.03774
G1 X104.493 Y99.651 E10.04945
G1 X103.798 Y100.786 E10.07235
G1 X103.894 Y100.786 E10.07400
G1 X103.718 Y101.522 E10.08704
G1 X103.665 Y102.200 E10.09874
G1 X103.718 Y102.878 E10.11045
G1 X103.894 Y103.614 E10.12349
G1 X103.798 Y103.614 E10.12514
G1 X104.493 Y104.749 E10.14804
G1 X104.934 Y105.266 E10.15975
G1 X105.451 Y105.707 E10.17145
G1 X106.032 Y106.063 E10.18317
G1 X106.660 Y106.324 E10.19489
G1 X107.322 Y106.482 E10.20661
G1 X108.000 Y106.535 E10.21832
G1 X108.678 Y106.482 E10.23003
G1 X109.340 Y106.324 E10.24175
G1 X109.968 Y106.063 E10.25346
G1 X110.549 Y105.707 E10.26518
G1 X111.066 Y105.266 E10.27689
G1 X111.507 Y104.749 E10.28860
G1 X111.863 Y104.168 E10.30032
G1 X112.124 Y103.540 E10.31203
G1 X112.245 Y103.034 E10.32099
G1 X122.668 Y103.034 E10.50046
G1 X122.668 Y105.368 E10.54065
G1 X113.854 Y105.368 E10.69241
G1 X113.394 Y106.118 E10.70757
G1 X112.714 Y106.914 E10.72559
G1 X111.918 Y107.593 E10.74361
G1 X111.027 Y108.140 E10.76161
G1 X110.060 Y108.540 E10.77963
G1 X109.043 Y108.785 E10.79764
G1 X107.922 Y108.873 E10.81700
G1 X100.668 Y111.860 E10.95209
G1 X99.033 Y113.257 E10.98910
G1 X97.205 Y114.377 E11.02603
G1 X95.223 Y115.198 E11.06297
G1 X93.138 Y115.699 E11.09989
G1 X91.000 Y115.867 E11.13682
G1 X88.862 Y115.699 E11.17374
G1 X86.777 Y115.198 E11.21066
G1 X84.795 Y114.377 E11.24760
G1 X82.967 Y113.257 E11.28453
G1 X81.337 Y111.863 E11.32145
G1 X79.943 Y110.233 E11.35837
G1 X78.823 Y108.405 E11.39530
G1 X78.002 Y106.423 E11.43224
G1 X77.501 Y104.338 E11.46916
G1 X77.333 Y102.200 E11.50609
G1 X77.501 Y100.062 E11.54301
G1 X78.002 Y97.977 E11.57993
G1 X78.823 Y95.995 E11.61687
G1 X79.943 Y94.167 E11.65380
G1 X81.337 Y92.537 E11.69072
G1 X82.967 Y91.143 E11.72764
G1 X84.795 Y90.023 E11.76457
G1 X86.777 Y89.202 E11.80151
G1 X88.862 Y88.701 E11.83843
G1 X91.000 Y88.533 E11.87536
G1 X93.138 Y88.701 E11.91228
G1 X94.690 Y89.074 E11.93977
G1 E5.93977 F3600.00000
G92 E0
G1 X98.141 Y87.941 F7800.000
G1 E6.00000 F3600.00000
G1 F1200
G1 X98.070 Y87.500 E6.00769
G1 X98.141 Y87.059 E6.01538
G1 X98.344 Y86.660 E6.02309
G1 X98.660 Y86.344 E6.03079
G1 X99.059 Y86.141 E6.03850
G1 X99.500 Y86.070 E6.04619
G1 X99.941 Y86.141 E6.05388
G1 X100.340 Y86.344 E6.06159
G1 X100.656 Y86.660 E6.06929
G1 X100.859 Y87.059 E6.07701
G1 X100.929 Y87.500 E6.08469
G1 X100.859 Y87.941 E6.09238
G1 X100.656 Y88.340 E6.10009
G1 X100.340 Y88.656 E6.10779
G1 X99.941 Y88.859 E6.11550
G1 X99.500 Y88.929 E6.12319
G1 X99.059 Y88.859 E6.13087
G1 X98.660 Y88.656 E6.13859
G1 X98.344 Y88.340 E6.14628
G1 X98.168 Y87.995 E6.15296
G1 X98.141 Y87.941 F7800.000
G1 X97.956 Y88.035 F7800.000
G1 F1200
G1 X97.861 Y87.500 E6.16232
G1 X97.941 Y86.994 E6.17114
G1 X98.174 Y86.536 E6.17998
G1 X98.537 Y86.174 E6.18881
G1 X98.994 Y85.941 E6.19765
G1 X99.500 Y85.861 E6.20647
G1 X100.006 Y85.941 E6.21529
G1 X100.463 Y86.174 E6.22413
G1 X100.826 Y86.536 E6.23296
G1 X101.059 Y86.995 E6.24180
G1 X101.138 Y87.500 E6.25061
G1 X101.059 Y88.005 E6.25942
G1 X100.826 Y88.463 E6.26827
G1 X100.463 Y88.826 E6.27710
G1 X100.005 Y89.059 E6.28595
G1 X99.500 Y89.138 E6.29476
G1 X98.995 Y89.059 E6.30357
G1 X98.537 Y88.826 E6.31241
G1 X98.174 Y88.463 E6.32124
G1 X97.983 Y88.088 E6.32849
G1 E0.32849 F3600.00000
G92 E0
G1 X95.144 Y94.067 F7800.000
G1 E6.00000 F3600.00000
G1 F1080
G1 X96.366 Y94.816 E6.02467
G1 X97.455 Y95.745 E6.04932
G1 X98.384 Y96.834 E6.07398
G1 X99.133 Y98.056 E6.09865
G1 X99.681 Y99.379 E6.12331
G1 X100.016 Y100.772 E6.14798
G1 X100.127 Y102.200 E6.17264
G1 X100.016 Y103.628 E6.19730
G1 X99.681 Y105.021 E6.22197
G1 X99.133 Y106.344 E6.24663
G1 X98.384 Y107.566 E6.27130
G1 X97.455 Y108.655 E6.29596
G1 X96.366 Y109.584 E6.32061
G1 X95.144 Y110.333 E6.34528
G1 X93.821 Y110.881 E6.36994
G1 X92.428 Y111.216 E6.39461
G1 X91.000 Y111.327 E6.41927
G1 X89.572 Y111.216 E6.44393
G1 X88.179 Y110.881 E6.46860
G1 X86.856 Y110.333 E6.49326
G1 X85.634 Y109.584 E6.51793
G1 X84.545 Y108.655 E6.54259
G1 X83.616 Y107.566 E6.56724
G1 X82.867 Y106.344 E6.59191
G1 X82.319 Y105.021 E6.61657
G1 X81.984 Y103.628 E6.64124
G1 X81.872 Y102.200 E6.66590
G1 X81.984 Y100.772 E6.69056
G1 X82.319 Y99.379 E6.71523
G1 X82.867 Y98.056 E6.73989
G1 X83.616 Y96.834 E6.76456
G1 X84.545 Y95.745 E6.78922
G1 X85.634 Y94.816 E6.81388
G1 X86.856 Y94.067 E6.83854
G1 X88.180 Y93.519 E6.86321
G1 X89.620 Y93.180 E6.88868
G1 X91.000 Y93.072 E6.91253
G1 X92.428 Y93.184 E6.93718
G1 X93.821 Y93.519 E6.96185
G1 X95.089 Y94.044 E6.98549
G1 X95.144 Y94.067 F7800.000
G1 X95.223 Y93.876 F7800.000
G1 F1800
G1 X96.488 Y94.647 E7.01099
G1 X97.602 Y95.598 E7.03621
G1 X98.553 Y96.712 E7.06143
G1 X99.318 Y97.962 E7.08666
G1 X99.879 Y99.315 E7.11188
G1 X100.221 Y100.740 E7.13711
G1 X100.335 Y102.200 E7.16233
G1 X100.221 Y103.660 E7.18755
G1 X99.879 Y105.085 E7.21278
G1 X99.318 Y106.438 E7.23800
G1 X98.553 Y107.688 E7.26323
G1 X97.602 Y108.802 E7.28845
G1 X96.488 Y109.753 E7.31367
G1 X95.238 Y110.518 E7.33890
G1 X93.885 Y111.079 E7.36412
G1 X92.460 Y111.421 E7.38936
G1 X91.000 Y111.535 E7.41457
G1 X89.540 Y111.421 E7.43979
G1 X88.115 Y111.079 E7.46502
G1 X86.762 Y110.518 E7.49025
G1 X85.512 Y109.753 E7.51548
G1 X84.398 Y108.802 E7.54069
G1 X83.447 Y107.688 E7.56591
