; generated by Slic3r 1.3.0-dev on 2018-06-26 at 17:41:12

; external perimeters extrusion width = 0.40mm (2.57mm^3/s)
; perimeters extrusion width = 0.67mm (7.54mm^3/s)
; infill extrusion width = 0.67mm (7.54mm^3/s)
; solid infill extrusion width = 0.24mm (1.97mm^3/s)
; top infill extrusion width = 0.67mm (3.77mm^3/s)

M190 S70 ; set bed temperature and wait for it to be reached
M104 S245 ; set temperature
G28 ; home all axes

; Filament gcode

M109 S245 ; set temperature and wait for it to be reached
G21 ; set units to millimeters
G90 ; use absolute coordinates
M82 ; use absolute distances for extrusion
G92 E0
M106 S255
G1 Z0.200 F7800.000
G1 E-6.00000 F3600.00000
G92 E0
G1 X76.918 Y90.320 F7800.000
G1 E6.00000 F3600.00000
G1 F1800
G1 X78.795 Y89.004 E6.03948
G1 X81.594 Y88.381 E6.08886
G1 X116.057 Y88.356 E6.68226
G1 X118.315 Y88.753 E6.72174
G1 X120.302 Y89.896 E6.76122
G1 X121.791 Y91.666 E6.80104
G1 X124.709 Y96.719 E6.90152
G1 X125.489 Y98.875 E6.94100
G1 X125.486 Y101.168 E6.98048
G1 X124.700 Y103.325 E7.02001
G1 X122.724 Y106.749 E7.08807
G1 X121.251 Y108.506 E7.12755
G1 X119.268 Y109.656 E7.16703
G1 X116.990 Y110.060 E7.20685
G1 X81.681 Y110.062 E7.81483
G1 X79.423 Y109.665 E7.85431
G1 X76.999 Y108.123 E7.90377
G1 X76.819 Y107.942 E7.90817
G1 X75.503 Y106.065 E7.94765
G1 X74.879 Y103.260 E7.99712
G1 X74.879 Y95.102 E8.13759
G1 X75.276 Y92.844 E8.17707
G1 X76.818 Y90.420 E8.22654
G1 X76.875 Y90.363 E8.22794
G1 X77.064 Y90.467 F7800.000
G1 F1800
G1 X78.915 Y89.176 E8.26679
G1 X81.594 Y88.588 E8.31402
G1 X116.057 Y88.563 E8.90742
G1 X118.278 Y88.960 E8.94627
G1 X120.224 Y90.101 E8.98512
G1 X121.612 Y91.770 E9.02249
G1 X124.529 Y96.822 E9.12295
G1 X125.291 Y98.946 E9.16181
G1 X125.269 Y101.203 E9.20066
G1 X124.521 Y103.222 E9.23774
G1 X122.545 Y106.645 E9.30580
G1 X121.091 Y108.371 E9.34465
G1 X119.129 Y109.485 E9.38351
G1 X116.990 Y109.853 E9.42087
G1 X81.681 Y109.855 E10.02884
G1 X79.460 Y109.458 E10.06770
G1 X77.146 Y107.976 E10.11501
G1 X76.965 Y107.796 E10.11941
G1 X75.675 Y105.944 E10.15826
G1 X75.086 Y103.260 E10.20558
G1 X75.086 Y95.102 E10.34606
G1 X75.483 Y92.881 E10.38491
G1 X76.964 Y90.566 E10.43223
G1 X77.022 Y90.509 E10.43362
G1 X77.211 Y90.613 F7800.000
G1 F1800
G1 X79.035 Y89.349 E10.47184
G1 X81.595 Y88.795 E10.51693
G1 X116.057 Y88.770 E11.11033
G1 X118.240 Y89.166 E11.14854
G1 X120.145 Y90.306 E11.18676
G1 X121.432 Y91.873 E11.22168
G1 X124.350 Y96.925 E11.32214
G1 X125.092 Y99.017 E11.36035
G1 X125.052 Y101.236 E11.39857
G1 X124.342 Y103.118 E11.43321
G1 X122.366 Y106.542 E11.50127
G1 X120.930 Y108.235 E11.53949
G1 X118.991 Y109.314 E11.57770
G1 X116.990 Y109.646 E11.61262
G1 X81.681 Y109.648 E12.22060
G1 X79.498 Y109.251 E12.25881
G1 X77.292 Y107.830 E12.30399
G1 X77.112 Y107.649 E12.30839
G1 X75.848 Y105.825 E12.34660
G1 X75.293 Y103.260 E12.39178
G1 X75.293 Y95.102 E12.53226
G1 X75.690 Y92.918 E12.57047
G1 X77.111 Y90.713 E12.61565
G1 X77.168 Y90.655 E12.61705
G1 E6.61705 F3600.00000
G92 E0
G1 X116.918 Y103.314 F7800.000
G1 E6.00000 F3600.00000
G1 F1080
G1 X113.403 Y103.314 E6.06051
G1 X113.397 Y103.196 E6.06254
G1 X114.598 Y103.070 E6.08333
G1 X115.760 Y102.399 E6.10644
G1 X116.549 Y101.313 E6.12955
G1 X116.828 Y100.000 E6.15266
G1 X116.549 Y98.687 E6.17577
G1 X115.760 Y97.601 E6.19888
G1 X114.597 Y96.930 E6.22199
G1 X113.263 Y96.790 E6.24510
G1 X111.986 Y97.205 E6.26821
G1 X110.989 Y98.103 E6.29132
G1 X110.443 Y99.329 E6.31443
G1 X110.443 Y100.671 E6.33755
G1 X110.989 Y101.897 E6.36066
G1 X111.986 Y102.795 E6.38377
G1 X113.259 Y103.209 E6.40681
G1 X113.243 Y103.314 E6.40864
G1 X81.733 Y103.315 E6.95120
G1 X81.625 Y103.208 E6.95381
G1 X81.625 Y95.127 E7.09296
G1 X110.758 Y95.125 E7.59460
G1 X110.772 Y95.102 E7.59506
G1 X115.985 Y95.102 E7.68482
G1 X118.822 Y100.015 E7.78251
G1 X116.948 Y103.262 E7.84706
G1 X116.593 Y103.080 F7800.000
G1 X116.798 Y103.106 F7800.000
G1 F1800
G1 X115.132 Y103.107 E7.87574
G1 X115.108 Y103.014 E7.87738
G1 X115.902 Y102.556 E7.89317
G1 X116.742 Y101.399 E7.91780
G1 X117.040 Y100.000 E7.94243
G1 X116.742 Y98.601 E7.96705
G1 X115.901 Y97.444 E7.99168
G1 X114.663 Y96.729 E8.01631
G1 X113.240 Y96.579 E8.04093
G1 X111.880 Y97.021 E8.06556
G1 X110.817 Y97.978 E8.09019
G1 X110.236 Y99.285 E8.11482
G1 X110.236 Y100.715 E8.13944
G1 X110.818 Y102.022 E8.16407
G1 X111.881 Y102.979 E8.18870
G1 X111.952 Y103.002 E8.18999
G1 X111.935 Y103.107 E8.19181
G1 X81.832 Y103.108 E8.71014
G1 X81.832 Y95.334 E8.84401
G1 X110.877 Y95.332 E9.34414
G1 X110.891 Y95.309 E9.34459
G1 X115.865 Y95.309 E9.43025
G1 X118.583 Y100.015 E9.52382
G1 X116.828 Y103.054 E9.58425
G1 E3.58425 F3600.00000
G92 E0
G1 X107.664 Y100.217 F7800.000
G1 E6.00000 F3600.00000
G1 F1200
G1 X106.638 Y100.217 E6.01767
G1 X106.520 Y96.575 E6.08041
G1 X107.781 Y96.575 E6.10211
G1 X107.666 Y100.157 E6.16382
G1 X107.672 Y100.617 F7800.000
G1 X107.756 Y100.479 F7800.000
G1 F1200
G1 X107.756 Y101.625 E6.18355
G1 X106.525 Y101.625 E6.20475
G1 X106.525 Y100.479 E6.22448
G1 X107.696 Y100.479 E6.24464
G1 X108.156 Y100.479 F7800.000
G1 E0.24464 F3600.00000
G92 E0
G1 X107.963 Y101.832 F7800.000
G1 E6.00000 F3600.00000
G1 F1200
G1 X106.318 Y101.832 E6.02833
G1 X106.318 Y100.272 E6.05519
G1 X106.432 Y100.272 E6.05716
G1 X106.307 Y96.368 E6.12442
G1 X107.994 Y96.368 E6.15348
G1 X107.869 Y100.272 E6.22074
G1 X107.963 Y100.272 E6.22235
G1 X107.963 Y101.772 E6.24818
G1 E0.24818 F3600.00000
G92 E0
G1 X87.230 Y100.218 F7800.000
G1 E6.00000 F3600.00000
G1 F1200
G1 X86.204 Y100.219 E6.01767
G1 X86.087 Y96.577 E6.08041
G1 X87.347 Y96.576 E6.10211
G1 X87.232 Y100.159 E6.16382
G1 X87.238 Y100.618 F7800.000
G1 X87.322 Y100.480 F7800.000
G1 F1200
G1 X87.322 Y101.626 E6.18355
G1 X86.091 Y101.627 E6.20475
G1 X86.091 Y100.481 E6.22448
G1 X87.262 Y100.480 E6.24464
G1 X87.722 Y100.480 F7800.000
G1 E0.24464 F3600.00000
G92 E0
G1 X87.529 Y101.834 F7800.000
G1 E6.00000 F3600.00000
G1 F1200
G1 X85.884 Y101.834 E6.02833
G1 X85.884 Y100.273 E6.05519
G1 X85.999 Y100.273 E6.05716
G1 X85.873 Y96.369 E6.12442
G1 X87.561 Y96.369 E6.15348
G1 X87.436 Y100.273 E6.22074
G1 X87.529 Y100.273 E6.22235
G1 X87.529 Y101.774 E6.24818
G1 E0.24818 F3600.00000
G92 E0
G1 X99.933 Y97.603 F7800.000
G1 E6.00000 F3600.00000
G1 F1200
G1 X99.933 Y96.576 E6.01768
G1 X104.255 Y96.576 E6.09210
G1 X104.255 Y97.603 E6.10979
G1 X102.724 Y97.603 E6.13615
G1 X102.724 Y101.626 E6.20542
G1 X101.469 Y101.626 E6.22703
G1 X101.469 Y97.603 E6.29630
G1 X99.993 Y97.603 E6.32171
G1 X99.565 Y97.446 F7800.000
G1 E0.32171 F3600.00000
G92 E0
G1 X94.470 Y96.576 F7800.000
G1 E6.00000 F3600.00000
G1 F1200
G1 X94.470 Y101.626 E6.08695
G1 X93.215 Y101.626 E6.10856
G1 X93.215 Y99.577 E6.14384
G1 X91.359 Y99.577 E6.17580
G1 X91.359 Y101.626 E6.21108
G1 X90.104 Y101.626 E6.23269
G1 X90.104 Y96.576 E6.31965
G1 X91.359 Y96.576 E6.34126
G1 X91.359 Y98.496 E6.37432
G1 X93.215 Y98.496 E6.40628
G1 X93.215 Y96.576 E6.43934
G1 X94.410 Y96.576 E6.45991
G1 X94.870 Y96.576 F7800.000
G1 E0.45991 F3600.00000
G92 E0
G1 X95.448 Y97.293 F7800.000
G1 E6.00000 F3600.00000
G1 F1200
G1 X95.520 Y97.194 E6.00211
G1 X96.034 Y96.813 E6.01312
G1 X96.661 Y96.586 E6.02461
G1 X97.396 Y96.511 E6.03733
G1 X98.131 Y96.587 E6.05005
G1 X98.759 Y96.816 E6.06156
G1 X99.273 Y97.201 E6.07262
G1 X99.652 Y97.719 E6.08368
G1 X99.878 Y98.348 E6.09518
G1 X99.953 Y99.079 E6.10783
G1 X99.918 Y99.577 E6.11643
G1 X99.815 Y100.035 E6.12452
G1 X99.641 Y100.454 E6.13233
G1 X99.402 Y100.823 E6.13989
G1 X99.101 Y101.130 E6.14730
G1 X98.740 Y101.374 E6.15479
G1 X98.330 Y101.550 E6.16248
G1 X97.879 Y101.655 E6.17045
G1 X97.387 Y101.690 E6.17895
G1 X96.659 Y101.614 E6.19156
G1 X96.034 Y101.380 E6.20305
G1 X95.520 Y100.989 E6.21416
G1 X95.142 Y100.462 E6.22534
G1 X94.917 Y99.824 E6.23698
G1 X94.842 Y99.081 E6.24984
G1 X94.917 Y98.341 E6.26265
G1 X95.142 Y97.710 E6.27418
G1 X95.412 Y97.341 E6.28206
G1 X95.392 Y97.183 F7800.000
G1 E0.28206 F3600.00000
G92 E0
G1 X94.677 Y96.369 F7800.000
G1 E6.00000 F3600.00000
G1 F1800
G1 X94.677 Y98.089 E6.02962
G1 X94.780 Y98.107 E6.03142
G1 X94.957 Y97.612 E6.04047
G1 X95.372 Y97.046 E6.05256
G1 X95.935 Y96.628 E6.06463
G1 X96.615 Y96.382 E6.07708
G1 X97.396 Y96.303 E6.09060
G1 X98.178 Y96.383 E6.10414
G1 X98.859 Y96.632 E6.11661
G1 X99.422 Y97.054 E6.12873
G1 X99.640 Y97.352 E6.13509
G1 X99.726 Y97.324 E6.13664
G1 X99.726 Y96.369 E6.15309
G1 X104.462 Y96.368 E6.23464
G1 X104.462 Y97.810 E6.25946
G1 X102.931 Y97.810 E6.28582
G1 X102.931 Y101.833 E6.35509
G1 X101.262 Y101.833 E6.38383
G1 X101.262 Y97.810 E6.45310
G1 X99.905 Y97.810 E6.47647
G1 X100.082 Y98.301 E6.48546
G1 X100.160 Y99.075 E6.49886
G1 X100.124 Y99.607 E6.50804
G1 X100.013 Y100.098 E6.51670
G1 X99.825 Y100.551 E6.52514
G1 X99.564 Y100.953 E6.53340
G1 X99.234 Y101.290 E6.54151
G1 X98.840 Y101.556 E6.54971
G1 X98.395 Y101.748 E6.55805
G1 X97.910 Y101.861 E6.56662
G1 X97.384 Y101.898 E6.57571
G1 X96.611 Y101.817 E6.58909
G1 X95.933 Y101.564 E6.60156
G1 X95.370 Y101.135 E6.61373
G1 X94.957 Y100.558 E6.62595
G1 X94.781 Y100.060 E6.63505
G1 X94.677 Y100.078 E6.63685
G1 X94.677 Y101.833 E6.66708
G1 X93.008 Y101.833 E6.69582
G1 X93.008 Y99.784 E6.73110
G1 X91.566 Y99.784 E6.75593
G1 X91.566 Y101.833 E6.79121
G1 X89.897 Y101.833 E6.81995
G1 X89.897 Y96.369 E6.91403
G1 X91.566 Y96.369 E6.94277
G1 X91.566 Y98.289 E6.97583
G1 X93.008 Y98.289 E7.00066
G1 X93.008 Y96.369 E7.03372
G1 X94.617 Y96.369 E7.06143
G1 E1.06143 F3600.00000
G92 E0
G1 X96.445 Y97.946 F7800.000
G1 E6.00000 F3600.00000
G1 F1200
G1 X96.696 Y97.729 E6.00572
G1 X97.011 Y97.598 E6.01158
G1 X97.396 Y97.553 E6.01826
G1 X97.775 Y97.598 E6.02484
G1 X98.086 Y97.730 E6.03065
G1 X98.336 Y97.949 E6.03637
G1 X98.523 Y98.249 E6.04246
G1 X98.637 Y98.625 E6.04924
G1 X98.677 Y99.081 E6.05711
G1 X98.638 Y99.558 E6.06534
G1 X98.523 Y99.947 E6.07234
G1 X98.337 Y100.252 E6.07849
G1 X98.088 Y100.472 E6.08421
G1 X97.774 Y100.604 E6.09007
G1 X97.390 Y100.649 E6.09674
G1 X97.018 Y100.603 E6.10319
G1 X96.709 Y100.467 E6.10899
G1 X96.455 Y100.241 E6.11486
G1 X96.263 Y99.930 E6.12114
G1 X96.145 Y99.545 E6.12808
G1 X96.106 Y99.081 E6.13610
G1 X96.145 Y98.622 E6.14402
G1 X96.259 Y98.245 E6.15081
G1 X96.413 Y97.997 E6.15584
G1 X96.445 Y97.946 F7800.000
G1 X96.604 Y98.082 F7800.000
G1 F1200
G1 X96.807 Y97.907 E6.16045
G1 X97.064 Y97.800 E6.16524
G1 X97.396 Y97.761 E6.17100
G1 X97.721 Y97.800 E6.17665
G1 X97.974 Y97.907 E6.18137
G1 X98.176 Y98.084 E6.18600
G1 X98.333 Y98.335 E6.19109
G1 X98.433 Y98.665 E6.19702
G1 X98.469 Y99.082 E6.20423
G1 X98.433 Y99.520 E6.21179
G1 X98.332 Y99.863 E6.21795
G1 X98.177 Y100.118 E6.22309
G1 X97.976 Y100.294 E6.22769
G1 X97.721 Y100.402 E6.23246
G1 X97.390 Y100.440 E6.23819
G1 X97.074 Y100.401 E6.24369
G1 X96.822 Y100.291 E6.24841
G1 X96.615 Y100.106 E6.25319
G1 X96.453 Y99.844 E6.25849
G1 X96.350 Y99.505 E6.26459
G1 X96.313 Y99.081 E6.27193
G1 X96.349 Y98.662 E6.27918
G1 X96.449 Y98.331 E6.28512
G1 X96.573 Y98.133 E6.28914
G1 X96.787 Y98.195 F7800.000
G1 F1500
G1 X96.617 Y98.440 E6.29441
G1 X96.529 Y98.755 E6.30022
G1 X97.319 Y97.965 E6.32004
G1 X97.458 Y97.953 E6.32252
G1 X97.614 Y97.971 E6.32531
G1 X96.501 Y99.085 E6.35325
G1 X96.522 Y99.365 E6.35824
G1 X97.842 Y98.045 E6.39137
G1 X98.013 Y98.176 E6.39519
G1 X96.572 Y99.617 E6.43136
G1 X96.655 Y99.835 E6.43550
G1 X98.136 Y98.354 E6.47265
G1 X98.218 Y98.575 E6.47682
G1 X96.777 Y100.015 E6.51296
G1 X96.944 Y100.150 E6.51676
G1 X98.263 Y98.831 E6.54985
G1 X98.278 Y99.118 E6.55495
G1 X97.167 Y100.229 E6.58283
G1 X97.369 Y100.254 E6.58643
G1 X97.454 Y100.244 E6.58795
G1 X98.251 Y99.446 E6.60796
G1 X98.163 Y99.756 E6.61368
G1 X97.993 Y100.006 E6.61904
G1 E0.61904 F3600.00000
G92 E0
G1 X99.795 Y97.706 F7800.000
G1 E6.00000 F3600.00000
G1 F600
G1 X99.730 Y97.432 E6.00104
G1 X99.612 Y97.121 F7800.000
G1 F600
G1 X99.557 Y97.042 E6.00105
G1 E0.00105 F3600.00000
G92 E0
G1 X94.880 Y97.324 F7800.000
G1 E6.00000 F3600.00000
G1 F600
G1 X94.793 Y97.726 E6.00171
G1 X94.836 Y98.222 F7800.000
G1 F600
G1 X94.694 Y98.319 E6.00414
G1 X94.656 Y99.089 E6.01499
G1 X94.694 Y99.848 E6.02569
G1 X94.837 Y99.945 E6.02813
G1 X94.793 Y100.445 F7800.000
G1 F600
G1 X94.881 Y100.853 E6.02982
G1 E0.02982 F3600.00000
G92 E0
G1 X87.330 Y100.349 F7800.000
G1 E6.00000 F3600.00000
G1 F600
G1 X86.105 Y100.350 E6.00122
G1 X85.715 Y100.088 F7800.000
G1 F1500
G1 X85.805 Y99.998 E6.00342
G1 X85.796 Y99.714 E6.00834
G1 E0.00834 F3600.00000
G92 E0
G1 X87.714 Y101.907 F7800.000
G1 E6.00000 F3600.00000
G1 F1500
G1 X89.712 Y99.909 E6.04878
G1 X89.712 Y99.616 E6.05386
G1 X87.714 Y101.613 E6.10264
G1 X87.714 Y101.320 E6.10771
G1 X89.712 Y99.322 E6.15649
G1 X89.712 Y99.028 E6.16157
G1 X87.714 Y101.026 E6.21035
G1 X87.714 Y100.732 E6.21542
G1 X89.712 Y98.735 E6.26421
G1 X89.712 Y98.441 E6.26928
G1 X87.714 Y100.439 E6.31806
G1 X87.714 Y100.145 E6.32313
G1 X89.712 Y98.147 E6.37192
G1 X89.712 Y97.854 E6.37699
G1 X87.632 Y99.933 E6.42777
G1 X87.642 Y99.630 E6.43301
G1 X89.712 Y97.560 E6.48356
G1 X89.712 Y97.266 E6.48863
G1 X87.652 Y99.326 E6.53894
G1 X87.662 Y99.023 E6.54418
G1 X89.712 Y96.973 E6.59425
G1 X89.712 Y96.679 E6.59932
G1 X87.671 Y98.720 E6.64915
G1 X87.681 Y98.416 E6.65439
G1 X89.712 Y96.385 E6.70398
G1 E0.70398 F3600.00000
G92 E0
G1 X92.823 Y96.211 F7800.000
G1 E6.00000 F3600.00000
G1 F1500
G1 X91.751 Y97.283 E6.02617
G1 X91.751 Y97.577 E6.03124
G1 X92.823 Y96.505 E6.05741
G1 X92.823 Y96.799 E6.06248
G1 X91.751 Y97.870 E6.08865
G1 X91.751 Y98.104 E6.09269
G1 X91.811 Y98.104 E6.09372
G1 X92.823 Y97.092 E6.11843
G1 X92.823 Y97.386 E6.12350
G1 X92.105 Y98.104 E6.14103
G1 X92.399 Y98.104 E6.14610
G1 X92.823 Y97.680 E6.15647
G1 X92.823 Y97.973 E6.16154
G1 X92.692 Y98.104 E6.16473
G1 E0.16473 F3600.00000
G92 E0
G1 X92.002 Y99.969 F7800.000
G1 E6.00000 F3600.00000
G1 F1500
G1 X91.751 Y100.220 E6.00611
G1 X91.751 Y100.513 E6.01118
G1 X92.295 Y99.969 E6.02447
G1 X92.589 Y99.969 E6.02954
G1 X91.751 Y100.807 E6.04999
G1 X91.751 Y101.101 E6.05507
G1 X92.823 Y100.029 E6.08123
G1 X92.823 Y100.323 E6.08631
G1 X91.751 Y101.394 E6.11247
G1 X91.751 Y101.688 E6.11755
G1 X92.823 Y100.616 E6.14371
G1 X92.823 Y100.910 E6.14879
G1 X91.751 Y101.982 E6.17495
G1 E0.17495 F3600.00000
G92 E0
G1 X94.862 Y101.808 F7800.000
G1 E6.00000 F3600.00000
G1 F1500
G1 X95.338 Y101.332 E6.01161
G1 X95.242 Y101.259 E6.01370
G1 X95.190 Y101.186 E6.01524
G1 X94.862 Y101.514 E6.02324
G1 X94.862 Y101.220 E6.02831
G1 X95.067 Y101.015 E6.03331
G1 E0.03331 F3600.00000
G92 E0
G1 X99.756 Y101.025 F7800.000
G1 E6.00000 F3600.00000
G1 F1500
G1 X101.077 Y99.705 E6.03225
G1 X101.077 Y99.411 E6.03732
G1 X100.107 Y100.381 E6.06101
G1 X100.189 Y100.183 E6.06472
G1 X100.241 Y99.954 E6.06877
G1 X101.077 Y99.118 E6.08919
G1 X101.077 Y98.824 E6.09426
G1 X100.312 Y99.589 E6.11294
G1 X100.334 Y99.273 E6.11840
G1 X101.077 Y98.530 E6.13654
G1 X101.077 Y98.237 E6.14161
G1 X100.334 Y98.979 E6.15974
G1 X100.307 Y98.712 E6.16436
G1 X101.025 Y97.995 E6.18188
G1 X100.731 Y97.995 E6.18695
G1 X100.280 Y98.446 E6.19796
G1 X100.263 Y98.277 E6.20088
G1 X100.235 Y98.198 E6.20234
G1 X100.437 Y97.995 E6.20729
G1 E0.20729 F3600.00000
G92 E0
G1 X99.323 Y96.760 F7800.000
G1 E6.00000 F3600.00000
G1 F1500
G1 X99.541 Y96.542 E6.00531
G1 X99.541 Y96.248 E6.01038
G1 E0.01038 F3600.00000
G92 E0
G1 X103.374 Y97.995 F7800.000
G1 E6.00000 F3600.00000
G1 F1500
G1 X103.116 Y98.253 E6.00631
G1 X103.116 Y98.547 E6.01138
G1 X103.668 Y97.995 E6.02486
G1 X103.962 Y97.995 E6.02993
G1 X103.116 Y98.840 E6.05058
G1 X103.116 Y99.134 E6.05565
G1 X104.255 Y97.995 E6.08348
G1 X104.549 Y97.995 E6.08855
G1 X103.116 Y99.428 E6.12355
G1 X103.116 Y99.721 E6.12862
G1 X106.133 Y96.705 E6.20229
G1 X106.142 Y96.989 E6.20720
G1 X103.116 Y100.015 E6.28110
G1 X103.116 Y100.309 E6.28617
G1 X106.151 Y97.274 E6.36029
G1 X106.160 Y97.558 E6.36520
G1 X103.116 Y100.602 E6.43954
G1 X103.116 Y100.896 E6.44461
G1 X106.170 Y97.843 E6.51918
G1 X106.179 Y98.127 E6.52409
G1 X103.116 Y101.190 E6.59888
G1 X103.116 Y101.483 E6.60395
G1 X106.188 Y98.412 E6.67896
G1 X106.197 Y98.696 E6.68388
G1 X103.116 Y101.777 E6.75911
G1 E0.75911 F3600.00000
G92 E0
G1 X104.647 Y97.897 F7800.000
G1 E6.00000 F3600.00000
