; generated by Slic3r 1.2.9 on 2018-05-22 at 16:30:33

; external perimeters extrusion width = 0.35mm
; perimeters extrusion width = 0.39mm
; infill extrusion width = 0.39mm
; solid infill extrusion width = 0.36mm
; top infill extrusion width = 0.39mm

M190 S80 ; set bed temperature
M104 S245 ; set temperature
G28 ; home all axes

M109 S245 ; wait for temperature to be reached
G21 ; set units to millimeters
G90 ; use absolute coordinates
M82 ; use absolute distances for extrusion
G92 E0
M106 S255
G1 Z0.300 F7800.000
G1 E-6.00000 F3600.00000
G92 E0
G1 X86.018 Y67.803 F7800.000
G1 E6.00000 F3600.00000
G1 X87.835 Y66.318 E6.08181 F1800.000
G1 X90.043 Y65.524 E6.16363
G1 X91.250 Y65.418 E6.20587
G1 X112.750 Y65.418 E6.95553
G1 X115.063 Y65.815 E7.03735
G1 X117.110 Y66.961 E7.11916 F1800.000
G1 X118.658 Y68.724 E7.20097
G1 X119.529 Y70.903 E7.28279
G1 X119.682 Y72.350 E7.33352
G1 X119.682 Y83.500 E7.72230
G1 X119.624 Y84.391 E7.75342
G1 X116.062 Y111.888 E8.72021
G1 X115.632 Y113.550 E8.78006
G1 X115.348 Y114.253 E8.80649
G1 X109.092 Y128.482 E9.34847
G1 X108.831 Y129.014 E9.36913
G1 X108.575 Y129.480 E9.38769
G1 X108.266 Y129.985 E9.40831
G1 X107.965 Y130.426 E9.42693
G1 X107.513 Y131.021 E9.45298
G1 X107.126 Y131.474 E9.47375
G1 X106.611 Y132.012 E9.49971
G1 X106.224 Y132.376 E9.51825
G1 X105.771 Y132.763 E9.53901
G1 X105.176 Y133.216 E9.56510
G1 X104.553 Y133.631 E9.59120
G1 X104.092 Y133.903 E9.60985
G1 X103.570 Y134.180 E9.63048
G1 X102.889 Y134.493 E9.65659
G1 X102.192 Y134.761 E9.68263
G1 X101.684 Y134.927 E9.70128
G1 X100.960 Y135.120 E9.72739
G1 X100.381 Y135.240 E9.74800
G1 X99.636 Y135.351 E9.77428
G1 X99.107 Y135.401 E9.79281
G1 X98.360 Y135.431 E9.81886
G1 X97.609 Y135.414 E9.84505
G1 X96.864 Y135.351 E9.87113
G1 X96.276 Y135.267 E9.89183
G1 X95.540 Y135.120 E9.91803
G1 X94.819 Y134.927 E9.94404
G1 X94.110 Y134.690 E9.97012
G1 X93.612 Y134.493 E9.98878
G1 X92.930 Y134.180 E10.01493
G1 X92.271 Y133.825 E10.04103
G1 X91.635 Y133.430 E10.06715
G1 X91.024 Y132.994 E10.09332
G1 X90.442 Y132.522 E10.11946
G1 X89.891 Y132.013 E10.14561
G1 X89.374 Y131.473 E10.17168
G1 X88.987 Y131.021 E10.19243
G1 X88.534 Y130.425 E10.21853
G1 X88.118 Y129.801 E10.24465
G1 X87.743 Y129.153 E10.27079
G1 X87.408 Y128.481 E10.29697
G1 X81.046 Y114.028 E10.84756
G1 X80.676 Y112.959 E10.88700
G1 X80.551 Y112.473 E10.90450
G1 X80.348 Y111.187 E10.94992
G1 X80.318 Y110.500 E10.97388
G1 X80.318 Y82.500 E11.95019
G1 X80.801 Y79.958 E12.04039
G1 X84.801 Y69.808 E12.42079
G1 X85.991 Y67.847 E12.50077
G1 X86.287 Y67.967 F7800.000
G1 X88.080 Y66.537 E12.58073 F1800.000
G1 X91.250 Y65.729 E12.69481
G1 X112.750 Y65.729 E13.44447
G1 X115.008 Y66.126 E13.52442
G1 X116.996 Y67.269 E13.60436 F1800.000
G1 X118.474 Y69.022 E13.68431
G1 X119.266 Y71.173 E13.76425
G1 X119.371 Y72.350 E13.80545
G1 X119.371 Y83.500 E14.19422
G1 X119.316 Y84.351 E14.22395
G1 X115.754 Y111.848 E15.19074
G1 X115.343 Y113.435 E15.24791
G1 X115.064 Y114.128 E15.27394
G1 X108.809 Y128.354 E15.81582
G1 X108.556 Y128.869 E15.83579
G1 X108.305 Y129.326 E15.85401
G1 X108.006 Y129.814 E15.87395
G1 X107.711 Y130.248 E15.89223
G1 X107.270 Y130.826 E15.91760
G1 X106.896 Y131.265 E15.93769
G1 X106.395 Y131.789 E15.96297
G1 X106.015 Y132.146 E15.98117
G1 X105.577 Y132.520 E16.00125
G1 X104.997 Y132.962 E16.02666
G1 X104.391 Y133.366 E16.05208
G1 X103.939 Y133.633 E16.07039
G1 X103.433 Y133.901 E16.09034
G1 X102.770 Y134.206 E16.11577
G1 X102.092 Y134.468 E16.14113
G1 X101.592 Y134.630 E16.15943
G1 X100.888 Y134.818 E16.18487
G1 X100.328 Y134.934 E16.20480
G1 X99.602 Y135.042 E16.23040
G1 X99.082 Y135.091 E16.24858
G1 X98.355 Y135.120 E16.27396
G1 X97.624 Y135.104 E16.29946
G1 X96.898 Y135.042 E16.32486
G1 X96.330 Y134.961 E16.34489
G1 X95.612 Y134.818 E16.37040
G1 X94.910 Y134.631 E16.39574
G1 X94.219 Y134.399 E16.42114
G1 X93.731 Y134.206 E16.43945
G1 X93.067 Y133.901 E16.46492
G1 X92.425 Y133.556 E16.49034
G1 X91.806 Y133.170 E16.51578
G1 X91.210 Y132.746 E16.54127
G1 X90.644 Y132.286 E16.56673
G1 X90.107 Y131.790 E16.59219
G1 X89.603 Y131.264 E16.61759
G1 X89.230 Y130.826 E16.63765
G1 X88.788 Y130.246 E16.66308
G1 X88.383 Y129.639 E16.68852
G1 X88.017 Y129.007 E16.71398
G1 X87.691 Y128.353 E16.73947
G1 X81.330 Y113.903 E17.28997
G1 X80.977 Y112.882 E17.32764
G1 X80.852 Y112.396 E17.34513
G1 X80.658 Y111.167 E17.38852
G1 X80.629 Y110.500 E17.41180
G1 X80.629 Y82.500 E18.38811
G1 X81.090 Y80.072 E18.47427
G1 X85.090 Y69.922 E18.85467
G1 X86.260 Y68.012 E18.93277
G1 X86.555 Y68.133 F7800.000
G1 X88.323 Y66.759 E19.01082 F1800.000
G1 X91.250 Y66.039 E19.11593
G1 X112.750 Y66.039 E19.86559
G1 X114.953 Y66.436 E19.94363
G1 X116.878 Y67.577 E20.02166 F1800.000
G1 X118.284 Y69.318 E20.09969
G1 X119.061 Y72.350 E20.20883
G1 X119.061 Y83.500 E20.59761
G1 X119.008 Y84.311 E20.62594
G1 X115.446 Y111.808 E21.59274
G1 X115.054 Y113.321 E21.64722
G1 X114.780 Y114.003 E21.67285
G1 X108.525 Y128.226 E22.21462
G1 X108.282 Y128.723 E22.23391
G1 X108.035 Y129.172 E22.25179
G1 X107.746 Y129.644 E22.27105
G1 X107.457 Y130.069 E22.28899
G1 X107.028 Y130.632 E22.31368
G1 X106.667 Y131.055 E22.33308
G1 X106.179 Y131.566 E22.35770
G1 X105.655 Y132.049 E22.38257
G1 X105.103 Y132.497 E22.40734
G1 X104.689 Y132.799 E22.42522
G1 X104.093 Y133.184 E22.44993
G1 X103.614 Y133.458 E22.46919
G1 X102.981 Y133.773 E22.49385
G1 X102.505 Y133.979 E22.51192
G1 X101.840 Y134.225 E22.53666
G1 X101.311 Y134.388 E22.55594
G1 X100.815 Y134.516 E22.57380
G1 X100.117 Y134.655 E22.59863
G1 X99.568 Y134.733 E22.61797
G1 X98.862 Y134.794 E22.64266
G1 X98.151 Y134.810 E22.66748
G1 X97.442 Y134.781 E22.69221
G1 X96.932 Y134.733 E22.71006
G1 X96.228 Y134.628 E22.73488
G1 X95.685 Y134.516 E22.75423
G1 X94.998 Y134.333 E22.77901
G1 X94.329 Y134.109 E22.80362
G1 X93.665 Y133.839 E22.82858
G1 X93.027 Y133.532 E22.85328
G1 X92.407 Y133.184 E22.87810
G1 X91.811 Y132.799 E22.90281
G1 X91.240 Y132.376 E22.92758
G1 X90.694 Y131.916 E22.95247
G1 X90.183 Y131.427 E22.97716
G1 X89.700 Y130.904 E23.00199
G1 X89.373 Y130.509 E23.01986
G1 X88.952 Y129.939 E23.04456
G1 X88.567 Y129.345 E23.06922
G1 X88.292 Y128.862 E23.08863
G1 X87.974 Y128.225 E23.11344
G1 X81.614 Y113.778 E23.66383
G1 X81.278 Y112.805 E23.69974
G1 X81.153 Y112.319 E23.71723
G1 X80.968 Y111.148 E23.75858
G1 X80.939 Y110.500 E23.78118
G1 X80.939 Y82.500 E24.75749
G1 X81.379 Y80.186 E24.83960
G1 X85.379 Y70.036 E25.22000
G1 X86.528 Y68.178 E25.29619
G1 E19.29619 F3600.00000
G92 E0
G1 X103.063 Y112.312 F7800.000
G1 E6.00000 F3600.00000
G1 X103.060 Y123.650 E6.39531 F1080.000
G1 X103.024 Y124.103 E6.41117
G1 X102.946 Y124.550 E6.42697
G1 X102.827 Y124.987 E6.44278
G1 X102.666 Y125.411 E6.45859
G1 X102.467 Y125.818 E6.47440
G1 X102.230 Y126.205 E6.49021
G1 X101.958 Y126.567 E6.50601
G1 X101.653 Y126.903 E6.52182
G1 X101.317 Y127.208 E6.53763
G1 X100.955 Y127.480 E6.55344
G1 X100.568 Y127.717 E6.56925
G1 X100.161 Y127.917 E6.58506
G1 X99.737 Y128.077 E6.60087
G1 X99.300 Y128.196 E6.61667
G1 X98.853 Y128.274 E6.63248
G1 X98.401 Y128.310 E6.64829
G1 X97.948 Y128.303 E6.66410
G1 X97.497 Y128.253 E6.67991
G1 X97.053 Y128.161 E6.69572
G1 X96.621 Y128.028 E6.71147
G1 X96.065 Y127.788 E6.73260
G1 X95.545 Y127.480 E6.75367
G1 X95.068 Y127.110 E6.77474
G1 X94.640 Y126.682 E6.79581
G1 X94.270 Y126.205 E6.81688
G1 X93.962 Y125.685 E6.83795
G1 X93.722 Y125.130 E6.85902
G1 X93.553 Y124.548 E6.88015
G1 X93.476 Y124.105 E6.89585
G1 X93.438 Y123.494 E6.91718
G1 X93.438 Y112.312 E7.30706
G1 X89.259 Y112.312 E7.45276
G1 X88.913 Y112.280 E7.46486
G1 X88.479 Y112.139 E7.48079
G1 X88.096 Y111.895 E7.49662
G1 X87.785 Y111.565 E7.51244
G1 X87.566 Y111.167 E7.52828
G1 X87.453 Y110.727 E7.54410
G1 X87.453 Y110.312 E7.55855
G1 X87.438 Y110.312 E7.55911
G1 X87.438 Y82.688 E8.52233
G1 X91.438 Y82.688 E8.66180
G1 X91.438 Y72.537 E9.01571
G1 X112.562 Y72.537 E9.75230
G1 X112.562 Y83.312 E10.12800
G1 X109.062 Y83.312 E10.25004
G1 X109.062 Y110.488 E11.19760
G1 X109.004 Y110.950 E11.21384
G1 X108.837 Y111.372 E11.22967
G1 X108.570 Y111.740 E11.24550
G1 X108.220 Y112.029 E11.26133
G1 X107.810 Y112.222 E11.27716
G1 X107.355 Y112.309 E11.29330
G1 X107.247 Y112.312 E11.29706
G1 X103.115 Y112.312 E11.44114
G1 X102.713 Y112.312 F7800.000
G1 X102.752 Y112.002 F7800.000
G1 X102.749 Y123.637 E11.84685 F1800.000
G1 X102.716 Y124.064 E11.86177
G1 X102.643 Y124.482 E11.87656
G1 X102.531 Y124.891 E11.89135
G1 X102.381 Y125.288 E11.90613
G1 X102.195 Y125.669 E11.92092
G1 X101.973 Y126.030 E11.93570
G1 X101.718 Y126.369 E11.95049
G1 X101.433 Y126.683 E11.96528
G1 X101.119 Y126.968 E11.98007
G1 X100.780 Y127.223 E11.99485
G1 X100.419 Y127.445 E12.00964
G1 X100.038 Y127.631 E12.02443
G1 X99.641 Y127.781 E12.03921
G1 X99.232 Y127.893 E12.05400
G1 X98.814 Y127.966 E12.06879
G1 X98.391 Y127.999 E12.08357
G1 X97.967 Y127.992 E12.09836
G1 X97.546 Y127.946 E12.11315
G1 X97.131 Y127.860 E12.12794
G1 X96.729 Y127.736 E12.14259
G1 X96.207 Y127.510 E12.16243
G1 X95.720 Y127.223 E12.18214
G1 X95.273 Y126.876 E12.20185
G1 X94.874 Y126.477 E12.22155
G1 X94.527 Y126.030 E12.24126
G1 X94.240 Y125.543 E12.26097
G1 X94.015 Y125.025 E12.28068
G1 X93.856 Y124.478 E12.30053
G1 X93.785 Y124.068 E12.31504
G1 X93.748 Y123.484 E12.33543
G1 X93.748 Y112.002 E12.73580
G1 X89.273 Y112.002 E12.89182
G1 X88.977 Y111.974 E12.90221
G1 X88.612 Y111.855 E12.91558
G1 X88.295 Y111.654 E12.92867
G1 X88.038 Y111.380 E12.94176
G1 X87.857 Y111.051 E12.95486
G1 X87.764 Y110.688 E12.96795
G1 X87.764 Y110.002 E12.99186
G1 X87.748 Y110.002 E12.99241
G1 X87.748 Y82.998 E13.93398
G1 X91.748 Y82.998 E14.07345
G1 X91.748 Y72.848 E14.42736
G1 X112.252 Y72.848 E15.14229
G1 X112.252 Y83.002 E15.49633
G1 X108.752 Y83.002 E15.61836
G1 X108.752 Y110.469 E16.57608
G1 X108.701 Y110.873 E16.59027
G1 X108.563 Y111.222 E16.60336
G1 X108.342 Y111.525 E16.61646
G1 X108.053 Y111.765 E16.62954
G1 X107.713 Y111.925 E16.64264
G1 X107.242 Y112.002 E16.65927
G1 X102.804 Y112.002 E16.81400
G1 X102.188 Y96.719 F7800.000
G1 X94.312 Y96.719 E17.08859 F1200.000
G1 X94.312 Y86.281 E17.45255
G1 X102.188 Y86.281 E17.72714
G1 X102.188 Y96.667 E18.08927
G1 X102.188 Y97.069 F7800.000
G1 X102.498 Y97.030 F7800.000
G1 X94.002 Y97.030 E18.38552 F1200.000
G1 X94.002 Y85.970 E18.77114
G1 X102.498 Y85.970 E19.06739
G1 X102.498 Y96.977 E19.45118
G1 X105.151 Y105.455 F7800.000
G1 X105.741 Y105.362 E19.47205 F1200.000
G1 X106.349 Y105.455 E19.49348
G1 X106.890 Y105.731 E19.51466
G1 X107.319 Y106.160 E19.53582
G1 X107.595 Y106.701 E19.55698
G1 X107.690 Y107.300 E19.57814
G1 X107.634 Y107.650 E19.59050
G1 X107.690 Y108.000 E19.60285
G1 X107.634 Y108.350 E19.61521
G1 X107.690 Y108.700 E19.62757
G1 X107.595 Y109.299 E19.64873
G1 X107.319 Y109.840 E19.66989
G1 X106.890 Y110.269 E19.69105
G1 X106.349 Y110.545 E19.71221
G1 X105.750 Y110.640 E19.73337
G1 X105.150 Y110.545 E19.75455
G1 X104.604 Y110.263 E19.77599
G1 X104.181 Y109.840 E19.79685
G1 X103.905 Y109.299 E19.81801
G1 X103.810 Y108.700 E19.83917
G1 X103.866 Y108.350 E19.85153
G1 X103.810 Y108.000 E19.86388
G1 X103.866 Y107.650 E19.87624
G1 X103.810 Y107.300 E19.88859
G1 X103.905 Y106.701 E19.90976
G1 X104.181 Y106.160 E19.93092
G1 X104.610 Y105.731 E19.95208
G1 X105.104 Y105.479 E19.97141
G1 X105.241 Y105.117 F7800.000
G1 X105.102 Y105.148 F7800.000
G1 X105.741 Y105.047 E19.99396 F1200.000
G1 X106.446 Y105.156 E20.01883
G1 X107.075 Y105.476 E20.04346
G1 X107.574 Y105.975 E20.06805
G1 X107.894 Y106.603 E20.09264
G1 X108.004 Y107.300 E20.11724
G1 X107.949 Y107.650 E20.12959
G1 X108.004 Y108.000 E20.14195
G1 X107.949 Y108.350 E20.15431
G1 X108.004 Y108.700 E20.16666
G1 X107.894 Y109.397 E20.19125
G1 X107.574 Y110.025 E20.21585
G1 X107.075 Y110.524 E20.24044
G1 X106.447 Y110.844 E20.26503
G1 X105.750 Y110.954 E20.28962
G1 X105.052 Y110.844 E20.31426
G1 X104.418 Y110.517 E20.33912
G1 X103.926 Y110.025 E20.36339
G1 X103.606 Y109.397 E20.38798
G1 X103.496 Y108.700 E20.41257
G1 X103.551 Y108.350 E20.42493
G1 X103.496 Y108.000 E20.43729
G1 X103.551 Y107.650 E20.44964
G1 X103.496 Y107.300 E20.46200
G1 X103.606 Y106.603 E20.48659
G1 X103.926 Y105.975 E20.51118
G1 X104.425 Y105.476 E20.53578
G1 X105.050 Y105.158 E20.56025
G1 X92.661 Y107.119 F7800.000
G1 X92.690 Y107.300 E20.56665 F1200.000
G1 X92.634 Y107.650 E20.57901
G1 X92.690 Y108.000 E20.59136
G1 X92.634 Y108.350 E20.60372
G1 X92.690 Y108.700 E20.61608
G1 X92.595 Y109.299 E20.63724
G1 X92.319 Y109.840 E20.65840
G1 X91.890 Y110.269 E20.67956
G1 X91.349 Y110.545 E20.70072
G1 X90.750 Y110.640 E20.72188
G1 X90.150 Y110.545 E20.74306
G1 X89.604 Y110.263 E20.76449
G1 X89.181 Y109.840 E20.78536
G1 X88.905 Y109.299 E20.80652
G1 X88.810 Y108.700 E20.82768
G1 X88.866 Y108.350 E20.84004
G1 X88.810 Y108.000 E20.85239
G1 X88.866 Y107.650 E20.86475
G1 X88.810 Y107.300 E20.87710
G1 X88.905 Y106.701 E20.89827
G1 X89.181 Y106.160 E20.91943
G1 X89.610 Y105.731 E20.94059
G1 X90.151 Y105.455 E20.96175
G1 X90.741 Y105.362 E20.98261 F1200.000
G1 X91.349 Y105.455 E21.00405
G1 X91.890 Y105.731 E21.02522
G1 X92.319 Y106.160 E21.04638
G1 X92.595 Y106.701 E21.06754
G1 X92.653 Y107.067 E21.08048
G1 X92.832 Y107.184 F7800.000
G1 X92.968 Y107.070 F7800.000
G1 X93.004 Y107.300 E21.08859 F1200.000
G1 X92.949 Y107.650 E21.10095
G1 X93.004 Y108.000 E21.11330
G1 X92.949 Y108.350 E21.12566
G1 X93.004 Y108.700 E21.13802
G1 X92.894 Y109.397 E21.16261
G1 X92.574 Y110.025 E21.18720
G1 X92.075 Y110.524 E21.21179
G1 X91.447 Y110.844 E21.23639
G1 X90.750 Y110.954 E21.26098
G1 X90.052 Y110.844 E21.28561
G1 X89.418 Y110.517 E21.31048
G1 X88.926 Y110.025 E21.33474
G1 X88.606 Y109.397 E21.35933
G1 X88.496 Y108.700 E21.38393
G1 X88.551 Y108.350 E21.39628
G1 X88.496 Y108.000 E21.40864
G1 X88.551 Y107.650 E21.42100
G1 X88.496 Y107.300 E21.43335
G1 X88.606 Y106.603 E21.45795
G1 X88.926 Y105.975 E21.48254
G1 X89.425 Y105.476 E21.50713
G1 X90.053 Y105.156 E21.53172
G1 X90.741 Y105.047 E21.55599 F1200.000
G1 X91.446 Y105.156 E21.58085
G1 X92.075 Y105.476 E21.60549
G1 X92.574 Y105.975 E21.63008
G1 X92.894 Y106.603 E21.65467
G1 X92.960 Y107.018 E21.66932
G1 E15.66932 F3600.00000
G92 E0
G1 X88.107 Y107.135 F7800.000
G1 E6.00000 F3600.00000
G1 X88.147 Y107.650 E6.03978 F600.000
G1 X88.122 Y107.966 E6.06416
G1 X88.147 Y108.350 E6.09379
G1 X88.107 Y108.865 E6.13357
G1 X87.948 Y109.037 F7800.000
G1 X88.434 Y109.523 E6.15762 F1500.000
G1 X87.932 Y109.461 F7800.000
G1 X90.294 Y111.824 E6.27454 F1500.000
G1 X89.853 Y111.824 F7800.000
G1 X87.936 Y109.906 E6.36945 F1500.000
G1 X87.940 Y110.351 E6.38501
G1 X89.413 Y111.824 E6.45791
G1 X88.877 Y111.729 E6.47693
G1 X88.012 Y110.864 E6.51975
G1 X89.927 Y111.016 F7800.000
G1 X90.735 Y111.824 E6.55975 F1500.000
G1 X91.176 Y111.824 E6.57519
G1 X90.451 Y111.099 E6.61108
G1 X90.895 Y111.102 E6.62663
G1 X91.617 Y111.824 E6.66235
G1 X92.058 Y111.824 E6.67778
G1 X91.276 Y111.042 E6.71649
G1 X91.610 Y110.935 E6.72877
G1 X92.499 Y111.824 E6.77276
G1 X92.940 Y111.824 E6.78819
G1 X91.902 Y110.786 E6.83954
G1 X92.185 Y110.628 E6.85088
G1 X93.381 Y111.824 E6.91008
G1 X93.100 Y106.693 F7800.000
G1 X102.573 Y116.166 E7.37895 F1500.000
G1 X102.573 Y116.607 E7.39437
G1 X93.183 Y107.217 E7.85913
G1 X93.134 Y107.609 E7.87296
G1 X102.573 Y117.048 E8.34012
G1 X102.573 Y117.488 E8.35555
G1 X93.163 Y108.078 E8.82129
G1 X93.168 Y108.525 E8.83691
G1 X102.573 Y117.929 E9.30237
G1 X102.572 Y118.370 E9.31780
G1 X93.138 Y108.935 E9.78476
G1 X93.078 Y109.316 E9.79825
G1 X102.572 Y118.811 E10.26819
G1 X102.572 Y119.252 E10.28361
G1 X92.950 Y109.629 E10.75986
G1 X92.801 Y109.921 E10.77134
G1 X102.572 Y119.692 E11.25495
G1 X102.572 Y120.133 E11.27037
G1 X92.625 Y110.187 E11.76267
G1 X92.405 Y110.407 E11.77358
G1 X102.572 Y120.574 E12.27678
G1 X102.572 Y121.015 E12.29221
G1 X93.926 Y112.369 E12.72011
G1 X93.926 Y112.810 E12.73555
G1 X102.572 Y121.456 E13.16345
G1 X102.572 Y121.896 E13.17888
G1 X93.926 Y113.251 E13.60677
G1 X93.926 Y113.692 E13.62220
G1 X102.572 Y122.337 E14.05010
G1 X102.572 Y122.778 E14.06552
G1 X93.926 Y114.133 E14.49341
G1 X93.926 Y114.574 E14.50884
G1 X102.571 Y123.219 E14.93672
G1 X102.571 Y123.660 E14.95215
