; generated by Slic3r 1.2.9 on 2018-05-22 at 14:50:28

; external perimeters extrusion width = 0.35mm
; perimeters extrusion width = 0.39mm
; infill extrusion width = 0.39mm
; solid infill extrusion width = 0.36mm
; top infill extrusion width = 0.39mm

M190 S80 ; set bed temperature
M104 S245 ; set temperature
G28 ; home all axes

M109 S245 ; wait for temperature to be reached
G21 ; set units to millimeters
G90 ; use absolute coordinates
M82 ; use absolute distances for extrusion
G92 E0
M106 S255
G1 Z0.300 F7800.000
G1 E-6.00000 F3600.00000
G92 E0
G1 X66.372 Y75.307 F7800.000
G1 E6.00000 F3600.00000
G1 X67.883 Y74.324 E6.06283 F1800.000
G1 X87.158 Y65.100 E6.80791
G1 X89.757 Y64.432 E6.90150
G1 X120.632 Y62.679 E7.97978
G1 X122.325 Y62.668 E8.03881
G1 X124.638 Y63.065 E8.12062
G1 X127.227 Y64.698 E8.22736 F1800.000
G1 X129.927 Y67.398 E8.36050
G1 X131.281 Y69.315 E8.44231
G1 X131.879 Y71.264 E8.51340
G1 X138.879 Y117.564 E10.14614
G1 X138.957 Y118.600 E10.18237
G1 X138.957 Y127.548 E10.49436
G1 X138.560 Y129.860 E10.57618
G1 X136.927 Y132.449 E10.68291
G1 X134.074 Y135.302 E10.82355
G1 X132.158 Y136.656 E10.90536
G1 X129.173 Y137.332 E11.01210
G1 X87.025 Y137.332 E12.48171
G1 X84.712 Y136.935 E12.56352
G1 X82.665 Y135.789 E12.64534
G1 X80.646 Y133.113 E12.76223
G1 X61.596 Y88.313 E14.45968
G1 X61.056 Y86.029 E14.54149
G1 X61.310 Y83.696 E14.62330
G1 X61.972 Y82.134 E14.68247
G1 X64.872 Y77.111 E14.88470
G1 X66.338 Y75.347 E14.96468
G1 X66.614 Y75.509 F7800.000
G1 X68.017 Y74.605 E15.02290 F1800.000
G1 X87.292 Y65.380 E15.76798
G1 X89.775 Y64.742 E15.85737
G1 X120.650 Y62.989 E16.93566
G1 X122.325 Y62.979 E16.99407
G1 X124.583 Y63.376 E17.07401
G1 X127.007 Y64.918 E17.17418 F1800.000
G1 X129.707 Y67.618 E17.30732
G1 X131.023 Y69.496 E17.38727
G1 X131.572 Y71.310 E17.45337
G1 X138.572 Y117.610 E19.08610
G1 X138.646 Y118.600 E19.12071
G1 X138.646 Y127.548 E19.43271
G1 X138.249 Y129.806 E19.51265
G1 X136.707 Y132.230 E19.61282
G1 X133.855 Y135.082 E19.75346
G1 X131.977 Y136.398 E19.83341
G1 X129.173 Y137.021 E19.93358
G1 X87.025 Y137.021 E21.40319
G1 X84.767 Y136.624 E21.48314
G1 X82.779 Y135.481 E21.56308
G1 X80.932 Y132.991 E21.67119
G1 X61.882 Y88.191 E23.36864
G1 X61.363 Y85.958 E23.44858
G1 X61.638 Y83.681 E23.52853
G1 X62.241 Y82.289 E23.58142
G1 X65.141 Y77.266 E23.78365
G1 X66.580 Y75.550 E23.86176
G1 X66.854 Y75.713 F7800.000
G1 X68.151 Y74.885 E23.91540 F1800.000
G1 X87.426 Y65.660 E24.66048
G1 X89.792 Y65.052 E24.74568
G1 X120.667 Y63.300 E25.82396
G1 X122.325 Y63.289 E25.88176
G1 X124.528 Y63.686 E25.95979
G1 X126.787 Y65.138 E26.05344 F1800.000
G1 X129.487 Y67.838 E26.18658
G1 X130.764 Y69.676 E26.26461
G1 X131.265 Y71.357 E26.32577
G1 X138.265 Y117.657 E27.95850
G1 X138.336 Y118.600 E27.99149
G1 X138.336 Y127.548 E28.30348
G1 X137.939 Y129.750 E28.38151
G1 X136.487 Y132.010 E28.47516
G1 X133.635 Y134.862 E28.61580
G1 X131.797 Y136.139 E28.69383
G1 X129.173 Y136.711 E28.78748
G1 X87.025 Y136.711 E30.25709
G1 X84.823 Y136.314 E30.33513
G1 X82.897 Y135.173 E30.41316
G1 X81.218 Y132.869 E30.51256
G1 X62.168 Y88.069 E32.21001
G1 X61.671 Y85.887 E32.28804
G1 X61.967 Y83.669 E32.36608
G1 X62.510 Y82.445 E32.41277
G1 X65.410 Y77.422 E32.61501
G1 X66.821 Y75.753 E32.69119
G1 E26.69119 F3600.00000
G92 E0
G1 X121.213 Y77.723 F7800.000
G1 E6.00000 F3600.00000
G1 X121.213 Y69.788 E6.27670 F1080.000
G1 X122.247 Y69.788 E6.31278
G1 X124.838 Y72.378 E6.44050
G1 X124.838 Y74.413 E6.51145
G1 X121.838 Y74.413 E6.61606
G1 X121.837 Y116.598 E8.08697
G1 X121.860 Y120.838 E8.23482
G1 X122.136 Y121.690 E8.26607
G1 X122.743 Y122.364 E8.29769
G1 X123.564 Y122.730 E8.32901
G1 X124.256 Y122.778 E8.35321
G1 X124.918 Y122.588 E8.37723
G1 X125.640 Y122.064 E8.40832
G1 X126.025 Y121.493 E8.43234
G1 X126.190 Y120.832 E8.45610
G1 X126.211 Y118.788 E8.52739
G1 X131.838 Y118.788 E8.72358
G1 X131.838 Y127.470 E9.02633
G1 X129.095 Y130.212 E9.16155
G1 X87.213 Y130.212 E10.62192
G1 X87.213 Y94.929 E11.85218
G1 X76.628 Y90.435 E12.25311
G1 X70.983 Y90.435 E12.44994
G1 X68.192 Y85.600 E12.64463
G1 X70.983 Y80.765 E12.83931
G1 X76.567 Y80.765 E13.03400
G1 X77.608 Y82.569 E13.10664
G1 X87.547 Y86.788 E13.48310
G1 X90.213 Y86.788 E13.57604
G1 X90.213 Y77.581 E13.89706
G1 X88.492 Y74.600 E14.01708
G1 X90.258 Y71.540 E14.14028
G1 X93.792 Y71.540 E14.26349
G1 X95.089 Y73.788 E14.35398
G1 X95.838 Y73.788 E14.38007
G1 X95.838 Y77.723 E14.51729
G1 X121.160 Y77.723 E15.40024
G1 X121.563 Y77.723 F7800.000
G1 X95.527 Y78.034 F7800.000
G1 X121.527 Y78.034 E16.30680 F1800.000
G1 X121.527 Y116.598 E17.65147
G1 X121.549 Y120.888 E17.80105
G1 X121.861 Y121.849 E17.83628
G1 X122.557 Y122.621 E17.87250
G1 X123.488 Y123.036 E17.90804
G1 X124.289 Y123.092 E17.93605
G1 X125.057 Y122.872 E17.96390
G1 X125.867 Y122.283 E17.99881
G1 X126.313 Y121.621 E18.02664
G1 X126.501 Y120.872 E18.05358
G1 X126.518 Y119.098 E18.11543
G1 X131.527 Y119.098 E18.29007
G1 X131.527 Y127.342 E18.57750
G1 X130.589 Y128.280 E18.62376
G1 X130.459 Y128.180 E18.62946
G1 X130.815 Y127.565 E18.65424
G1 X131.047 Y126.849 E18.68049
G1 X131.126 Y126.100 E18.70674
G1 X131.047 Y125.351 E18.73298
G1 X130.815 Y124.635 E18.75923
G1 X130.438 Y123.983 E18.78548
G1 X129.934 Y123.424 E18.81173
G1 X129.328 Y122.983 E18.83788
G1 X128.638 Y122.675 E18.86421
G1 X127.901 Y122.519 E18.89047
G1 X127.149 Y122.519 E18.91672
G1 X126.412 Y122.675 E18.94298
G1 X125.722 Y122.983 E18.96931
G1 X125.116 Y123.424 E18.99546
G1 X124.612 Y123.983 E19.02171
G1 X124.235 Y124.635 E19.04796
G1 X124.003 Y125.351 E19.07421
G1 X123.924 Y126.100 E19.10046
G1 X124.003 Y126.849 E19.12670
G1 X124.235 Y127.565 E19.15295
G1 X124.612 Y128.217 E19.17920
G1 X125.116 Y128.776 E19.20545
G1 X125.722 Y129.217 E19.23160
G1 X126.412 Y129.525 E19.25793
G1 X127.149 Y129.681 E19.28419
G1 X127.901 Y129.681 E19.31044
G1 X128.638 Y129.525 E19.33670
G1 X129.328 Y129.217 E19.36303
G1 X129.624 Y129.001 E19.37581
G1 X129.736 Y129.132 E19.38181
G1 X128.967 Y129.902 E19.41976
G1 X87.523 Y129.902 E20.86480
G1 X87.523 Y94.724 E22.09140
G1 X76.692 Y90.125 E22.50170
G1 X71.163 Y90.125 E22.69449
G1 X68.550 Y85.600 E22.87667
G1 X71.163 Y81.075 E23.05884
G1 X76.387 Y81.075 E23.24102
G1 X77.391 Y82.814 E23.31104
G1 X87.484 Y87.098 E23.69333
G1 X90.523 Y87.098 E23.79930
G1 X90.523 Y77.498 E24.13405
G1 X88.850 Y74.600 E24.25072
G1 X90.438 Y71.851 E24.36142
G1 X93.612 Y71.851 E24.47212
G1 X94.910 Y74.098 E24.56261
G1 X95.527 Y74.098 E24.58412
G1 X95.527 Y77.981 E24.71951
G1 E18.71951 F3600.00000
G92 E0
G1 X75.674 Y85.211 F7800.000
G1 E6.00000 F3600.00000
G1 X75.694 Y85.773 E6.01961 F1200.000
G1 X75.553 Y86.374 E6.04115
G1 X75.206 Y86.896 E6.06300
G1 X74.561 Y87.365 E6.09079
G1 X73.789 Y87.532 E6.11833
G1 X72.976 Y87.359 E6.14732
G1 X72.339 Y86.892 E6.17486
G1 X71.937 Y86.197 E6.20286
G1 X71.854 Y85.404 E6.23066
G1 X72.010 Y84.798 E6.25248
G1 X72.354 Y84.293 E6.27380
G1 X72.976 Y83.841 E6.30059
G1 X73.745 Y83.671 E6.32807 F1200.000
G1 X74.526 Y83.824 E6.35579
G1 X75.061 Y84.149 E6.37762
G1 X75.446 Y84.635 E6.39926
G1 X75.655 Y85.162 E6.41903
G1 X76.000 Y85.339 F7800.000
G1 X75.985 Y85.200 F7800.000
G1 X76.006 Y85.804 E6.44009 F1200.000
G1 X75.842 Y86.500 E6.46503
G1 X75.434 Y87.115 E6.49078
G1 X74.691 Y87.655 E6.52279
G1 X73.790 Y87.850 E6.55494
G1 X72.846 Y87.649 E6.58857
G1 X72.103 Y87.104 E6.62072
G1 X71.635 Y86.295 E6.65330
G1 X71.539 Y85.381 E6.68535
G1 X71.722 Y84.668 E6.71102
G1 X72.128 Y84.073 E6.73612
G1 X72.846 Y83.552 E6.76705
G1 X73.742 Y83.354 E6.79905 F1200.000
G1 X74.639 Y83.530 E6.83095
G1 X75.270 Y83.912 E6.85664
G1 X75.718 Y84.478 E6.88183
G1 X75.983 Y85.148 E6.90694
G1 E0.90694 F3600.00000
G92 E0
G1 X90.481 Y75.725 F7800.000
G1 E6.00000 F3600.00000
G1 X90.286 Y75.329 E6.01536 F1200.000
G1 X90.128 Y74.637 E6.04014
G1 X90.207 Y74.022 E6.06175
G1 X90.487 Y73.494 E6.08260
G1 X90.973 Y73.018 E6.10631
G1 X91.534 Y72.766 E6.12777
G1 X91.647 Y72.756 E6.13170
G1 X92.044 Y72.694 E6.14571 F1200.000
G1 X92.558 Y72.774 E6.16386
G1 X93.085 Y73.024 E6.18418
G1 X93.614 Y73.561 E6.21048
G1 X93.853 Y74.086 E6.23058
G1 X93.935 Y74.600 E6.24875
G1 X93.851 Y75.123 E6.26721
G1 X93.639 Y75.589 E6.28506
G1 X93.563 Y75.706 E6.28993
G1 X93.083 Y76.177 E6.31337
G1 X92.614 Y76.417 E6.33176
G1 X92.069 Y76.492 E6.35092
G1 X91.438 Y76.418 E6.37308
G1 X90.967 Y76.176 E6.39155
G1 X90.519 Y75.761 E6.41285
G1 X90.131 Y75.744 F7800.000
G1 X90.269 Y75.953 F7800.000
G1 X90.227 Y75.913 E6.41486 F1200.000
G1 X89.992 Y75.434 E6.43349
G1 X89.813 Y74.652 E6.46146
G1 X89.905 Y73.930 E6.48683
G1 X90.143 Y73.454 E6.50537
G1 X90.245 Y73.296 E6.51194
G1 X90.795 Y72.757 E6.53879
G1 X91.456 Y72.461 E6.56403
G1 X91.609 Y72.448 E6.56941
G1 X92.044 Y72.379 E6.58474 F1200.000
G1 X92.650 Y72.475 E6.60615
G1 X93.267 Y72.767 E6.62995
G1 X93.874 Y73.382 E6.66009
G1 X94.153 Y73.995 E6.68358
G1 X94.249 Y74.600 E6.70494
G1 X94.151 Y75.214 E6.72660
G1 X93.912 Y75.738 E6.74671
G1 X93.805 Y75.904 E6.75357
G1 X93.267 Y76.432 E6.77986
G1 X92.708 Y76.718 E6.80175
G1 X92.072 Y76.805 E6.82413
G1 X91.346 Y76.720 E6.84963
G1 X90.787 Y76.433 E6.87154
G1 X90.308 Y75.988 E6.89433
G1 X115.391 Y122.539 F7800.000
G1 X115.945 Y122.251 E6.91612 F1200.000
G1 X116.503 Y122.172 E6.93576 F1200.000
G1 X117.310 Y122.334 E6.96445
G1 X117.961 Y122.807 E6.99249
G1 X118.358 Y123.489 E7.02001
G1 X118.446 Y124.267 E7.04730
G1 X118.291 Y124.902 E7.07011
G1 X117.934 Y125.416 E7.09192
G1 X117.341 Y125.847 E7.11747
G1 X116.743 Y126.027 E7.13925
G1 X116.118 Y125.987 E7.16109
G1 X115.400 Y125.671 E7.18844
G1 X114.839 Y125.039 E7.21790
G1 X114.604 Y124.273 E7.24585
G1 X114.681 Y123.538 E7.27163
G1 X114.944 Y122.978 E7.29319
G1 X115.353 Y122.575 E7.31320
G1 X115.371 Y122.189 F7800.000
G1 X115.245 Y122.265 F7800.000
G1 X115.859 Y121.949 E7.33727 F1200.000
G1 X116.512 Y121.857 E7.36028 F1200.000
G1 X117.438 Y122.043 E7.39318
G1 X118.196 Y122.594 E7.42587
G1 X118.659 Y123.389 E7.45794
G1 X118.761 Y124.287 E7.48944
G1 X118.579 Y125.032 E7.51619
G1 X118.159 Y125.636 E7.54185
G1 X117.481 Y126.129 E7.57107
G1 X116.779 Y126.340 E7.59663
G1 X116.043 Y126.294 E7.62234
G1 X115.213 Y125.928 E7.65399
G1 X114.562 Y125.195 E7.68816
G1 X114.288 Y124.304 E7.72068
G1 X114.377 Y123.453 E7.75050
G1 X114.683 Y122.805 E7.77549
G1 X115.200 Y122.291 E7.80090
G1 X95.814 Y124.100 F7800.000
G1 X95.742 Y124.784 E7.82487 F1200.000
G1 X95.529 Y125.438 E7.84884
G1 X95.185 Y126.033 E7.87281
G1 X94.725 Y126.544 E7.89678
G1 X94.171 Y126.946 E7.92066
G1 X93.541 Y127.228 E7.94472
G1 X92.869 Y127.371 E7.96870
G1 X92.181 Y127.371 E7.99267
G1 X91.509 Y127.228 E8.01664
G1 X90.879 Y126.946 E8.04070
G1 X90.325 Y126.544 E8.06458
G1 X89.865 Y126.033 E8.08855
G1 X89.520 Y125.437 E8.11256
G1 X89.305 Y124.751 E8.13763
G1 X89.236 Y124.100 E8.16044
G1 X89.308 Y123.416 E8.18441
G1 X89.521 Y122.762 E8.20839
G1 X89.865 Y122.167 E8.23236
G1 X90.325 Y121.656 E8.25633
G1 X90.879 Y121.254 E8.28020
G1 X91.509 Y120.972 E8.30427
G1 X92.181 Y120.829 E8.32824
G1 X92.869 Y120.829 E8.35221 F1200.000
G1 X93.541 Y120.972 E8.37619
G1 X94.171 Y121.254 E8.40025
G1 X94.725 Y121.656 E8.42412
G1 X95.185 Y122.167 E8.44810
G1 X95.530 Y122.763 E8.47210
G1 X95.745 Y123.449 E8.49718
G1 X95.808 Y124.048 E8.51816
G1 X96.110 Y124.285 F7800.000
G1 X96.122 Y124.068 F7800.000
G1 X96.047 Y124.849 E8.54552 F1200.000
G1 X95.815 Y125.565 E8.57177
G1 X95.438 Y126.217 E8.59801
G1 X94.934 Y126.776 E8.62426
G1 X94.328 Y127.217 E8.65041
G1 X93.638 Y127.525 E8.67675
G1 X92.901 Y127.681 E8.70300
G1 X92.149 Y127.681 E8.72925
G1 X91.412 Y127.525 E8.75551
G1 X90.722 Y127.217 E8.78185
G1 X90.116 Y126.776 E8.80799
G1 X89.612 Y126.217 E8.83424
G1 X89.234 Y125.562 E8.86058
G1 X88.999 Y124.814 E8.88793
G1 X88.924 Y124.100 E8.91296
G1 X89.003 Y123.351 E8.93921
G1 X89.235 Y122.635 E8.96546
G1 X89.612 Y121.983 E8.99171
G1 X90.116 Y121.424 E9.01796
G1 X90.722 Y120.983 E9.04410
G1 X91.412 Y120.675 E9.07044
G1 X92.149 Y120.519 E9.09670
G1 X92.901 Y120.519 E9.12295 F1200.000
G1 X93.638 Y120.675 E9.14920
G1 X94.328 Y120.983 E9.17554
G1 X94.934 Y121.424 E9.20169
G1 X95.438 Y121.983 E9.22794
G1 X95.816 Y122.638 E9.25427
G1 X96.051 Y123.386 E9.28163
G1 X96.117 Y124.015 E9.30369
G1 E3.30369 F3600.00000
G92 E0
G1 X121.523 Y74.102 F7800.000
G1 E6.00000 F3600.00000
G1 X121.523 Y70.098 E6.13960 F1200.000
G1 X122.119 Y70.098 E6.16037
G1 X124.527 Y72.506 E6.27912
G1 X124.527 Y74.102 E6.33475
G1 X121.576 Y74.102 E6.43766
G1 E0.43766 F3600.00000
G92 E0
G1 X127.181 Y122.829 F7800.000
G1 E6.00000 F3600.00000
G1 X127.869 Y122.829 E6.02397 F1200.000
G1 X128.541 Y122.972 E6.04795
G1 X129.171 Y123.254 E6.07201
G1 X129.725 Y123.656 E6.09588
G1 X130.185 Y124.167 E6.11985
G1 X130.529 Y124.762 E6.14382
G1 X130.742 Y125.416 E6.16780
G1 X130.814 Y126.100 E6.19177
G1 X130.742 Y126.784 E6.21574
G1 X130.529 Y127.438 E6.23971
G1 X130.185 Y128.033 E6.26368
G1 X129.725 Y128.544 E6.28765
G1 X129.171 Y128.946 E6.31153
G1 X128.541 Y129.228 E6.33559
G1 X127.869 Y129.371 E6.35957
G1 X127.181 Y129.371 E6.38354
G1 X126.509 Y129.228 E6.40751
G1 X125.879 Y128.946 E6.43157
G1 X125.325 Y128.544 E6.45545
G1 X124.864 Y128.033 E6.47942
G1 X124.521 Y127.438 E6.50339
G1 X124.308 Y126.784 E6.52736
G1 X124.236 Y126.100 E6.55134
G1 X124.308 Y125.416 E6.57531
G1 X124.521 Y124.762 E6.59928
G1 X124.864 Y124.167 E6.62325
G1 X125.325 Y123.656 E6.64722
G1 X125.879 Y123.254 E6.67110
G1 X126.509 Y122.972 E6.69516
G1 X127.130 Y122.840 E6.71730
G1 X127.335 Y122.515 F7800.000
G1 X126.578 Y122.471 F7800.000
G1 X126.398 Y122.291 E6.72656 F1500.000
G1 X126.372 Y121.806 E6.74421
G1 X126.956 Y122.390 E6.77426
G1 X127.365 Y122.341 E6.78925
G1 X126.515 Y121.491 E6.83299
G1 X126.607 Y121.124 E6.84675
G1 X127.823 Y122.341 E6.90936
G1 X128.360 Y122.419 E6.92908
G1 X126.679 Y120.738 E7.01555
G1 X126.684 Y120.284 E7.03207
G1 X129.010 Y122.611 E7.15179
G1 X131.277 Y124.419 F7800.000
G1 X126.688 Y119.831 E7.38791 F1500.000
G1 X126.693 Y119.377 E7.40443
G1 X131.349 Y124.032 E7.64402
G1 X131.349 Y123.574 E7.66070
G1 X127.051 Y119.276 E7.88187
G1 X127.509 Y119.276 E7.89855
G1 X131.349 Y123.116 E8.09613
G1 X131.349 Y122.657 E8.11281
G1 X127.968 Y119.276 E8.28679
G1 X128.426 Y119.276 E8.30347
G1 X131.349 Y122.199 E8.45386
G1 X131.349 Y121.740 E8.47055
G1 X128.885 Y119.276 E8.59735
G1 X129.343 Y119.276 E8.61403
G1 X131.349 Y121.282 E8.71724
G1 X131.349 Y120.823 E8.73392
G1 X129.802 Y119.276 E8.81353
G1 X130.260 Y119.276 E8.83021
G1 X131.349 Y120.365 E8.88624
G1 X131.349 Y119.906 E8.90292
G1 X130.719 Y119.276 E8.93535
G1 X131.177 Y119.276 E8.95203
G1 X131.349 Y119.448 E8.96088
G1 X131.175 Y124.606 F7800.000
G1 X131.277 Y125.248 E9.01092 F600.000
G1 X131.282 Y125.247 F7800.000
G1 X131.327 Y126.095 E9.04055 F600.000
G1 X131.284 Y126.908 E9.06893
G1 X131.234 Y127.220 E9.07995
G1 X130.916 Y127.719 E9.10056
G1 X130.420 Y128.346 F7800.000
G1 X129.814 Y128.984 E9.16832 F600.000
G1 X126.614 Y129.736 F7800.000
G1 X126.348 Y129.708 E9.17763 F600.000
G1 X125.663 Y129.562 E9.20205
G1 E3.20205 F3600.00000
G92 E0
G1 X124.775 Y123.301 F7800.000
G1 E6.00000 F3600.00000
G1 X125.176 Y123.083 E6.01592 F600.000
G1 X125.594 Y122.779 E6.03393
G1 X125.833 Y122.640 E6.04357
G1 X125.943 Y122.431 F7800.000
G1 X125.766 Y122.615 E6.05246 F600.000
G1 X125.727 Y122.701 E6.05577
G1 X125.823 Y122.703 E6.05910
G1 X126.272 Y122.557 E6.07560
G1 X124.034 Y123.257 F7800.000
G1 X124.575 Y123.798 E6.10230 F1500.000
G1 X124.393 Y124.055 E6.11329
G1 X123.562 Y123.224 E6.15429
G1 X122.905 Y123.007 E6.17843
G1 X124.232 Y124.334 E6.24389
G1 X124.073 Y124.614 E6.25514
G1 X86.268 Y86.809 E8.12012
G1 X85.504 Y86.485 F7800.000
G1 X123.965 Y124.946 E10.01744 F1500.000
G1 X117.328 Y121.825 F7800.000
G1 X79.395 Y83.892 E11.88871 F1500.000
G1 X78.632 Y83.568 F7800.000
G1 X116.778 Y121.715 E13.77052 F1500.000
G1 X116.335 Y121.711 E13.78597
G1 X77.868 Y83.244 E15.68359
G1 X76.726 Y82.102 F7800.000
G1 X75.878 Y81.253 E15.72545 F1500.000
G1 X75.438 Y81.253 E15.74078
G1 X115.950 Y121.765 E17.73926
G1 X115.635 Y121.890 E17.75108
G1 X74.999 Y81.253 E19.75570
G1 X74.559 Y81.253 E19.77103
G1 X115.345 Y122.039 E21.78303
G1 X115.072 Y122.206 E21.79418
