; generated by Slic3r 1.3.0-dev on 2018-06-22 at 11:26:20

; external perimeters extrusion width = 0.40mm (2.57mm^3/s)
; perimeters extrusion width = 0.67mm (7.54mm^3/s)
; infill extrusion width = 0.67mm (7.54mm^3/s)
; solid infill extrusion width = 0.24mm (1.97mm^3/s)
; top infill extrusion width = 0.67mm (3.77mm^3/s)

M190 S70 ; set bed temperature and wait for it to be reached
M104 S245 ; set temperature
G28 ; home all axes

; Filament gcode

M109 S245 ; set temperature and wait for it to be reached
G21 ; set units to millimeters
G90 ; use absolute coordinates
M82 ; use absolute distances for extrusion
G92 E0
M106 S255
G1 Z0.200 F7800.000
G1 E-6.00000 F3600.00000
G92 E0
G1 X69.845 Y92.480 F7800.000
G1 E6.00000 F3600.00000
G1 F1800
G1 X71.088 Y91.629 E6.02593
G1 X74.088 Y89.826 E6.08620
G1 X76.228 Y89.002 E6.12568
G1 X77.500 Y88.879 E6.14769
G1 X122.500 Y88.879 E6.92253
G1 X124.758 Y89.276 E6.96201
G1 X125.912 Y89.826 E6.98402
G1 X128.912 Y91.629 E7.04429
G1 X130.155 Y92.480 E7.07022
G1 X131.038 Y93.221 E7.09007
G1 X131.778 Y93.961 E7.10810
G1 X132.520 Y94.845 E7.12798
G1 X133.121 Y95.703 E7.14600
G1 X133.697 Y96.701 E7.16584
G1 X134.139 Y97.650 E7.18387
G1 X134.534 Y98.734 E7.20374
G1 X134.804 Y99.744 E7.22175
G1 X135.005 Y100.881 E7.24162
G1 X135.096 Y101.923 E7.25963
G1 X135.096 Y103.075 E7.27947
G1 X135.005 Y104.119 E7.29751
G1 X134.805 Y105.255 E7.31738
G1 X134.548 Y106.214 E7.33446
G1 X133.580 Y108.292 E7.37394
G1 X131.961 Y109.916 E7.41342
G1 X129.886 Y110.890 E7.45290
G1 X128.152 Y111.121 E7.48301
G1 X71.848 Y111.121 E8.45250
G1 X69.590 Y110.724 E8.49198
G1 X67.602 Y109.581 E8.53146
G1 X66.124 Y107.828 E8.57094
G1 X65.452 Y106.214 E8.60105
G1 X65.195 Y105.255 E8.61814
G1 X64.995 Y104.119 E8.63800
G1 X64.905 Y103.084 E8.65590
G1 X64.904 Y101.923 E8.67588
G1 X64.995 Y100.880 E8.69392
G1 X65.196 Y99.744 E8.71377
G1 X65.465 Y98.740 E8.73166
G1 X65.861 Y97.650 E8.75165
G1 X66.303 Y96.701 E8.76967
G1 X66.880 Y95.702 E8.78953
G1 X67.480 Y94.845 E8.80754
G1 X68.222 Y93.961 E8.82741
G1 X68.961 Y93.222 E8.84542
G1 X69.800 Y92.518 E8.86426
G1 X69.964 Y92.650 F7800.000
G1 F1800
G1 X71.195 Y91.807 E8.88994
G1 X74.195 Y90.003 E8.95022
G1 X76.303 Y89.199 E8.98907
G1 X77.500 Y89.086 E9.00977
G1 X122.500 Y89.086 E9.78462
G1 X124.721 Y89.483 E9.82347
G1 X125.805 Y90.003 E9.84417
G1 X128.805 Y91.807 E9.90445
G1 X130.036 Y92.650 E9.93013
G1 X130.891 Y93.367 E9.94935
G1 X131.632 Y94.108 E9.96739
G1 X132.350 Y94.964 E9.98664
G1 X132.951 Y95.822 E10.00467
G1 X133.509 Y96.788 E10.02388
G1 X133.951 Y97.737 E10.04191
G1 X134.334 Y98.788 E10.06116
G1 X134.604 Y99.798 E10.07917
G1 X134.799 Y100.899 E10.09842
G1 X134.890 Y101.941 E10.11643
G1 X134.890 Y103.057 E10.13565
G1 X134.799 Y104.101 E10.15369
G1 X134.605 Y105.202 E10.17293
G1 X134.348 Y106.160 E10.19002
G1 X133.389 Y108.203 E10.22887
G1 X131.783 Y109.787 E10.26772
G1 X129.727 Y110.718 E10.30658
G1 X128.152 Y110.914 E10.33391
G1 X71.848 Y110.914 E11.30340
G1 X69.627 Y110.517 E11.34225
G1 X67.680 Y109.376 E11.38110
G1 X66.250 Y107.631 E11.41996
G1 X65.652 Y106.160 E11.44729
G1 X65.395 Y105.202 E11.46438
G1 X65.201 Y104.101 E11.48362
G1 X65.111 Y103.066 E11.50152
G1 X65.110 Y101.941 E11.52088
G1 X65.202 Y100.898 E11.53891
G1 X65.396 Y99.798 E11.55814
G1 X65.665 Y98.794 E11.57604
G1 X66.049 Y97.737 E11.59540
G1 X66.491 Y96.789 E11.61342
G1 X67.050 Y95.821 E11.63266
G1 X67.650 Y94.964 E11.65067
G1 X68.368 Y94.108 E11.66992
G1 X69.108 Y93.368 E11.68793
G1 X69.918 Y92.688 E11.70615
G1 X70.083 Y92.819 F7800.000
G1 F1800
G1 X71.301 Y91.984 E11.73158
G1 X74.301 Y90.180 E11.79185
G1 X76.377 Y89.395 E11.83007
G1 X77.500 Y89.293 E11.84948
G1 X122.500 Y89.293 E12.62432
G1 X124.684 Y89.690 E12.66254
G1 X125.699 Y90.180 E12.68195
G1 X128.699 Y91.984 E12.74223
G1 X129.917 Y92.819 E12.76766
G1 X130.745 Y93.514 E12.78627
G1 X131.485 Y94.254 E12.80430
G1 X132.181 Y95.083 E12.82293
G1 X132.781 Y95.941 E12.84095
G1 X133.321 Y96.876 E12.85955
G1 X133.764 Y97.825 E12.87757
G1 X134.134 Y98.841 E12.89620
G1 X134.404 Y99.852 E12.91421
G1 X134.592 Y100.917 E12.93284
G1 X134.683 Y101.959 E12.95085
G1 X134.684 Y103.039 E12.96945
G1 X134.592 Y104.083 E12.98749
G1 X134.405 Y105.148 E13.00611
G1 X134.148 Y106.107 E13.02320
G1 X133.199 Y108.113 E13.06142
G1 X131.606 Y109.658 E13.09963
G1 X129.570 Y110.543 E13.13785
G1 X128.152 Y110.707 E13.16243
G1 X71.848 Y110.707 E14.13192
G1 X69.664 Y110.310 E14.17013
G1 X67.760 Y109.171 E14.20835
G1 X66.378 Y107.434 E14.24656
G1 X65.852 Y106.107 E14.27115
G1 X65.595 Y105.148 E14.28823
G1 X65.408 Y104.083 E14.30686
G1 X65.317 Y103.046 E14.32478
G1 X65.317 Y101.959 E14.34349
G1 X65.408 Y100.916 E14.36152
G1 X65.596 Y99.852 E14.38013
G1 X65.865 Y98.848 E14.39803
G1 X66.236 Y97.825 E14.41677
G1 X66.679 Y96.876 E14.43479
G1 X67.219 Y95.940 E14.45341
G1 X67.819 Y95.083 E14.47142
G1 X68.515 Y94.254 E14.49005
G1 X69.254 Y93.515 E14.50806
G1 X70.037 Y92.858 E14.52565
G1 E8.52565 F3600.00000
G92 E0
G1 X116.839 Y98.875 F7800.000
G1 E6.00000 F3600.00000
G1 F1080
G1 X83.161 Y98.875 E6.57989
G1 X83.161 Y101.016 E6.61676
G1 X83.285 Y101.480 E6.62502
G1 X83.375 Y102.500 E6.64266
G1 X83.285 Y103.520 E6.66029
G1 X83.056 Y104.375 E6.67553
G1 X81.160 Y104.375 E6.70817
G1 X81.377 Y103.911 E6.71699
G1 X81.563 Y103.216 E6.72937
G1 X81.625 Y102.500 E6.74175
G1 X81.563 Y101.784 E6.75413
G1 X81.377 Y101.089 E6.76652
G1 X81.073 Y100.437 E6.77890
G1 X80.660 Y99.848 E6.79128
G1 X80.152 Y99.340 E6.80366
G1 X79.563 Y98.927 E6.81605
G1 X78.911 Y98.623 E6.82843
G1 X78.216 Y98.437 E6.84081
G1 X77.500 Y98.375 E6.85319
G1 X76.784 Y98.437 E6.86558
G1 X76.089 Y98.623 E6.87796
G1 X75.437 Y98.927 E6.89034
G1 X74.848 Y99.340 E6.90272
G1 X74.340 Y99.848 E6.91510
G1 X73.927 Y100.437 E6.92749
G1 X73.623 Y101.089 E6.93987
G1 X73.437 Y101.784 E6.95225
G1 X73.375 Y102.500 E6.96463
G1 X73.437 Y103.216 E6.97702
G1 X73.623 Y103.911 E6.98940
G1 X73.840 Y104.375 E6.99821
G1 X71.944 Y104.375 E7.03086
G1 X71.715 Y103.520 E7.04610
G1 X71.625 Y102.500 E7.06373
G1 X71.715 Y101.480 E7.08136
G1 X71.978 Y100.497 E7.09888
G1 X72.413 Y99.563 E7.11663
G1 X73.000 Y98.724 E7.13426
G1 X73.724 Y98.000 E7.15189
G1 X74.563 Y97.413 E7.16952
G1 X75.491 Y96.980 E7.18715
G1 X76.524 Y96.703 E7.20558
G1 X77.553 Y95.625 E7.23124
G1 X122.453 Y95.632 E8.00435
G1 X123.476 Y96.703 E8.02985
G1 X124.509 Y96.980 E8.04827
G1 X125.437 Y97.413 E8.06590
G1 X126.276 Y98.000 E8.08354
G1 X127.000 Y98.724 E8.10117
G1 X127.587 Y99.563 E8.11880
G1 X128.020 Y100.491 E8.13643
G1 X128.285 Y101.480 E8.15406
G1 X128.375 Y102.500 E8.17170
G1 X128.285 Y103.520 E8.18933
G1 X128.056 Y104.375 E8.20457
G1 X126.160 Y104.375 E8.23721
G1 X126.377 Y103.911 E8.24603
G1 X126.563 Y103.216 E8.25841
G1 X126.625 Y102.500 E8.27079
G1 X126.563 Y101.784 E8.28317
G1 X126.377 Y101.089 E8.29556
G1 X126.073 Y100.437 E8.30794
G1 X125.660 Y99.848 E8.32032
G1 X125.152 Y99.340 E8.33270
G1 X124.563 Y98.927 E8.34509
G1 X123.911 Y98.623 E8.35747
G1 X123.216 Y98.437 E8.36985
G1 X122.500 Y98.375 E8.38223
G1 X121.784 Y98.437 E8.39462
G1 X121.089 Y98.623 E8.40700
G1 X120.437 Y98.927 E8.41938
G1 X119.848 Y99.340 E8.43176
G1 X119.340 Y99.848 E8.44414
G1 X118.927 Y100.437 E8.45653
G1 X118.623 Y101.089 E8.46891
G1 X118.437 Y101.784 E8.48129
G1 X118.375 Y102.500 E8.49367
G1 X118.437 Y103.216 E8.50606
G1 X118.623 Y103.911 E8.51844
G1 X118.840 Y104.375 E8.52725
G1 X116.944 Y104.375 E8.55990
G1 X116.715 Y103.520 E8.57514
G1 X116.625 Y102.500 E8.59277
G1 X116.715 Y101.480 E8.61040
G1 X116.839 Y101.016 E8.61866
G1 X116.839 Y98.935 E8.65450
G1 X116.845 Y98.475 F7800.000
G1 X117.046 Y98.668 F7800.000
G1 F1800
G1 X82.954 Y98.668 E9.24152
G1 X82.954 Y101.044 E9.28243
G1 X83.081 Y101.516 E9.29085
G1 X83.167 Y102.500 E9.30786
G1 X83.081 Y103.484 E9.32487
G1 X82.897 Y104.168 E9.33706
G1 X81.485 Y104.168 E9.36137
G1 X81.572 Y103.982 E9.36490
G1 X81.768 Y103.252 E9.37791
G1 X81.833 Y102.500 E9.39091
G1 X81.768 Y101.748 E9.40392
G1 X81.572 Y101.018 E9.41693
G1 X81.253 Y100.333 E9.42993
G1 X80.820 Y99.715 E9.44294
G1 X80.285 Y99.180 E9.45595
G1 X79.667 Y98.747 E9.46895
G1 X78.982 Y98.428 E9.48196
G1 X78.252 Y98.232 E9.49496
G1 X77.500 Y98.167 E9.50797
G1 X76.748 Y98.232 E9.52098
G1 X76.018 Y98.428 E9.53398
G1 X75.333 Y98.747 E9.54699
G1 X74.715 Y99.180 E9.56000
G1 X74.180 Y99.715 E9.57300
G1 X73.747 Y100.333 E9.58601
G1 X73.428 Y101.018 E9.59901
G1 X73.232 Y101.748 E9.61202
G1 X73.167 Y102.500 E9.62503
G1 X73.232 Y103.252 E9.63803
G1 X73.428 Y103.982 E9.65104
G1 X73.515 Y104.168 E9.65457
G1 X72.103 Y104.168 E9.67888
G1 X71.919 Y103.484 E9.69107
G1 X71.833 Y102.500 E9.70808
G1 X71.919 Y101.516 E9.72509
G1 X72.173 Y100.568 E9.74199
G1 X72.593 Y99.667 E9.75911
G1 X73.159 Y98.858 E9.77611
G1 X73.858 Y98.159 E9.79312
G1 X74.667 Y97.593 E9.81013
G1 X75.562 Y97.175 E9.82714
G1 X76.634 Y96.888 E9.84625
G1 X77.642 Y95.832 E9.87138
G1 X122.364 Y95.839 E10.64144
G1 X123.366 Y96.888 E10.66642
G1 X124.438 Y97.175 E10.68553
G1 X125.333 Y97.593 E10.70254
G1 X126.142 Y98.159 E10.71954
G1 X126.841 Y98.858 E10.73655
G1 X127.407 Y99.667 E10.75356
G1 X127.825 Y100.562 E10.77057
G1 X128.081 Y101.516 E10.78758
G1 X128.167 Y102.500 E10.80458
G1 X128.081 Y103.484 E10.82159
G1 X127.897 Y104.168 E10.83378
G1 X126.485 Y104.168 E10.85810
G1 X126.572 Y103.982 E10.86163
G1 X126.768 Y103.252 E10.87463
G1 X126.833 Y102.500 E10.88764
G1 X126.768 Y101.748 E10.90065
G1 X126.572 Y101.018 E10.91365
G1 X126.253 Y100.333 E10.92666
G1 X125.820 Y99.715 E10.93966
G1 X125.285 Y99.180 E10.95267
G1 X124.667 Y98.747 E10.96568
G1 X123.982 Y98.428 E10.97868
G1 X123.252 Y98.232 E10.99169
G1 X122.500 Y98.167 E11.00470
G1 X121.748 Y98.232 E11.01770
G1 X121.018 Y98.428 E11.03071
G1 X120.333 Y98.747 E11.04371
G1 X119.715 Y99.180 E11.05672
G1 X119.180 Y99.715 E11.06973
G1 X118.747 Y100.333 E11.08273
G1 X118.428 Y101.018 E11.09574
G1 X118.232 Y101.748 E11.10874
G1 X118.167 Y102.500 E11.12175
G1 X118.232 Y103.252 E11.13476
G1 X118.428 Y103.982 E11.14776
G1 X118.515 Y104.168 E11.15129
G1 X117.103 Y104.168 E11.17561
G1 X116.919 Y103.484 E11.18780
G1 X116.833 Y102.500 E11.20481
G1 X116.919 Y101.516 E11.22181
G1 X117.046 Y101.044 E11.23023
G1 X117.046 Y98.728 E11.27011
G1 E5.27011 F3600.00000
G92 E0
G1 X117.178 Y101.291 F7800.000
G1 E6.00000 F3600.00000
G1 F1500
G1 X117.102 Y101.574 E6.00507
G1 X117.094 Y101.669 E6.00672
G1 X118.668 Y100.095 E6.04520
G1 X118.589 Y100.207 E6.04758
G1 X118.362 Y100.695 E6.05688
G1 X117.066 Y101.991 E6.08856
G1 X117.037 Y102.313 E6.09415
G1 X118.192 Y101.159 E6.12237
G1 X118.084 Y101.561 E6.12956
G1 X117.028 Y102.617 E6.15540
G1 X117.051 Y102.888 E6.16009
G1 X118.031 Y101.908 E6.18403
G1 X118.002 Y102.230 E6.18962
G1 X117.075 Y103.158 E6.21230
G1 X117.099 Y103.428 E6.21699
G1 X117.986 Y102.541 E6.23869
G1 X118.010 Y102.811 E6.24338
G1 X117.155 Y103.666 E6.26429
G1 X117.217 Y103.898 E6.26844
G1 X118.034 Y103.081 E6.28840
G1 X118.069 Y103.340 E6.29291
G1 X117.426 Y103.983 E6.30863
G1 X117.720 Y103.983 E6.31371
G1 X118.131 Y103.571 E6.32377
G1 X118.194 Y103.803 E6.32792
G1 X118.014 Y103.983 E6.33231
G1 E0.33231 F3600.00000
G92 E0
G1 X127.716 Y103.983 F7800.000
G1 E6.00000 F3600.00000
G1 F1500
G1 X127.760 Y103.939 E6.00108
G1 X127.868 Y103.537 E6.00827
G1 X127.422 Y103.983 E6.01916
G1 X127.128 Y103.983 E6.02425
G1 X127.918 Y103.193 E6.04356
G1 X127.946 Y102.871 E6.04915
G1 X126.834 Y103.983 E6.07633
G1 X126.770 Y103.983 E6.07744
G1 X126.854 Y103.669 E6.08306
G1 X127.975 Y102.549 E6.11045
G1 X127.962 Y102.267 E6.11533
G1 X126.953 Y103.276 E6.13999
G1 X126.981 Y102.954 E6.14558
G1 X127.939 Y101.996 E6.16898
G1 X127.915 Y101.726 E6.17368
G1 X127.010 Y102.631 E6.19581
G1 X127.004 Y102.343 E6.20079
G1 X127.881 Y101.466 E6.22223
G1 X127.819 Y101.234 E6.22638
G1 X126.980 Y102.073 E6.24688
G1 X126.956 Y101.803 E6.25157
G1 X127.756 Y101.003 E6.27113
G1 X127.694 Y100.771 E6.27528
G1 X126.904 Y101.561 E6.29460
G1 X126.842 Y101.329 E6.29875
G1 X127.622 Y100.549 E6.31783
G1 X127.529 Y100.348 E6.32166
G1 X126.780 Y101.097 E6.33997
G1 X126.704 Y100.879 E6.34396
G1 X127.435 Y100.148 E6.36185
G1 X127.342 Y99.947 E6.36568
G1 X126.610 Y100.679 E6.38357
G1 X126.517 Y100.478 E6.38739
G1 X127.248 Y99.747 E6.40527
G1 X127.127 Y99.574 E6.40892
G1 X126.423 Y100.278 E6.42613
G1 X126.306 Y100.101 E6.42980
G1 X127.006 Y99.401 E6.44692
G1 X126.885 Y99.228 E6.45057
G1 X126.185 Y99.928 E6.46769
G1 X126.064 Y99.755 E6.47134
G1 X126.764 Y99.055 E6.48845
G1 X126.630 Y98.895 E6.49206
G1 X125.939 Y99.586 E6.50894
G1 X125.792 Y99.439 E6.51253
G1 X126.483 Y98.748 E6.52941
G1 X126.336 Y98.601 E6.53300
G1 X125.645 Y99.292 E6.54988
G1 X125.498 Y99.145 E6.55347
G1 X126.189 Y98.454 E6.57035
G1 X126.042 Y98.307 E6.57394
G1 X125.343 Y99.006 E6.59101
G1 X125.170 Y98.885 E6.59466
G1 X125.871 Y98.184 E6.61178
G1 X125.698 Y98.063 E6.61543
G1 X124.998 Y98.763 E6.63255
G1 X124.825 Y98.642 E6.63620
G1 X125.525 Y97.942 E6.65332
G1 X125.352 Y97.821 E6.65697
G1 X124.636 Y98.537 E6.67447
G1 X124.436 Y98.443 E6.67829
G1 X125.167 Y97.711 E6.69618
G1 X124.967 Y97.618 E6.70000
G1 X124.235 Y98.350 E6.71789
G1 X124.035 Y98.256 E6.72172
G1 X124.766 Y97.524 E6.73961
G1 X124.566 Y97.431 E6.74343
G1 X123.803 Y98.194 E6.76208
G1 X123.571 Y98.131 E6.76622
G1 X124.362 Y97.341 E6.78555
G1 X124.130 Y97.279 E6.78969
G1 X123.340 Y98.069 E6.80901
G1 X123.081 Y98.034 E6.81352
G1 X123.898 Y97.217 E6.83349
G1 X123.666 Y97.155 E6.83764
G1 X122.811 Y98.010 E6.85854
G1 X122.541 Y97.986 E6.86323
G1 X123.434 Y97.093 E6.88508
G1 X123.278 Y97.051 E6.88787
G1 X123.231 Y97.002 E6.88905
G1 X122.230 Y98.002 E6.91351
G1 X121.908 Y98.031 E6.91910
G1 X123.088 Y96.851 E6.94794
G1 X122.944 Y96.701 E6.95153
G1 X121.561 Y98.084 E6.98535
G1 X121.159 Y98.192 E6.99254
G1 X122.800 Y96.550 E7.03267
G1 X122.657 Y96.400 E7.03627
G1 X120.695 Y98.362 E7.08422
G1 X120.207 Y98.589 E7.09353
G1 X120.095 Y98.668 E7.09590
G1 X122.513 Y96.250 E7.15502
G1 X122.370 Y96.099 E7.15862
G1 X117.178 Y101.291 E7.28553
G1 X117.231 Y101.093 E7.28908
G1 X117.231 Y100.944 E7.29165
G1 X122.151 Y96.024 E7.41193
G1 X121.857 Y96.024 E7.41701
G1 X117.231 Y100.650 E7.53010
G1 X117.231 Y100.356 E7.53518
G1 X121.563 Y96.024 E7.64108
G1 X121.269 Y96.024 E7.64616
G1 X117.231 Y100.062 E7.74488
G1 X117.231 Y99.768 E7.74996
G1 X120.975 Y96.024 E7.84149
G1 X120.681 Y96.024 E7.84657
G1 X117.231 Y99.474 E7.93091
G1 X117.231 Y99.180 E7.93599
G1 X120.387 Y96.024 E8.01315
G1 X120.093 Y96.024 E8.01823
G1 X117.231 Y98.886 E8.08820
G1 X117.231 Y98.592 E8.09328
G1 X119.799 Y96.024 E8.15606
G1 X119.505 Y96.024 E8.16114
G1 X117.046 Y98.483 E8.22127
G1 X116.752 Y98.483 E8.22635
G1 X119.211 Y96.023 E8.28647
G1 X118.917 Y96.023 E8.29155
G1 X116.458 Y98.483 E8.35168
G1 X116.164 Y98.483 E8.35676
G1 X118.623 Y96.023 E8.41688
G1 X118.329 Y96.023 E8.42197
G1 X115.870 Y98.483 E8.48209
G1 X115.576 Y98.483 E8.48717
G1 X118.035 Y96.023 E8.54730
G1 X117.741 Y96.023 E8.55238
G1 X115.282 Y98.483 E8.61251
G1 X114.988 Y98.483 E8.61759
G1 X117.448 Y96.023 E8.67772
G1 X117.154 Y96.023 E8.68280
G1 X114.694 Y98.483 E8.74293
G1 X114.400 Y98.483 E8.74802
G1 X116.860 Y96.023 E8.80815
G1 X116.566 Y96.023 E8.81323
G1 X114.106 Y98.483 E8.87336
G1 X113.812 Y98.483 E8.87845
G1 X116.272 Y96.023 E8.93858
G1 X115.978 Y96.023 E8.94366
G1 X113.518 Y98.483 E9.00380
G1 X113.224 Y98.483 E9.00888
G1 X115.684 Y96.023 E9.06901
G1 X115.390 Y96.023 E9.07410
G1 X112.930 Y98.483 E9.13423
G1 X112.636 Y98.483 E9.13931
G1 X115.096 Y96.023 E9.19945
G1 X114.802 Y96.023 E9.20453
G1 X112.342 Y98.483 E9.26467
G1 X112.048 Y98.483 E9.26976
G1 X114.508 Y96.023 E9.32990
G1 X114.214 Y96.023 E9.33498
G1 X111.754 Y98.483 E9.39512
G1 X111.460 Y98.483 E9.40020
G1 X113.920 Y96.023 E9.46034
G1 X113.626 Y96.023 E9.46543
G1 X111.166 Y98.483 E9.52557
G1 X110.872 Y98.483 E9.53065
G1 X113.332 Y96.023 E9.59080
G1 X113.038 Y96.023 E9.59588
G1 X110.578 Y98.483 E9.65602
G1 X110.284 Y98.483 E9.66111
G1 X112.744 Y96.023 E9.72125
G1 X112.450 Y96.022 E9.72633
G1 X109.990 Y98.483 E9.78648
G1 X109.696 Y98.483 E9.79156
G1 X112.156 Y96.022 E9.85171
G1 X111.862 Y96.022 E9.85679
G1 X109.402 Y98.483 E9.91694
G1 X109.108 Y98.483 E9.92203
