; generated by Slic3r 1.3.0-dev on 2018-06-26 at 14:27:51

; external perimeters extrusion width = 0.40mm (2.57mm^3/s)
; perimeters extrusion width = 0.67mm (7.54mm^3/s)
; infill extrusion width = 0.67mm (7.54mm^3/s)
; solid infill extrusion width = 0.24mm (1.97mm^3/s)
; top infill extrusion width = 0.67mm (3.77mm^3/s)

M190 S70 ; set bed temperature and wait for it to be reached
M104 S245 ; set temperature
G28 ; home all axes

; Filament gcode

M109 S245 ; set temperature and wait for it to be reached
G21 ; set units to millimeters
G90 ; use absolute coordinates
M82 ; use absolute distances for extrusion
G92 E0
M106 S255
G1 Z0.200 F7800.000
G1 E-6.00000 F3600.00000
G92 E0
G1 X71.660 Y78.631 F7800.000
G1 E6.00000 F3600.00000
G1 F1800
G1 X72.073 Y78.273 E6.00940
G1 X72.629 Y77.847 E6.02146
G1 X73.029 Y77.573 E6.02981
G1 X73.614 Y77.214 E6.04164
G1 X92.794 Y66.509 E6.41984
G1 X93.689 Y66.103 E6.43676
G1 X94.573 Y65.780 E6.45297
G1 X95.452 Y65.527 E6.46871
G1 X96.350 Y65.335 E6.48453
G1 X97.243 Y65.207 E6.50007
G1 X98.652 Y65.127 E6.52437
G1 X119.050 Y65.139 E6.87559
G1 X119.912 Y65.191 E6.89046
G1 X120.762 Y65.300 E6.90521
G1 X121.598 Y65.462 E6.91988
G1 X122.507 Y65.706 E6.93608
G1 X123.309 Y65.984 E6.95070
G1 X124.000 Y66.268 E6.96357
G1 X124.839 Y66.677 E6.97964
G1 X125.598 Y67.117 E6.99475
G1 X126.300 Y67.589 E7.00932
G1 X126.961 Y68.096 E7.02366
G1 X127.607 Y68.660 E7.03843
G1 X128.237 Y69.290 E7.05377
G1 X128.793 Y69.926 E7.06832
G1 X129.326 Y70.624 E7.08343
G1 X129.801 Y71.342 E7.09826
G1 X130.182 Y71.998 E7.11131
G1 X130.605 Y72.846 E7.12764
G1 X130.936 Y73.650 E7.14261
G1 X131.218 Y74.493 E7.15791
G1 X131.407 Y75.193 E7.17039
G1 X131.594 Y76.111 E7.18653
G1 X131.704 Y76.944 E7.20100
G1 X131.762 Y77.794 E7.21567
G1 X131.762 Y78.696 E7.23119
G1 X131.704 Y79.542 E7.24579
G1 X131.597 Y80.358 E7.25996
G1 X131.407 Y81.293 E7.27640
G1 X131.221 Y81.987 E7.28877
G1 X130.916 Y82.895 E7.30527
G1 X130.582 Y83.689 E7.32009
G1 X130.182 Y84.491 E7.33553
G1 X129.792 Y85.160 E7.34886
G1 X129.315 Y85.876 E7.36368
G1 X128.814 Y86.534 E7.37792
G1 X127.960 Y87.498 E7.40008
G1 X83.054 Y132.908 E8.49974
G1 X81.184 Y134.234 E8.53922
G1 X78.346 Y134.873 E8.58931
G1 X74.850 Y134.873 E8.64951
G1 X72.592 Y134.476 E8.68899
G1 X70.604 Y133.333 E8.72846
G1 X69.126 Y131.580 E8.76794
G1 X68.334 Y129.429 E8.80742
G1 X68.229 Y128.253 E8.82775
G1 X68.229 Y86.642 E9.54423
G1 X68.244 Y86.005 E9.55520
G1 X68.350 Y84.960 E9.57330
G1 X68.544 Y83.940 E9.59117
G1 X68.655 Y83.500 E9.59899
G1 X68.866 Y82.827 E9.61113
G1 X69.051 Y82.336 E9.62016
G1 X69.315 Y81.721 E9.63168
G1 X69.566 Y81.226 E9.64124
G1 X69.876 Y80.713 E9.65156
G1 X70.346 Y80.052 E9.66553
G1 X70.935 Y79.352 E9.68129
G1 X71.616 Y78.671 E9.69787
G1 X71.800 Y78.784 F7800.000
G1 F1800
G1 X72.205 Y78.433 E9.70710
G1 X72.749 Y78.016 E9.71891
G1 X73.143 Y77.745 E9.72713
G1 X73.716 Y77.394 E9.73871
G1 X92.893 Y66.691 E10.11686
G1 X93.760 Y66.297 E10.13325
G1 X94.643 Y65.974 E10.14945
G1 X95.495 Y65.730 E10.16470
G1 X96.393 Y65.538 E10.18052
G1 X97.259 Y65.413 E10.19558
G1 X98.652 Y65.334 E10.21961
G1 X119.037 Y65.345 E10.57062
G1 X119.899 Y65.398 E10.58548
G1 X120.722 Y65.503 E10.59977
G1 X121.558 Y65.665 E10.61443
G1 X122.439 Y65.902 E10.63013
G1 X123.241 Y66.180 E10.64475
G1 X123.911 Y66.455 E10.65722
G1 X124.747 Y66.862 E10.67324
G1 X125.483 Y67.289 E10.68788
G1 X126.185 Y67.761 E10.70245
G1 X126.825 Y68.252 E10.71634
G1 X127.471 Y68.816 E10.73111
G1 X128.081 Y69.427 E10.74597
G1 X128.637 Y70.063 E10.76052
G1 X129.153 Y70.738 E10.77515
G1 X129.629 Y71.457 E10.78998
G1 X129.998 Y72.091 E10.80263
G1 X130.419 Y72.937 E10.81890
G1 X130.739 Y73.716 E10.83340
G1 X131.022 Y74.558 E10.84869
G1 X131.204 Y75.236 E10.86077
G1 X131.391 Y76.151 E10.87687
G1 X131.497 Y76.958 E10.89088
G1 X131.555 Y77.808 E10.90555
G1 X131.555 Y78.682 E10.92059
G1 X131.497 Y79.528 E10.93519
G1 X131.394 Y80.318 E10.94892
G1 X131.204 Y81.251 E10.96530
G1 X131.024 Y81.923 E10.97728
G1 X130.720 Y82.828 E10.99372
G1 X130.397 Y83.597 E11.00808
G1 X129.997 Y84.398 E11.02350
G1 X129.619 Y85.045 E11.03641
G1 X129.143 Y85.761 E11.05122
G1 X128.657 Y86.399 E11.06502
G1 X127.813 Y87.352 E11.08695
G1 X82.907 Y132.762 E12.18660
G1 X81.063 Y134.062 E12.22546
G1 X78.346 Y134.666 E12.27338
G1 X74.850 Y134.666 E12.33357
G1 X72.629 Y134.269 E12.37242
G1 X70.683 Y133.128 E12.41128
G1 X69.252 Y131.383 E12.45013
G1 X68.436 Y128.253 E12.50582
G1 X68.436 Y86.642 E13.22231
G1 X68.459 Y85.895 E13.23519
G1 X68.573 Y84.869 E13.25296
G1 X68.690 Y84.241 E13.26396
G1 X68.854 Y83.558 E13.27606
G1 X69.153 Y82.646 E13.29257
G1 X69.503 Y81.807 E13.30823
G1 X69.746 Y81.328 E13.31748
G1 X70.048 Y80.828 E13.32753
G1 X70.512 Y80.176 E13.34131
G1 X71.087 Y79.492 E13.35670
G1 X71.755 Y78.824 E13.37297
G1 X71.939 Y78.937 F7800.000
G1 F1800
G1 X72.337 Y78.593 E13.38203
G1 X72.870 Y78.184 E13.39359
G1 X73.257 Y77.918 E13.40167
G1 X73.818 Y77.574 E13.41302
G1 X92.993 Y66.873 E13.79112
G1 X93.832 Y66.492 E13.80698
G1 X94.714 Y66.169 E13.82316
G1 X95.538 Y65.932 E13.83792
G1 X96.436 Y65.740 E13.85374
G1 X97.274 Y65.620 E13.86831
G1 X98.652 Y65.541 E13.89208
G1 X119.025 Y65.552 E14.24287
G1 X119.886 Y65.605 E14.25773
G1 X120.683 Y65.706 E14.27156
G1 X121.519 Y65.868 E14.28622
G1 X122.371 Y66.097 E14.30141
G1 X123.173 Y66.375 E14.31603
G1 X123.821 Y66.642 E14.32810
G1 X124.656 Y67.048 E14.34408
G1 X125.367 Y67.461 E14.35824
G1 X126.069 Y67.933 E14.37281
G1 X126.689 Y68.408 E14.38625
G1 X127.335 Y68.972 E14.40102
G1 X127.926 Y69.563 E14.41541
G1 X128.481 Y70.199 E14.42995
G1 X128.981 Y70.853 E14.44412
G1 X129.456 Y71.571 E14.45894
G1 X129.813 Y72.185 E14.47117
G1 X130.233 Y73.028 E14.48740
G1 X130.543 Y73.782 E14.50143
G1 X130.825 Y74.622 E14.51669
G1 X131.001 Y75.278 E14.52839
G1 X131.188 Y76.191 E14.54443
G1 X131.291 Y76.972 E14.55800
G1 X131.349 Y77.822 E14.57267
G1 X131.349 Y78.668 E14.58722
G1 X131.291 Y79.514 E14.60182
G1 X131.190 Y80.279 E14.61511
G1 X131.002 Y81.208 E14.63144
G1 X130.827 Y81.858 E14.64303
G1 X130.524 Y82.760 E14.65941
G1 X130.212 Y83.504 E14.67331
G1 X129.813 Y84.304 E14.68870
G1 X129.447 Y84.931 E14.70119
G1 X128.970 Y85.646 E14.71600
G1 X128.500 Y86.263 E14.72935
G1 X127.666 Y87.207 E14.75104
G1 X82.760 Y132.617 E15.85070
G1 X80.942 Y133.890 E15.88891
G1 X78.346 Y134.459 E15.93467
G1 X74.850 Y134.459 E15.99487
G1 X72.666 Y134.062 E16.03309
G1 X70.762 Y132.923 E16.07130
G1 X69.380 Y131.186 E16.10952
G1 X68.643 Y128.253 E16.16159
G1 X68.643 Y86.642 E16.87807
G1 X68.657 Y86.029 E16.88864
G1 X68.761 Y85.016 E16.90617
G1 X68.949 Y84.028 E16.92349
G1 X69.053 Y83.615 E16.93082
G1 X69.255 Y82.969 E16.94247
G1 X69.434 Y82.493 E16.95123
G1 X69.691 Y81.893 E16.96248
G1 X69.927 Y81.429 E16.97143
G1 X70.220 Y80.943 E16.98121
G1 X70.704 Y80.266 E16.99553
G1 X71.239 Y79.633 E17.00980
G1 X71.895 Y78.978 E17.02577
G1 E11.02577 F3600.00000
G92 E0
G1 X92.382 Y82.192 F7800.000
G1 E6.00000 F3600.00000
G1 F1080
G1 X92.623 Y81.988 E6.00544
G1 X92.797 Y81.723 E6.01089
G1 X92.889 Y81.413 E6.01647
G1 X92.891 Y81.096 E6.02193
G1 X92.811 Y80.804 E6.02712
G1 X92.505 Y79.943 E6.04287
G1 X92.328 Y79.058 E6.05840
G1 X92.277 Y78.158 E6.07393
G1 X92.354 Y77.255 E6.08953
G1 X92.554 Y76.379 E6.10501
G1 X92.877 Y75.539 E6.12050
G1 X93.321 Y74.751 E6.13608
G1 X93.862 Y74.033 E6.15156
G1 X94.507 Y73.401 E6.16710
G1 X95.232 Y72.868 E6.18259
G1 X96.024 Y72.432 E6.19816
G1 X96.871 Y72.122 E6.21369
G1 X97.751 Y71.934 E6.22920
G1 X98.527 Y71.882 E6.24258
G1 X98.527 Y74.132 E6.28133
G1 X97.587 Y74.256 E6.29766
G1 X96.591 Y74.671 E6.31624
G1 X95.735 Y75.327 E6.33481
G1 X95.081 Y76.181 E6.35333
G1 X94.666 Y77.177 E6.37191
G1 X94.526 Y78.244 E6.39044
G1 X94.666 Y79.311 E6.40897
G1 X95.081 Y80.305 E6.42752
G1 X95.735 Y81.157 E6.44601
G1 X96.591 Y81.815 E6.46460
G1 X97.587 Y82.230 E6.48319
G1 X98.644 Y82.367 E6.50153
G1 X118.660 Y82.367 E6.84618
G1 X119.721 Y82.230 E6.86460
G1 X120.718 Y81.815 E6.88319
G1 X121.567 Y81.157 E6.90169
G1 X122.227 Y80.305 E6.92025
G1 X122.634 Y79.310 E6.93875
G1 X122.776 Y78.244 E6.95728
G1 X122.634 Y77.178 E6.97580
G1 X122.227 Y76.181 E6.99434
G1 X121.567 Y75.327 E7.01292
G1 X120.718 Y74.671 E7.03141
G1 X119.721 Y74.256 E7.04999
G1 X118.777 Y74.132 E7.06638
G1 X118.780 Y71.881 E7.10515
G1 X119.486 Y71.924 E7.11733
G1 X120.306 Y72.083 E7.13170
G1 X121.092 Y72.356 E7.14603
G1 X121.842 Y72.721 E7.16039
G1 X122.530 Y73.183 E7.17467
G1 X123.164 Y73.737 E7.18915
G1 X123.708 Y74.360 E7.20341
G1 X124.170 Y75.057 E7.21780
G1 X124.541 Y75.801 E7.23213
G1 X124.807 Y76.593 E7.24650
G1 X124.973 Y77.408 E7.26083
G1 X125.031 Y78.244 E7.27526
G1 X124.973 Y79.076 E7.28962
G1 X124.807 Y79.896 E7.30402
G1 X124.543 Y80.681 E7.31829
G1 X124.170 Y81.431 E7.33271
G1 X123.708 Y82.124 E7.34705
G1 X123.163 Y82.753 E7.36138
G1 X122.530 Y83.302 E7.37581
G1 X121.841 Y83.764 E7.39008
G1 X121.092 Y84.132 E7.40447
G1 X120.306 Y84.403 E7.41879
G1 X119.486 Y84.564 E7.43317
G1 X118.648 Y84.619 E7.44763
G1 X80.345 Y84.619 E8.10715
G1 X79.802 Y84.692 E8.11659
G1 X79.293 Y84.896 E8.12603
G1 X78.851 Y85.241 E8.13568
G1 X78.507 Y85.680 E8.14529
G1 X78.296 Y86.192 E8.15482
G1 X78.225 Y86.732 E8.16419
G1 X78.221 Y128.127 E8.87697
G1 X74.975 Y128.127 E8.93286
G1 X74.979 Y86.393 E9.65146
G1 X75.034 Y85.879 E9.66037
G1 X75.136 Y85.376 E9.66921
G1 X75.204 Y85.139 E9.67346
G1 X75.450 Y84.526 E9.68482
G1 X75.743 Y84.101 E9.69371
G1 X76.033 Y83.776 E9.70120
G1 X76.369 Y83.475 E9.70897
G1 X76.743 Y83.205 E9.71692
G1 X77.146 Y82.967 E9.72499
G1 X77.582 Y82.764 E9.73326
G1 X78.042 Y82.598 E9.74169
G1 X78.769 Y82.421 E9.75457
G1 X79.011 Y82.386 E9.75878
G1 X79.769 Y82.339 E9.77185
G1 X80.343 Y82.367 E9.78175
G1 X91.786 Y82.367 E9.97879
G1 X92.091 Y82.327 E9.98409
G1 X92.328 Y82.218 E9.98858
G1 X92.662 Y82.339 F7800.000
G1 E3.98858 F3600.00000
G92 E0
G1 X98.320 Y73.951 F7800.000
G1 E6.00000 F3600.00000
G1 F1800
G1 X97.533 Y74.055 E6.01367
G1 X96.486 Y74.490 E6.03319
G1 X95.587 Y75.179 E6.05269
G1 X94.900 Y76.076 E6.07216
G1 X94.465 Y77.123 E6.09167
G1 X94.317 Y78.244 E6.11114
G1 X94.465 Y79.365 E6.13061
G1 X94.900 Y80.410 E6.15010
G1 X95.587 Y81.305 E6.16953
G1 X96.486 Y81.996 E6.18905
G1 X97.533 Y82.432 E6.20858
G1 X98.631 Y82.574 E6.22763
G1 X118.673 Y82.574 E6.57275
G1 X119.775 Y82.432 E6.59187
G1 X120.823 Y81.996 E6.61141
G1 X121.715 Y81.305 E6.63084
G1 X122.408 Y80.410 E6.65033
G1 X122.836 Y79.364 E6.66978
G1 X122.985 Y78.244 E6.68924
G1 X122.836 Y77.124 E6.70870
G1 X122.408 Y76.077 E6.72818
G1 X121.715 Y75.179 E6.74771
G1 X120.822 Y74.490 E6.76712
G1 X119.775 Y74.055 E6.78665
G1 X118.985 Y73.951 E6.80038
G1 X118.987 Y72.101 E6.83223
G1 X119.460 Y72.130 E6.84039
G1 X120.252 Y72.284 E6.85428
G1 X121.013 Y72.547 E6.86814
G1 X121.738 Y72.900 E6.88203
G1 X122.403 Y73.348 E6.89584
G1 X123.017 Y73.883 E6.90986
G1 X123.543 Y74.486 E6.92364
G1 X123.990 Y75.160 E6.93757
G1 X124.349 Y75.881 E6.95143
G1 X124.607 Y76.646 E6.96534
G1 X124.768 Y77.436 E6.97921
G1 X124.823 Y78.244 E6.99316
G1 X124.768 Y79.048 E7.00704
G1 X124.607 Y79.842 E7.02098
G1 X124.351 Y80.602 E7.03479
G1 X123.990 Y81.327 E7.04874
G1 X123.543 Y81.998 E7.06263
G1 X123.017 Y82.607 E7.07648
G1 X122.404 Y83.138 E7.09044
G1 X121.738 Y83.584 E7.10425
G1 X121.012 Y83.941 E7.11817
G1 X120.252 Y84.203 E7.13202
G1 X119.459 Y84.358 E7.14593
G1 X118.641 Y84.412 E7.16004
G1 X80.332 Y84.412 E7.81968
G1 X79.749 Y84.490 E7.82981
G1 X79.189 Y84.715 E7.84019
G1 X78.704 Y85.093 E7.85079
G1 X78.327 Y85.575 E7.86133
G1 X78.094 Y86.138 E7.87180
G1 X78.018 Y86.718 E7.88188
G1 X78.014 Y127.920 E8.59133
G1 X75.182 Y127.920 E8.64009
G1 X75.186 Y86.404 E9.35493
G1 X75.239 Y85.911 E9.36348
G1 X75.337 Y85.425 E9.37201
G1 X75.400 Y85.206 E9.37593
G1 X75.634 Y84.625 E9.38672
G1 X75.906 Y84.229 E9.39499
G1 X76.179 Y83.923 E9.40206
G1 X76.499 Y83.637 E9.40945
G1 X76.856 Y83.378 E9.41704
G1 X77.243 Y83.150 E9.42477
G1 X77.661 Y82.955 E9.43271
G1 X78.102 Y82.796 E9.44078
G1 X78.808 Y82.625 E9.45330
G1 X79.032 Y82.593 E9.45719
G1 X79.770 Y82.547 E9.46993
G1 X80.338 Y82.574 E9.47972
G1 X91.800 Y82.574 E9.67707
G1 X92.150 Y82.529 E9.68315
G1 X92.495 Y82.368 E9.68971
G1 X92.779 Y82.126 E9.69614
G1 X92.986 Y81.812 E9.70262
G1 X93.096 Y81.443 E9.70923
G1 X93.098 Y81.068 E9.71569
G1 X93.009 Y80.742 E9.72151
G1 X92.705 Y79.887 E9.73714
G1 X92.534 Y79.032 E9.75216
G1 X92.485 Y78.161 E9.76718
G1 X92.559 Y77.287 E9.78228
G1 X92.753 Y76.439 E9.79726
G1 X93.065 Y75.628 E9.81223
G1 X93.495 Y74.864 E9.82731
G1 X94.018 Y74.170 E9.84229
G1 X94.642 Y73.560 E9.85731
G1 X95.343 Y73.042 E9.87232
G1 X96.110 Y72.621 E9.88738
G1 X96.928 Y72.322 E9.90238
G1 X97.780 Y72.140 E9.91738
G1 X98.320 Y72.103 E9.92670
G1 X98.320 Y73.891 E9.95748
G1 X98.023 Y73.800 F7800.000
G1 F1500
G1 X98.135 Y73.689 E9.96020
G1 X98.135 Y73.396 E9.96525
G1 X97.686 Y73.845 E9.97619
G1 X97.457 Y73.875 E9.98017
G1 X97.296 Y73.942 E9.98318
G1 X98.135 Y73.103 E10.00363
G1 X98.135 Y72.810 E10.00867
G1 X96.794 Y74.151 E10.04135
G1 X96.360 Y74.331 E10.04945
G1 X96.190 Y74.462 E10.05314
G1 X98.135 Y72.517 E10.10054
G1 X98.135 Y72.303 E10.10422
G1 X98.050 Y72.309 E10.10569
G1 E4.10569 F3600.00000
G92 E0
G1 X95.203 Y73.397 F7800.000
G1 E6.00000 F3600.00000
G1 F1500
G1 X93.786 Y74.814 E6.03452
G1 X93.646 Y75.000 E6.03853
G1 X93.329 Y75.565 E6.04969
G1 X95.968 Y72.926 E6.11399
G1 X96.218 Y72.788 E6.11890
G1 X96.502 Y72.684 E6.12412
G1 X93.095 Y76.091 E6.20713
G1 X92.921 Y76.559 E6.21572
G1 X96.964 Y72.515 E6.31424
G1 X97.345 Y72.427 E6.32097
G1 X92.834 Y76.938 E6.43088
G1 X92.747 Y77.318 E6.43759
G1 X97.718 Y72.348 E6.55869
G1 X98.050 Y72.309 E6.56445
G1 X92.717 Y77.642 E6.69439
G1 X92.690 Y77.962 E6.69993
G1 X94.872 Y75.780 E6.75309
G1 X94.741 Y75.950 E6.75678
G1 X94.561 Y76.384 E6.76487
G1 X92.675 Y78.269 E6.81081
G1 X92.691 Y78.546 E6.81560
G1 X94.352 Y76.886 E6.85606
G1 X94.285 Y77.047 E6.85907
G1 X94.255 Y77.276 E6.86305
G1 X92.707 Y78.824 E6.90077
G1 X92.731 Y79.092 E6.90541
G1 X94.210 Y77.613 E6.94145
G1 X94.166 Y77.951 E6.94731
G1 X92.780 Y79.337 E6.98108
G1 X92.829 Y79.581 E6.98537
G1 X94.137 Y78.273 E7.01725
G1 X94.171 Y78.532 E7.02175
G1 X92.877 Y79.825 E7.05326
G1 X92.951 Y80.045 E7.05725
G1 X94.205 Y78.790 E7.08781
G1 X94.239 Y79.049 E7.09231
G1 X93.028 Y80.261 E7.12182
G1 X93.105 Y80.477 E7.12577
G1 X94.273 Y79.308 E7.15424
G1 X94.285 Y79.397 E7.15579
G1 X94.341 Y79.533 E7.15832
G1 X93.182 Y80.693 E7.18658
G1 X93.245 Y80.922 E7.19068
G1 X94.428 Y79.740 E7.21949
G1 X94.514 Y79.947 E7.22335
G1 X93.283 Y81.178 E7.25334
G1 X93.281 Y81.473 E7.25843
G1 X94.600 Y80.153 E7.29057
G1 X94.686 Y80.360 E7.29443
G1 X93.167 Y81.880 E7.33145
G1 E1.33145 F3600.00000
G92 E0
G1 X78.122 Y85.497 F7800.000
G1 E6.00000 F3600.00000
G1 F1500
G1 X78.534 Y84.967 E6.01157
G1 X79.064 Y84.556 E6.02313
G1 X80.860 Y82.759 E6.06689
G1 X81.153 Y82.759 E6.07194
G1 X79.553 Y84.359 E6.11092
G1 X79.674 Y84.311 E6.11315
G1 X79.929 Y84.276 E6.11759
G1 X81.446 Y82.759 E6.15455
G1 X81.739 Y82.759 E6.15960
G1 X80.268 Y84.231 E6.19545
G1 X80.564 Y84.227 E6.20056
G1 X82.032 Y82.759 E6.23632
G1 X82.325 Y82.759 E6.24136
G1 X80.857 Y84.227 E6.27712
G1 X81.150 Y84.227 E6.28217
G1 X82.618 Y82.759 E6.31793
G1 X82.911 Y82.759 E6.32297
G1 X81.443 Y84.227 E6.35873
G1 X81.736 Y84.227 E6.36378
G1 X83.204 Y82.759 E6.39954
G1 X83.497 Y82.759 E6.40458
G1 X82.029 Y84.227 E6.44034
G1 X82.322 Y84.227 E6.44539
G1 X83.790 Y82.759 E6.48115
G1 X84.083 Y82.759 E6.48619
G1 X82.615 Y84.227 E6.52195
G1 X82.909 Y84.227 E6.52700
G1 X84.376 Y82.759 E6.56276
G1 X84.669 Y82.759 E6.56780
G1 X83.202 Y84.227 E6.60356
G1 X83.495 Y84.227 E6.60861
G1 X84.962 Y82.759 E6.64437
G1 X85.255 Y82.759 E6.64941
G1 X83.788 Y84.227 E6.68517
G1 X84.081 Y84.227 E6.69022
G1 X85.548 Y82.759 E6.72598
G1 X85.841 Y82.759 E6.73102
G1 X84.374 Y84.227 E6.76678
G1 X84.667 Y84.227 E6.77183
G1 X86.134 Y82.759 E6.80759
G1 X86.427 Y82.759 E6.81263
G1 X84.960 Y84.227 E6.84839
G1 X85.253 Y84.227 E6.85344
G1 X86.720 Y82.759 E6.88920
G1 X87.013 Y82.759 E6.89424
G1 X85.546 Y84.227 E6.93000
G1 X85.839 Y84.227 E6.93505
G1 X87.306 Y82.759 E6.97081
G1 X87.599 Y82.759 E6.97585
G1 X86.132 Y84.227 E7.01161
