; generated by Slic3r 1.3.0-dev on 2018-06-22 at 11:27:21

; external perimeters extrusion width = 0.40mm (2.57mm^3/s)
; perimeters extrusion width = 0.67mm (7.54mm^3/s)
; infill extrusion width = 0.67mm (7.54mm^3/s)
; solid infill extrusion width = 0.24mm (1.97mm^3/s)
; top infill extrusion width = 0.67mm (3.77mm^3/s)

M190 S70 ; set bed temperature and wait for it to be reached
M104 S245 ; set temperature
G28 ; home all axes

; Filament gcode

M109 S245 ; set temperature and wait for it to be reached
G21 ; set units to millimeters
G90 ; use absolute coordinates
M82 ; use absolute distances for extrusion
G92 E0
M106 S255
G1 Z0.200 F7800.000
G1 E-6.00000 F3600.00000
G92 E0
G1 X81.484 Y75.179 F7800.000
G1 E6.00000 F3600.00000
G1 F1800
G1 X83.261 Y73.730 E6.03948
G1 X86.495 Y72.887 E6.09702
G1 X112.505 Y72.887 E6.54488
G1 X114.763 Y73.284 E6.58436
G1 X116.751 Y74.427 E6.62384
G1 X118.229 Y76.179 E6.66332
G1 X119.124 Y79.322 E6.71959
G1 X120.189 Y117.321 E7.37414
G1 X120.192 Y120.508 E7.42901
G1 X119.795 Y122.766 E7.46849
G1 X118.651 Y124.754 E7.50797
G1 X116.899 Y126.232 E7.54745
G1 X114.747 Y127.024 E7.58693
G1 X113.570 Y127.129 E7.60727
G1 X85.868 Y127.129 E8.08428
G1 X83.609 Y126.732 E8.12376
G1 X81.622 Y125.589 E8.16324
G1 X80.144 Y123.837 E8.20272
G1 X79.352 Y121.685 E8.24220
G1 X79.246 Y120.508 E8.26254
G1 X79.247 Y117.398 E8.31609
G1 X79.874 Y79.399 E8.97048
G1 X80.308 Y77.148 E9.00995
G1 X81.454 Y75.231 E9.04840
G1 X81.688 Y75.261 F7800.000
G1 F1800
G1 X83.457 Y73.859 E9.08725
G1 X86.495 Y73.094 E9.14120
G1 X112.505 Y73.094 E9.58906
G1 X114.726 Y73.491 E9.62792
G1 X116.673 Y74.632 E9.66677
G1 X118.103 Y76.377 E9.70562
G1 X118.917 Y79.328 E9.75833
G1 X119.982 Y117.327 E10.41289
G1 X119.985 Y120.508 E10.46766
G1 X119.588 Y122.729 E10.50651
G1 X118.446 Y124.676 E10.54536
G1 X116.701 Y126.106 E10.58421
G1 X113.570 Y126.922 E10.63992
G1 X85.868 Y126.922 E11.11693
G1 X83.646 Y126.525 E11.15578
G1 X81.700 Y125.384 E11.19464
G1 X80.269 Y123.639 E11.23349
G1 X79.453 Y120.508 E11.28920
G1 X79.454 Y117.401 E11.34270
G1 X80.081 Y79.402 E11.99708
G1 X80.515 Y77.188 E12.03593
G1 X81.657 Y75.312 E12.07375
G1 X81.892 Y75.344 F7800.000
G1 F1800
G1 X83.651 Y73.991 E12.11196
G1 X86.495 Y73.301 E12.16234
G1 X112.505 Y73.301 E12.61021
G1 X114.689 Y73.698 E12.64842
G1 X116.593 Y74.837 E12.68664
G1 X117.975 Y76.574 E12.72485
G1 X118.710 Y79.334 E12.77403
G1 X119.775 Y117.333 E13.42859
G1 X119.777 Y120.508 E13.48326
G1 X119.381 Y122.692 E13.52147
G1 X118.241 Y124.596 E13.55969
G1 X116.504 Y125.978 E13.59790
G1 X113.570 Y126.715 E13.64999
G1 X85.868 Y126.715 E14.12700
G1 X83.684 Y126.319 E14.16521
G1 X81.780 Y125.179 E14.20343
G1 X80.398 Y123.442 E14.24164
G1 X79.661 Y120.508 E14.29373
G1 X79.661 Y117.405 E14.34717
G1 X80.288 Y79.406 E15.00155
G1 X80.721 Y77.229 E15.03977
G1 X81.860 Y75.395 E15.07695
G1 E9.07695 F3600.00000
G92 E0
G1 X92.059 Y116.532 F7800.000
G1 E6.00000 F3600.00000
G1 F1200
G1 X91.832 Y116.830 E6.00644
G1 X91.516 Y117.067 E6.01326
G1 X91.446 Y116.980 E6.01518
G1 X91.971 Y116.455 E6.02797
G1 X92.013 Y116.492 E6.02893
G1 X91.804 Y116.806 F7800.000
G1 E0.02893 F3600.00000
G92 E0
G1 X92.623 Y117.633 F7800.000
G1 E6.00000 F3600.00000
G1 F1080
G1 X92.609 Y116.010 E6.02796
G1 X92.443 Y115.984 E6.03086
G1 X92.606 Y115.820 E6.03483
G1 X92.622 Y99.375 E6.31800
G1 X92.556 Y99.375 E6.31914
G1 X92.472 Y98.788 E6.32935
G1 X92.339 Y98.220 E6.33940
G1 X91.991 Y97.143 E6.35888
G1 X91.757 Y96.608 E6.36893
G1 X91.491 Y96.110 E6.37865
G1 X91.210 Y95.613 E6.38848
G1 X90.892 Y95.129 E6.39846
G1 X90.161 Y94.248 E6.41818
G1 X89.314 Y93.468 E6.43800
G1 X88.864 Y93.117 E6.44782
G1 X88.399 Y92.802 E6.45750
G1 X87.900 Y92.503 E6.46751
G1 X87.384 Y92.236 E6.47752
G1 X87.138 Y92.135 E6.48210
G1 X86.981 Y91.879 E6.48727
G1 X86.823 Y91.562 E6.49337
G1 X86.763 Y91.397 E6.49639
G1 X86.651 Y90.855 E6.50591
G1 X86.620 Y90.491 E6.51221
G1 X86.620 Y79.633 E6.69916
G1 X112.380 Y79.633 E7.14273
G1 X112.380 Y90.695 E7.33321
G1 X112.271 Y91.179 E7.34174
G1 X112.051 Y91.682 E7.35119
G1 X111.847 Y91.979 E7.35740
G1 X111.638 Y92.233 E7.36306
G1 X111.099 Y92.503 E7.37344
G1 X110.617 Y92.802 E7.38320
G1 X110.136 Y93.117 E7.39311
G1 X109.686 Y93.467 E7.40292
G1 X109.254 Y93.849 E7.41286
G1 X108.855 Y94.248 E7.42258
G1 X108.473 Y94.680 E7.43251
G1 X108.124 Y95.129 E7.44230
G1 X107.790 Y95.613 E7.45242
G1 X107.242 Y96.610 E7.47200
G1 X106.827 Y97.671 E7.49163
G1 X106.660 Y98.223 E7.50157
G1 X106.440 Y99.375 E7.52175
G1 X106.377 Y99.375 E7.52282
G1 X106.394 Y115.781 E7.80532
G1 X106.447 Y116.047 E7.80998
G1 X106.532 Y116.302 E7.81462
G1 X106.656 Y116.569 E7.81968
G1 X106.815 Y116.798 E7.82448
G1 X107.008 Y117.009 E7.82942
G1 X107.437 Y117.335 E7.83868
G1 X107.691 Y117.462 E7.84358
G1 X108.218 Y117.614 E7.85302
G1 X108.515 Y117.632 E7.85814
G1 X113.445 Y117.632 E7.94304
G1 X113.445 Y120.383 E7.99041
G1 X106.166 Y120.383 E8.11576
G1 X106.166 Y118.627 E8.14600
G1 X92.481 Y118.627 E8.38164
G1 X92.481 Y120.383 E8.41189
G1 X85.993 Y120.383 E8.52361
G1 X85.993 Y117.632 E8.57098
G1 X90.470 Y117.632 E8.64808
G1 X90.814 Y117.612 E8.65400
G1 X90.957 Y117.469 E8.65749
G1 X90.981 Y117.615 E8.66004
G1 X92.563 Y117.633 E8.68729
G1 X93.023 Y117.644 F7800.000
G1 X92.832 Y117.843 F7800.000
G1 F1800
G1 X92.813 Y115.832 E8.72191
G1 X92.829 Y99.168 E9.00885
G1 X92.736 Y99.168 E9.01046
G1 X92.676 Y98.749 E9.01774
G1 X92.538 Y98.164 E9.02809
G1 X92.185 Y97.070 E9.04790
G1 X91.943 Y96.518 E9.05827
G1 X91.673 Y96.011 E9.06816
G1 X91.387 Y95.506 E9.07816
G1 X91.059 Y95.005 E9.08846
G1 X90.311 Y94.105 E9.10861
G1 X89.448 Y93.309 E9.12882
G1 X88.986 Y92.950 E9.13890
G1 X88.510 Y92.627 E9.14880
G1 X88.001 Y92.322 E9.15903
G1 X87.471 Y92.048 E9.16931
G1 X87.279 Y91.969 E9.17287
G1 X87.163 Y91.778 E9.17672
G1 X86.963 Y91.340 E9.18501
G1 X86.857 Y90.825 E9.19406
G1 X86.827 Y90.482 E9.20000
G1 X86.827 Y79.840 E9.38323
G1 X112.173 Y79.840 E9.81966
G1 X112.173 Y90.672 E10.00619
G1 X112.073 Y91.114 E10.01398
G1 X111.869 Y91.581 E10.02276
G1 X111.682 Y91.854 E10.02846
G1 X111.506 Y92.067 E10.03322
G1 X110.998 Y92.322 E10.04300
G1 X110.506 Y92.627 E10.05297
G1 X110.016 Y92.948 E10.06306
G1 X109.554 Y93.307 E10.07314
G1 X109.112 Y93.698 E10.08329
G1 X108.704 Y94.106 E10.09323
G1 X108.313 Y94.548 E10.10339
G1 X107.957 Y95.007 E10.11339
G1 X107.614 Y95.504 E10.12379
G1 X107.054 Y96.522 E10.14379
G1 X106.631 Y97.603 E10.16379
G1 X106.459 Y98.174 E10.17405
G1 X106.269 Y99.168 E10.19147
G1 X106.170 Y99.168 E10.19317
G1 X106.187 Y115.802 E10.47958
G1 X106.247 Y116.100 E10.48482
G1 X106.339 Y116.379 E10.48988
G1 X106.476 Y116.672 E10.49545
G1 X106.652 Y116.927 E10.50080
G1 X106.868 Y117.163 E10.50630
G1 X107.327 Y117.512 E10.51622
G1 X107.616 Y117.655 E10.52177
G1 X108.183 Y117.820 E10.53194
G1 X108.508 Y117.839 E10.53755
G1 X113.238 Y117.839 E10.61900
G1 X113.238 Y120.176 E10.65924
G1 X106.373 Y120.176 E10.77745
G1 X106.373 Y118.419 E10.80770
G1 X92.274 Y118.419 E11.05047
G1 X92.274 Y120.176 E11.08072
G1 X86.200 Y120.176 E11.18530
G1 X86.200 Y117.839 E11.22554
G1 X90.476 Y117.839 E11.29918
G1 X90.806 Y117.820 E11.30487
G1 X92.772 Y117.842 E11.33872
G1 E5.33872 F3600.00000
G92 E0
G1 X108.104 Y84.426 F7800.000
G1 E6.00000 F3600.00000
G1 F1200
G1 X107.756 Y84.217 E6.00699
G1 X107.361 Y83.857 E6.01620
G1 X107.198 Y83.640 E6.02087
G1 X106.974 Y83.157 E6.03004
G1 X106.886 Y82.769 E6.03688
G1 X106.886 Y82.233 E6.04612
G1 X106.974 Y81.846 E6.05296
G1 X107.198 Y81.362 E6.06213
G1 X107.359 Y81.148 E6.06674
G1 X107.650 Y80.857 E6.07384
G1 X107.865 Y80.696 E6.07845
G1 X108.348 Y80.472 E6.08762
G1 X108.735 Y80.384 E6.09446
G1 X108.990 Y80.367 E6.09887
G1 X109.276 Y80.384 E6.10379
G1 X109.659 Y80.472 E6.11056
G1 X110.142 Y80.696 E6.11973
G1 X110.359 Y80.858 E6.12439
G1 X110.720 Y81.254 E6.13361
G1 X110.929 Y81.602 E6.14060
G1 X111.069 Y81.970 E6.14739
G1 X111.121 Y82.370 E6.15433
G1 X111.121 Y82.632 E6.15885
G1 X111.069 Y83.031 E6.16577
G1 X110.980 Y83.281 E6.17035
G1 X110.790 Y83.643 E6.17738
G1 X110.546 Y83.957 E6.18422
G1 X110.250 Y84.218 E6.19102
G1 X109.903 Y84.426 E6.19799
G1 X109.535 Y84.567 E6.20478
G1 X109.135 Y84.619 E6.21172
G1 X108.872 Y84.619 E6.21624
G1 X108.473 Y84.567 E6.22318
G1 X108.160 Y84.448 E6.22894
G1 X108.104 Y84.426 F7800.000
G1 X108.030 Y84.620 F7800.000
G1 F1200
G1 X107.632 Y84.384 E6.23691
G1 X107.207 Y83.996 E6.24682
G1 X107.020 Y83.747 E6.25219
G1 X106.777 Y83.224 E6.26211
G1 X106.679 Y82.793 E6.26973
G1 X106.679 Y82.210 E6.27977
G1 X106.777 Y81.778 E6.28739
G1 X107.020 Y81.256 E6.29731
G1 X107.202 Y81.012 E6.30255
G1 X107.514 Y80.700 E6.31015
G1 X107.758 Y80.517 E6.31540
G1 X108.281 Y80.275 E6.32532
G1 X108.712 Y80.177 E6.33294
G1 X108.982 Y80.159 E6.33760
G1 X109.305 Y80.179 E6.34317
G1 X109.727 Y80.275 E6.35061
G1 X110.249 Y80.517 E6.36053
G1 X110.499 Y80.704 E6.36590
G1 X110.887 Y81.129 E6.37581
G1 X111.116 Y81.511 E6.38347
G1 X111.271 Y81.919 E6.39100
G1 X111.328 Y82.357 E6.39859
G1 X111.328 Y82.646 E6.40357
G1 X111.272 Y83.080 E6.41110
G1 X111.170 Y83.365 E6.41631
G1 X110.965 Y83.756 E6.42392
G1 X110.698 Y84.099 E6.43141
G1 X110.373 Y84.386 E6.43887
G1 X109.994 Y84.613 E6.44648
G1 X109.586 Y84.769 E6.45401
G1 X109.148 Y84.826 E6.46160
G1 X108.859 Y84.826 E6.46658
G1 X108.422 Y84.769 E6.47417
G1 X108.087 Y84.641 E6.48035
G1 E0.48035 F3600.00000
G92 E0
G1 X92.376 Y82.632 F7800.000
G1 E6.00000 F3600.00000
G1 F1200
G1 X92.341 Y82.895 E6.00456
G1 X92.237 Y83.277 E6.01138
G1 X92.045 Y83.643 E6.01850
G1 X91.801 Y83.957 E6.02533
G1 X91.505 Y84.218 E6.03213
G1 X91.157 Y84.427 E6.03912
G1 X90.772 Y84.567 E6.04617
G1 X90.390 Y84.619 E6.05282
G1 X90.111 Y84.619 E6.05763
G1 X89.728 Y84.567 E6.06427
G1 X89.343 Y84.427 E6.07132
G1 X88.997 Y84.219 E6.07828
G1 X88.700 Y83.957 E6.08509
G1 X88.525 Y83.747 E6.08981
G1 X88.384 Y83.518 E6.09443
G1 X88.229 Y83.157 E6.10119
G1 X88.159 Y82.895 E6.10587
G1 X88.124 Y82.630 E6.11047
G1 X88.141 Y82.230 E6.11736
G1 X88.229 Y81.846 E6.12415
G1 X88.454 Y81.361 E6.13334
G1 X88.697 Y81.049 E6.14016
G1 X88.891 Y80.855 E6.14488
G1 X89.119 Y80.697 E6.14966
G1 X89.343 Y80.576 E6.15405
G1 X89.589 Y80.471 E6.15865
G1 X89.991 Y80.384 E6.16573
G1 X90.247 Y80.367 E6.17015
G1 X90.514 Y80.384 E6.17476
G1 X90.914 Y80.472 E6.18182
G1 X91.379 Y80.695 E6.19070
G1 X91.612 Y80.857 E6.19558
G1 X91.974 Y81.253 E6.20482
G1 X92.237 Y81.727 E6.21415
G1 X92.341 Y82.107 E6.22094
G1 X92.376 Y82.370 E6.22550
G1 X92.376 Y82.572 E6.22899
G1 X92.376 Y82.632 F7800.000
G1 X92.581 Y82.660 F7800.000
G1 F1200
G1 X92.544 Y82.936 E6.23379
G1 X92.431 Y83.353 E6.24123
G1 X92.220 Y83.756 E6.24906
G1 X91.953 Y84.099 E6.25655
G1 X91.628 Y84.386 E6.26401
G1 X91.246 Y84.615 E6.27167
G1 X90.822 Y84.769 E6.27944
G1 X90.404 Y84.826 E6.28671
G1 X90.096 Y84.826 E6.29201
G1 X89.678 Y84.769 E6.29928
G1 X89.254 Y84.615 E6.30705
G1 X88.877 Y84.388 E6.31463
G1 X88.550 Y84.101 E6.32211
G1 X88.356 Y83.868 E6.32733
G1 X88.200 Y83.614 E6.33247
G1 X88.033 Y83.225 E6.33975
G1 X87.956 Y82.935 E6.34492
G1 X87.916 Y82.639 E6.35006
G1 X87.935 Y82.203 E6.35758
G1 X88.032 Y81.778 E6.36508
G1 X88.276 Y81.253 E6.37505
G1 X88.541 Y80.912 E6.38250
G1 X88.757 Y80.695 E6.38776
G1 X89.010 Y80.520 E6.39306
G1 X89.253 Y80.390 E6.39780
G1 X89.525 Y80.273 E6.40291
G1 X89.969 Y80.177 E6.41072
G1 X90.241 Y80.159 E6.41541
G1 X90.543 Y80.179 E6.42063
G1 X90.982 Y80.274 E6.42837
G1 X91.484 Y80.516 E6.43795
G1 X91.749 Y80.700 E6.44351
G1 X92.140 Y81.128 E6.45350
G1 X92.295 Y81.380 E6.45860
G1 X92.432 Y81.652 E6.46384
G1 X92.544 Y82.066 E6.47123
G1 X92.583 Y82.356 E6.47626
G1 X92.583 Y82.600 E6.48046
G1 E0.48046 F3600.00000
G92 E0
G1 X93.372 Y85.369 F7800.000
G1 E6.00000 F3600.00000
G1 F1200
G1 X105.627 Y85.369 E6.21101
G1 X105.627 Y92.622 E6.33590
G1 X93.372 Y92.622 E6.54691
G1 X93.372 Y85.429 E6.67076
G1 X93.237 Y84.993 F7800.000
G1 X93.165 Y85.162 F7800.000
G1 F1200
G1 X105.834 Y85.162 E6.88890
G1 X105.834 Y92.829 E7.02092
G1 X93.165 Y92.829 E7.23906
G1 X93.165 Y85.222 E7.37005
G1 X92.980 Y84.941 F7800.000
G1 F1500
G1 X87.051 Y90.871 E7.51449
G1 X87.101 Y91.113 E7.51876
G1 X92.980 Y85.234 E7.66199
G1 X92.980 Y85.527 E7.66704
G1 X87.161 Y91.346 E7.80880
G1 X87.253 Y91.547 E7.81261
G1 X92.980 Y85.820 E7.95214
G1 X92.980 Y86.113 E7.95718
G1 X87.349 Y91.744 E8.09436
G1 X87.398 Y91.825 E8.09600
G1 X87.514 Y91.873 E8.09814
G1 X92.980 Y86.406 E8.23131
G1 X92.980 Y86.699 E8.23636
G1 X87.708 Y91.971 E8.36479
G1 X87.902 Y92.070 E8.36853
G1 X92.980 Y86.992 E8.49225
G1 X92.980 Y87.285 E8.49730
G1 X88.094 Y92.171 E8.61633
G1 X88.277 Y92.281 E8.62001
G1 X92.980 Y87.578 E8.73458
G1 X92.980 Y87.871 E8.73963
G1 X88.460 Y92.391 E8.84973
G1 X88.641 Y92.503 E8.85340
G1 X92.980 Y88.164 E8.95910
G1 X92.980 Y88.457 E8.96415
G1 X88.816 Y92.621 E9.06559
G1 X88.990 Y92.740 E9.06923
G1 X92.980 Y88.750 E9.16642
G1 X92.980 Y89.043 E9.17147
G1 X89.161 Y92.862 E9.26452
G1 X89.325 Y92.991 E9.26812
G1 X92.980 Y89.336 E9.35715
G1 X92.980 Y89.629 E9.36220
G1 X89.490 Y93.119 E9.44722
G1 X89.648 Y93.254 E9.45080
G1 X92.980 Y89.922 E9.53198
G1 X92.980 Y90.215 E9.53702
G1 X89.800 Y93.394 E9.61449
G1 X89.953 Y93.535 E9.61806
G1 X92.980 Y90.508 E9.69181
G1 X92.980 Y90.801 E9.69686
G1 X90.105 Y93.675 E9.76690
G1 X90.258 Y93.816 E9.77047
G1 X92.980 Y91.093 E9.83679
G1 X92.980 Y91.386 E9.84184
G1 X90.410 Y93.957 E9.90445
G1 X90.547 Y94.113 E9.90802
G1 X92.980 Y91.679 E9.96730
G1 X92.980 Y91.972 E9.97235
G1 X90.680 Y94.273 E10.02839
G1 X90.813 Y94.433 E10.03197
G1 X92.980 Y92.265 E10.08478
G1 X92.980 Y92.558 E10.08983
G1 X90.946 Y94.593 E10.13939
G1 X91.078 Y94.753 E10.14298
G1 X92.980 Y92.851 E10.18930
G1 X92.980 Y93.014 E10.19211
G1 X93.110 Y93.014 E10.19435
G1 X91.210 Y94.914 E10.24064
G1 X91.326 Y95.091 E10.24428
G1 X93.403 Y93.014 E10.29488
G1 X93.696 Y93.014 E10.29993
G1 X91.442 Y95.268 E10.35484
G1 X91.557 Y95.447 E10.35849
G1 X93.989 Y93.014 E10.41774
G1 X94.282 Y93.014 E10.42279
G1 X91.663 Y95.634 E10.48660
G1 X91.769 Y95.821 E10.49030
G1 X94.575 Y93.014 E10.55867
G1 X94.868 Y93.014 E10.56372
G1 X91.873 Y96.009 E10.63668
G1 X91.975 Y96.200 E10.64041
G1 X95.161 Y93.014 E10.71803
G1 X95.454 Y93.014 E10.72308
G1 X92.077 Y96.391 E10.80535
G1 X92.170 Y96.591 E10.80915
G1 X95.747 Y93.014 E10.89629
G1 X96.040 Y93.014 E10.90134
G1 X92.259 Y96.795 E10.99344
G1 X92.348 Y96.999 E10.99727
G1 X96.333 Y93.014 E11.09435
G1 X96.626 Y93.014 E11.09939
G1 X92.421 Y97.219 E11.20182
G1 X92.493 Y97.440 E11.20583
G1 X96.919 Y93.014 E11.31365
G1 X97.212 Y93.014 E11.31870
G1 X92.565 Y97.662 E11.43191
G1 X92.636 Y97.883 E11.43592
G1 X97.505 Y93.014 E11.55453
G1 X97.798 Y93.014 E11.55958
G1 X92.708 Y98.104 E11.68358
G1 X92.765 Y98.340 E11.68775
G1 X98.091 Y93.014 E11.81749
G1 X98.384 Y93.014 E11.82254
G1 X92.821 Y98.577 E11.95805
G1 X92.870 Y98.821 E11.96233
G1 X98.677 Y93.014 E12.10379
G1 X98.970 Y93.014 E12.10883
G1 X93.001 Y98.983 E12.25423
G1 X93.015 Y98.983 E12.25446
G1 X93.014 Y99.263 E12.25928
G1 X99.263 Y93.014 E12.41150
G1 X99.556 Y93.014 E12.41654
G1 X93.014 Y99.556 E12.57590
G1 X93.014 Y99.849 E12.58095
G1 X99.849 Y93.014 E12.74745
G1 X100.142 Y93.014 E12.75250
G1 X93.014 Y100.142 E12.92615
G1 X93.013 Y100.436 E12.93120
G1 X100.435 Y93.014 E13.11199
G1 X100.728 Y93.014 E13.11704
G1 X93.013 Y100.729 E13.30497
G1 X93.013 Y101.022 E13.31002
G1 X101.021 Y93.014 E13.50510
G1 X101.314 Y93.014 E13.51015
G1 X93.012 Y101.315 E13.71237
G1 X93.012 Y101.609 E13.71742
G1 X101.607 Y93.014 E13.92679
G1 X101.900 Y93.014 E13.93184
G1 X93.012 Y101.902 E14.14835
G1 X93.012 Y102.195 E14.15340
G1 X102.193 Y93.014 E14.37705
G1 X102.485 Y93.014 E14.38210
G1 X93.011 Y102.488 E14.61290
G1 X93.011 Y102.782 E14.61795
G1 X102.778 Y93.014 E14.85589
G1 X103.071 Y93.014 E14.86094
G1 X93.011 Y103.075 E15.10602
G1 X93.010 Y103.368 E15.11107
G1 X103.364 Y93.014 E15.36330
G1 X103.657 Y93.014 E15.36835
G1 X93.010 Y103.661 E15.62773
G1 X93.010 Y103.955 E15.63278
G1 X103.950 Y93.014 E15.89930
G1 X104.243 Y93.014 E15.90434
G1 X93.010 Y104.248 E16.17800
G1 X93.009 Y104.541 E16.18306
G1 X104.536 Y93.014 E16.46386
G1 X104.829 Y93.014 E16.46891
G1 X93.009 Y104.834 E16.75686
G1 X93.009 Y105.128 E16.76191
