; generated by Slic3r 1.3.0-dev on 2018-06-22 at 11:05:57

; external perimeters extrusion width = 0.40mm (2.57mm^3/s)
; perimeters extrusion width = 0.67mm (7.54mm^3/s)
; infill extrusion width = 0.67mm (7.54mm^3/s)
; solid infill extrusion width = 0.24mm (1.97mm^3/s)
; top infill extrusion width = 0.67mm (3.77mm^3/s)

M190 S70 ; set bed temperature and wait for it to be reached
M104 S245 ; set temperature
G28 ; home all axes

; Filament gcode

M109 S245 ; set temperature and wait for it to be reached
G21 ; set units to millimeters
G90 ; use absolute coordinates
M82 ; use absolute distances for extrusion
G92 E0
M106 S255
G1 Z0.200 F7800.000
G1 E-6.00000 F3600.00000
G92 E0
G1 X72.514 Y81.756 F7800.000
G1 E6.00000 F3600.00000
G1 F1800
G1 X74.266 Y80.278 E6.03948
G1 X76.418 Y79.486 E6.07896
G1 X77.594 Y79.381 E6.09928
G1 X96.594 Y79.379 E6.42644
G1 X99.469 Y80.035 E6.47722
G1 X123.925 Y91.821 E6.94467
G1 X124.737 Y92.271 E6.96066
G1 X125.518 Y92.816 E6.97705
G1 X126.138 Y93.346 E6.99110
G1 X126.572 Y93.779 E7.00165
G1 X127.105 Y94.403 E7.01579
G1 X127.465 Y94.899 E7.02634
G1 X127.955 Y95.711 E7.04268
G1 X128.310 Y96.455 E7.05686
G1 X128.527 Y97.021 E7.06731
G1 X128.761 Y97.811 E7.08148
G1 X128.887 Y98.404 E7.09193
G1 X128.994 Y99.211 E7.10595
G1 X129.027 Y99.837 E7.11674
G1 X129.005 Y100.649 E7.13073
G1 X128.942 Y101.252 E7.14117
G1 X128.792 Y102.061 E7.15534
G1 X128.635 Y102.648 E7.16580
G1 X128.360 Y103.424 E7.17997
G1 X128.113 Y103.978 E7.19041
G1 X127.887 Y104.414 E7.19886
G1 X127.653 Y104.812 E7.20682
G1 X127.186 Y105.491 E7.22101
G1 X126.805 Y105.962 E7.23145
G1 X126.238 Y106.559 E7.24562
G1 X125.519 Y107.183 E7.26200
G1 X125.022 Y107.544 E7.27259
G1 X124.325 Y107.970 E7.28665
G1 X123.925 Y108.179 E7.29442
G1 X99.471 Y119.963 E7.76183
G1 X96.597 Y120.619 E7.81259
G1 X77.597 Y120.621 E8.13975
G1 X75.339 Y120.224 E8.17923
G1 X73.351 Y119.081 E8.21871
G1 X71.873 Y117.328 E8.25818
G1 X71.081 Y115.177 E8.29766
G1 X70.975 Y114.001 E8.31799
G1 X70.973 Y86.002 E8.80011
G1 X71.370 Y83.743 E8.83959
G1 X72.484 Y81.808 E8.87803
G1 X72.719 Y81.834 F7800.000
G1 F1800
G1 X74.464 Y80.404 E8.91688
G1 X77.594 Y79.588 E8.97258
G1 X96.594 Y79.586 E9.29974
G1 X99.379 Y80.222 E9.34893
G1 X123.835 Y92.007 E9.81638
G1 X124.629 Y92.448 E9.83201
G1 X125.392 Y92.980 E9.84803
G1 X125.996 Y93.496 E9.86171
G1 X126.422 Y93.922 E9.87207
G1 X126.941 Y94.529 E9.88584
G1 X127.295 Y95.016 E9.89619
G1 X127.773 Y95.810 E9.91216
G1 X128.119 Y96.534 E9.92597
G1 X128.332 Y97.090 E9.93623
G1 X128.560 Y97.859 E9.95003
G1 X128.684 Y98.442 E9.96030
G1 X128.788 Y99.228 E9.97394
G1 X128.820 Y99.842 E9.98453
G1 X128.799 Y100.633 E9.99815
G1 X128.736 Y101.225 E10.00841
G1 X128.591 Y102.013 E10.02221
G1 X128.436 Y102.589 E10.03248
G1 X128.169 Y103.345 E10.04628
G1 X127.926 Y103.889 E10.05654
G1 X127.476 Y104.704 E10.07257
G1 X127.022 Y105.365 E10.08638
G1 X126.647 Y105.828 E10.09663
G1 X126.096 Y106.409 E10.11043
G1 X125.393 Y107.018 E10.12644
G1 X124.905 Y107.373 E10.13684
G1 X124.227 Y107.788 E10.15053
G1 X123.835 Y107.992 E10.15813
G1 X99.381 Y119.776 E10.62554
G1 X96.597 Y120.412 E10.67470
G1 X77.597 Y120.414 E11.00186
G1 X75.376 Y120.017 E11.04072
G1 X73.429 Y118.876 E11.07957
G1 X71.999 Y117.131 E11.11842
G1 X71.183 Y114.001 E11.17411
G1 X71.180 Y86.002 E11.65623
G1 X71.577 Y83.780 E11.69508
G1 X72.688 Y81.886 E11.73290
G1 X72.924 Y81.914 F7800.000
G1 F1800
G1 X74.661 Y80.532 E11.77112
G1 X77.594 Y79.795 E11.82319
G1 X96.594 Y79.793 E12.15035
G1 X99.289 Y80.409 E12.19795
G1 X123.745 Y92.194 E12.66541
G1 X124.521 Y92.624 E12.68068
G1 X125.265 Y93.145 E12.69632
G1 X125.854 Y93.647 E12.70963
G1 X126.271 Y94.064 E12.71980
G1 X126.777 Y94.656 E12.73320
G1 X127.124 Y95.133 E12.74336
G1 X127.591 Y95.909 E12.75896
G1 X127.927 Y96.613 E12.77240
G1 X128.137 Y97.159 E12.78247
G1 X128.358 Y97.907 E12.79590
G1 X128.480 Y98.480 E12.80598
G1 X128.581 Y99.244 E12.81926
G1 X128.613 Y99.847 E12.82965
G1 X128.592 Y100.616 E12.84290
G1 X128.531 Y101.198 E12.85297
G1 X128.389 Y101.965 E12.86640
G1 X128.238 Y102.531 E12.87648
G1 X127.977 Y103.266 E12.88991
G1 X127.740 Y103.800 E12.89998
G1 X127.300 Y104.596 E12.91564
G1 X126.858 Y105.239 E12.92907
G1 X126.490 Y105.693 E12.93914
G1 X125.953 Y106.259 E12.95257
G1 X125.267 Y106.854 E12.96821
G1 X124.787 Y107.202 E12.97841
G1 X124.128 Y107.607 E12.99173
G1 X123.746 Y107.806 E12.99916
G1 X99.291 Y119.590 E13.46657
G1 X96.597 Y120.205 E13.51415
G1 X77.597 Y120.207 E13.84131
G1 X75.413 Y119.810 E13.87952
G1 X73.509 Y118.671 E13.91774
G1 X72.127 Y116.934 E13.95595
G1 X71.390 Y114.001 E14.00802
G1 X71.387 Y86.002 E14.49014
G1 X71.784 Y83.818 E14.52836
G1 X72.893 Y81.965 E14.56554
G1 E8.56554 F3600.00000
G92 E0
G1 X96.472 Y113.873 F7800.000
G1 E6.00000 F3600.00000
G1 F1080
G1 X77.722 Y113.875 E6.32285
G1 X77.719 Y86.127 E6.80063
G1 X96.469 Y86.125 E7.12349
G1 X96.472 Y113.813 E7.60024
G1 X96.093 Y113.745 F7800.000
G1 X96.265 Y113.666 F7800.000
G1 F1800
G1 X77.929 Y113.668 E7.91596
G1 X77.926 Y86.334 E8.38661
G1 X96.262 Y86.332 E8.70233
G1 X96.265 Y113.606 E9.17195
G1 E3.17195 F3600.00000
G92 E0
G1 X93.219 Y110.123 F7800.000
G1 E6.00000 F3600.00000
G1 F1080
G1 X80.969 Y110.124 E6.21093
G1 X80.968 Y89.877 E6.55957
G1 X93.218 Y89.875 E6.77050
G1 X93.219 Y110.063 E7.11811
G1 X93.226 Y110.523 F7800.000
G1 X93.426 Y110.330 F7800.000
G1 F1800
G1 X80.762 Y110.332 E7.33617
G1 X80.761 Y89.669 E7.69195
G1 X93.425 Y89.668 E7.91001
G1 X93.426 Y110.270 E8.26475
G1 E2.26475 F3600.00000
G92 E0
G1 X96.035 Y113.481 F7800.000
G1 E6.00000 F3600.00000
G1 F1500
G1 X96.080 Y113.437 E6.00107
G1 X96.079 Y113.144 E6.00612
G1 X95.742 Y113.481 E6.01434
G1 X95.449 Y113.481 E6.01939
G1 X96.079 Y112.851 E6.03475
G1 X96.079 Y112.558 E6.03980
G1 X95.156 Y113.481 E6.06230
G1 X94.863 Y113.481 E6.06735
G1 X96.079 Y112.265 E6.09700
G1 X96.079 Y111.972 E6.10205
G1 X94.570 Y113.481 E6.13883
G1 X94.277 Y113.481 E6.14388
G1 X96.079 Y111.679 E6.18781
G1 X96.079 Y111.385 E6.19286
G1 X93.984 Y113.481 E6.24393
G1 X93.691 Y113.481 E6.24898
G1 X96.079 Y111.092 E6.30720
G1 X96.079 Y110.799 E6.31225
G1 X93.397 Y113.481 E6.37760
G1 X93.104 Y113.481 E6.38265
G1 X96.079 Y110.506 E6.45515
G1 X96.079 Y110.213 E6.46020
G1 X92.811 Y113.481 E6.53984
G1 X92.518 Y113.481 E6.54489
G1 X96.079 Y109.920 E6.63168
G1 X96.079 Y109.627 E6.63673
G1 X92.225 Y113.481 E6.73065
G1 X91.932 Y113.481 E6.73570
G1 X96.079 Y109.334 E6.83677
G1 X96.079 Y109.041 E6.84182
G1 X91.639 Y113.481 E6.95003
G1 X91.346 Y113.481 E6.95508
G1 X96.079 Y108.748 E7.07043
G1 X96.079 Y108.455 E7.07548
G1 X91.053 Y113.481 E7.19798
G1 X90.759 Y113.481 E7.20303
G1 X96.079 Y108.162 E7.33267
G1 X96.079 Y107.869 E7.33772
G1 X93.612 Y110.336 E7.39785
G1 X93.612 Y110.043 E7.40290
G1 X96.079 Y107.576 E7.46303
G1 X96.079 Y107.283 E7.46808
G1 X93.612 Y109.750 E7.52821
G1 X93.611 Y109.457 E7.53326
G1 X96.079 Y106.990 E7.59339
G1 X96.079 Y106.697 E7.59844
G1 X93.611 Y109.164 E7.65858
G1 X93.611 Y108.871 E7.66363
G1 X96.079 Y106.403 E7.72376
G1 X96.079 Y106.110 E7.72881
G1 X93.611 Y108.578 E7.78894
G1 X93.611 Y108.285 E7.79399
G1 X96.079 Y105.817 E7.85412
G1 X96.079 Y105.524 E7.85917
G1 X93.611 Y107.992 E7.91930
G1 X93.611 Y107.699 E7.92435
G1 X96.079 Y105.231 E7.98448
G1 X96.079 Y104.938 E7.98953
G1 X93.611 Y107.406 E8.04967
G1 X93.611 Y107.113 E8.05472
G1 X96.079 Y104.645 E8.11485
G1 X96.079 Y104.352 E8.11990
G1 X93.611 Y106.820 E8.18003
G1 X93.611 Y106.526 E8.18508
G1 X96.079 Y104.059 E8.24521
G1 X96.079 Y103.766 E8.25026
G1 X93.611 Y106.233 E8.31039
G1 X93.611 Y105.940 E8.31544
G1 X96.079 Y103.473 E8.37557
G1 X96.079 Y103.180 E8.38062
G1 X93.611 Y105.647 E8.44076
G1 X93.611 Y105.354 E8.44581
G1 X96.079 Y102.887 E8.50594
G1 X96.079 Y102.594 E8.51099
G1 X93.611 Y105.061 E8.57112
G1 X93.611 Y104.768 E8.57617
G1 X96.079 Y102.301 E8.63630
G1 X96.079 Y102.008 E8.64135
G1 X93.611 Y104.475 E8.70148
G1 X93.611 Y104.182 E8.70653
G1 X96.078 Y101.715 E8.76666
G1 X96.078 Y101.422 E8.77171
G1 X93.611 Y103.889 E8.83185
G1 X93.611 Y103.596 E8.83690
G1 X96.078 Y101.128 E8.89703
G1 X96.078 Y100.835 E8.90208
G1 X93.611 Y103.303 E8.96221
G1 X93.611 Y103.010 E8.96726
G1 X96.078 Y100.542 E9.02739
G1 X96.078 Y100.249 E9.03244
G1 X93.611 Y102.717 E9.09257
G1 X93.611 Y102.424 E9.09762
G1 X96.078 Y99.956 E9.15775
G1 X96.078 Y99.663 E9.16280
G1 X93.611 Y102.131 E9.22294
G1 X93.611 Y101.838 E9.22799
G1 X96.078 Y99.370 E9.28812
G1 X96.078 Y99.077 E9.29317
G1 X93.611 Y101.544 E9.35330
G1 X93.611 Y101.251 E9.35835
G1 X96.078 Y98.784 E9.41848
G1 X96.078 Y98.491 E9.42353
G1 X93.611 Y100.958 E9.48366
G1 X93.611 Y100.665 E9.48871
G1 X96.078 Y98.198 E9.54884
G1 X96.078 Y97.905 E9.55389
G1 X93.611 Y100.372 E9.61403
G1 X93.611 Y100.079 E9.61908
G1 X96.078 Y97.612 E9.67921
G1 X96.078 Y97.319 E9.68426
G1 X93.611 Y99.786 E9.74439
G1 X93.611 Y99.493 E9.74944
G1 X96.078 Y97.026 E9.80957
G1 X96.078 Y96.733 E9.81462
G1 X93.611 Y99.200 E9.87475
G1 X93.611 Y98.907 E9.87980
G1 X96.078 Y96.440 E9.93993
G1 X96.078 Y96.146 E9.94498
G1 X93.611 Y98.614 E10.00512
G1 X93.611 Y98.321 E10.01017
G1 X96.078 Y95.853 E10.07030
G1 X96.078 Y95.560 E10.07535
G1 X93.610 Y98.028 E10.13548
G1 X93.610 Y97.735 E10.14053
G1 X96.078 Y95.267 E10.20066
G1 X96.078 Y94.974 E10.20571
G1 X93.610 Y97.442 E10.26584
G1 X93.610 Y97.149 E10.27089
G1 X96.078 Y94.681 E10.33102
G1 X96.078 Y94.388 E10.33607
G1 X93.610 Y96.856 E10.39621
G1 X93.610 Y96.563 E10.40126
G1 X96.078 Y94.095 E10.46139
G1 X96.078 Y93.802 E10.46644
G1 X93.610 Y96.269 E10.52657
G1 X93.610 Y95.976 E10.53162
G1 X96.078 Y93.509 E10.59175
G1 X96.078 Y93.216 E10.59680
G1 X93.610 Y95.683 E10.65693
G1 X93.610 Y95.390 E10.66198
G1 X96.078 Y92.923 E10.72211
G1 X96.078 Y92.630 E10.72716
G1 X93.610 Y95.097 E10.78730
G1 X93.610 Y94.804 E10.79235
G1 X96.078 Y92.337 E10.85248
G1 X96.078 Y92.044 E10.85753
G1 X93.610 Y94.511 E10.91766
G1 X93.610 Y94.218 E10.92271
G1 X96.078 Y91.751 E10.98284
G1 X96.078 Y91.458 E10.98789
G1 X93.610 Y93.925 E11.04802
G1 X93.610 Y93.632 E11.05307
G1 X96.078 Y91.164 E11.11320
G1 X96.078 Y90.871 E11.11825
G1 X93.610 Y93.339 E11.17839
G1 X93.610 Y93.046 E11.18344
G1 X96.078 Y90.578 E11.24357
G1 X96.077 Y90.285 E11.24862
G1 X93.610 Y92.753 E11.30875
G1 X93.610 Y92.460 E11.31380
G1 X96.077 Y89.992 E11.37393
G1 X96.077 Y89.699 E11.37898
G1 X93.610 Y92.167 E11.43911
G1 X93.610 Y91.874 E11.44416
G1 X96.077 Y89.406 E11.50429
G1 X96.077 Y89.113 E11.50934
G1 X93.610 Y91.581 E11.56947
G1 X93.610 Y91.287 E11.57452
G1 X96.077 Y88.820 E11.63466
G1 X96.077 Y88.527 E11.63971
G1 X93.610 Y90.994 E11.69984
G1 X93.610 Y90.701 E11.70489
G1 X96.077 Y88.234 E11.76502
G1 X96.077 Y87.941 E11.77007
G1 X93.610 Y90.408 E11.83020
G1 X93.610 Y90.115 E11.83525
G1 X96.077 Y87.648 E11.89538
G1 X96.077 Y87.355 E11.90043
G1 X93.610 Y89.822 E11.96056
G1 X93.610 Y89.529 E11.96561
G1 X96.077 Y87.062 E12.02575
G1 X96.077 Y86.769 E12.03080
G1 X93.362 Y89.483 E12.09695
G1 X93.069 Y89.483 E12.10200
G1 X96.035 Y86.517 E12.17428
G1 X95.742 Y86.517 E12.17933
G1 X92.776 Y89.483 E12.25161
G1 X92.483 Y89.483 E12.25666
G1 X95.449 Y86.517 E12.32894
G1 X95.156 Y86.518 E12.33399
G1 X92.190 Y89.483 E12.40627
G1 X91.897 Y89.483 E12.41132
G1 X94.863 Y86.518 E12.48360
G1 X94.570 Y86.518 E12.48865
G1 X91.604 Y89.483 E12.56093
G1 X91.311 Y89.483 E12.56598
G1 X94.277 Y86.518 E12.63826
G1 X93.984 Y86.518 E12.64331
G1 X91.018 Y89.484 E12.71559
G1 X90.725 Y89.484 E12.72064
G1 X93.690 Y86.518 E12.79292
G1 X93.397 Y86.518 E12.79797
G1 X90.431 Y89.484 E12.87025
G1 X90.138 Y89.484 E12.87530
G1 X93.104 Y86.518 E12.94758
G1 X92.811 Y86.518 E12.95263
G1 X89.845 Y89.484 E13.02491
G1 X89.552 Y89.484 E13.02996
G1 X92.518 Y86.518 E13.10223
G1 X92.225 Y86.518 E13.10729
G1 X89.259 Y89.484 E13.17956
G1 X88.966 Y89.484 E13.18462
G1 X91.932 Y86.518 E13.25689
G1 X91.639 Y86.518 E13.26194
G1 X88.673 Y89.484 E13.33422
G1 X88.380 Y89.484 E13.33927
G1 X91.346 Y86.518 E13.41155
G1 X91.052 Y86.518 E13.41660
G1 X88.087 Y89.484 E13.48888
G1 X87.793 Y89.484 E13.49393
G1 X90.759 Y86.518 E13.56621
G1 X90.466 Y86.518 E13.57126
G1 X87.500 Y89.484 E13.64354
G1 X87.207 Y89.484 E13.64859
G1 X90.173 Y86.518 E13.72087
G1 X89.880 Y86.518 E13.72592
G1 X86.914 Y89.484 E13.79820
G1 X86.621 Y89.484 E13.80325
G1 X89.587 Y86.518 E13.87553
G1 X89.294 Y86.518 E13.88058
G1 X86.328 Y89.484 E13.95286
G1 X86.035 Y89.484 E13.95791
G1 X89.001 Y86.518 E14.03019
G1 X88.708 Y86.518 E14.03524
G1 X85.742 Y89.484 E14.10752
G1 X85.449 Y89.484 E14.11257
G1 X88.414 Y86.518 E14.18485
G1 X88.121 Y86.518 E14.18990
G1 X85.155 Y89.484 E14.26218
G1 X84.862 Y89.484 E14.26723
G1 X87.828 Y86.518 E14.33950
G1 X87.535 Y86.518 E14.34456
G1 X84.569 Y89.484 E14.41683
G1 X84.276 Y89.484 E14.42188
G1 X87.242 Y86.518 E14.49416
G1 X86.949 Y86.518 E14.49921
G1 X83.983 Y89.484 E14.57149
G1 X83.690 Y89.484 E14.57654
G1 X86.656 Y86.518 E14.64882
G1 X86.363 Y86.518 E14.65387
G1 X83.397 Y89.484 E14.72615
G1 X83.104 Y89.484 E14.73120
G1 X86.070 Y86.518 E14.80348
G1 X85.776 Y86.518 E14.80853
G1 X82.811 Y89.484 E14.88081
G1 X82.517 Y89.484 E14.88586
G1 X85.483 Y86.518 E14.95814
G1 X85.190 Y86.518 E14.96319
G1 X82.224 Y89.484 E15.03547
G1 X81.931 Y89.484 E15.04052
G1 X84.897 Y86.518 E15.11280
G1 X84.604 Y86.518 E15.11785
G1 X81.638 Y89.484 E15.19013
G1 X81.345 Y89.484 E15.19518
G1 X84.311 Y86.518 E15.26746
G1 X84.018 Y86.518 E15.27251
G1 X81.052 Y89.484 E15.34479
G1 X80.759 Y89.484 E15.34984
G1 X83.725 Y86.519 E15.42212
G1 X83.432 Y86.519 E15.42717
G1 X78.112 Y91.838 E15.55681
G1 X78.112 Y91.545 E15.56186
G1 X83.139 Y86.519 E15.68435
G1 X82.845 Y86.519 E15.68941
G1 X78.112 Y91.252 E15.80476
G1 X78.112 Y90.959 E15.80981
G1 X82.552 Y86.519 E15.91802
G1 X82.259 Y86.519 E15.92307
G1 X78.112 Y90.666 E16.02414
G1 X78.112 Y90.373 E16.02920
G1 X81.966 Y86.519 E16.12312
G1 X81.673 Y86.519 E16.12817
G1 X78.112 Y90.080 E16.21496
G1 X78.112 Y89.787 E16.22001
G1 X81.380 Y86.519 E16.29965
G1 X81.087 Y86.519 E16.30470
G1 X78.112 Y89.494 E16.37720
G1 X78.112 Y89.201 E16.38225
G1 X80.794 Y86.519 E16.44761
G1 X80.501 Y86.519 E16.45266
G1 X78.112 Y88.908 E16.51088
G1 X78.112 Y88.615 E16.51593
G1 X80.207 Y86.519 E16.56700
G1 X79.914 Y86.519 E16.57206
G1 X78.112 Y88.322 E16.61599
G1 X78.112 Y88.028 E16.62104
G1 X79.621 Y86.519 E16.65783
G1 X79.328 Y86.519 E16.66288
G1 X78.112 Y87.735 E16.69252
G1 X78.112 Y87.442 E16.69757
G1 X79.035 Y86.519 E16.72008
G1 X78.742 Y86.519 E16.72513
G1 X78.112 Y87.149 E16.74049
G1 X78.112 Y86.856 E16.74554
G1 X78.449 Y86.519 E16.75376
G1 X78.156 Y86.519 E16.75881
G1 X78.112 Y86.563 E16.75988
G1 E10.75988 F3600.00000
G92 E0
G1 X78.112 Y91.838 F7800.000
G1 E6.00000 F3600.00000
G1 F1500
G1 X78.112 Y92.131 E6.00505
G1 X80.575 Y89.668 E6.06508
G1 X80.575 Y89.961 E6.07013
G1 X78.112 Y92.424 E6.13017
G1 X78.112 Y92.717 E6.13522
G1 X80.575 Y90.254 E6.19525
G1 X80.576 Y90.547 E6.20030
G1 X78.112 Y93.010 E6.26034
G1 X78.112 Y93.303 E6.26539
G1 X80.576 Y90.840 E6.32542
G1 X80.576 Y91.133 E6.33047
G1 X78.112 Y93.597 E6.39051
G1 X78.112 Y93.890 E6.39556
G1 X80.576 Y91.426 E6.45559
G1 X80.576 Y91.719 E6.46064
G1 X78.112 Y94.183 E6.52068
G1 X78.112 Y94.476 E6.52573
G1 X80.576 Y92.012 E6.58576
G1 X80.576 Y92.305 E6.59081
G1 X78.112 Y94.769 E6.65084
G1 X78.112 Y95.062 E6.65589
G1 X80.576 Y92.598 E6.71593
G1 X80.576 Y92.891 E6.72098
G1 X78.112 Y95.355 E6.78101
G1 X78.112 Y95.648 E6.78606
G1 X80.576 Y93.184 E6.84610
G1 X80.576 Y93.478 E6.85115
G1 X78.112 Y95.941 E6.91118
G1 X78.112 Y96.234 E6.91623
G1 X80.576 Y93.771 E6.97627
G1 X80.576 Y94.064 E6.98132
G1 X78.112 Y96.527 E7.04135
G1 X78.112 Y96.820 E7.04640
G1 X80.576 Y94.357 E7.10644
G1 X80.576 Y94.650 E7.11149
G1 X78.112 Y97.113 E7.17152
G1 X78.112 Y97.406 E7.17657
G1 X80.576 Y94.943 E7.23660
G1 X80.576 Y95.236 E7.24165
G1 X78.112 Y97.699 E7.30169
G1 X78.112 Y97.992 E7.30674
G1 X80.576 Y95.529 E7.36677
G1 X80.576 Y95.822 E7.37182
G1 X78.113 Y98.285 E7.43186
G1 X78.113 Y98.579 E7.43691
G1 X80.576 Y96.115 E7.49694
G1 X80.576 Y96.408 E7.50199
G1 X78.113 Y98.872 E7.56203
G1 X78.113 Y99.165 E7.56708
G1 X80.576 Y96.701 E7.62711
G1 X80.576 Y96.994 E7.63216
G1 X78.113 Y99.458 E7.69219
G1 X78.113 Y99.751 E7.69724
